<?xml version="1.0" encoding="UTF-8"?>
<map version="1.10" tiledversion="1.10.2" orientation="orthogonal" renderorder="right-down" width="30" height="20" tilewidth="32" tileheight="32" infinite="1" nextlayerid="6" nextobjectid="1">
 <tileset firstgid="1" source="BlockoutTileSetLvel01.tsx"/>
 <tileset firstgid="36" source="YellowMoss.tsx"/>
 <tileset firstgid="100" name="tilesetMossGarden32-32" tilewidth="32" tileheight="32" tilecount="153" columns="17">
  <image source="../../TileSets/tilesetMossGarden32-32.png" width="546" height="288"/>
 </tileset>
 <layer id="1" name="Blockout" width="30" height="20" visible="0">
  <data encoding="csv">
   <chunk x="-32" y="-32" width="16" height="16">
0,0,0,0,0,0,0,0,0,0,0,0,0,0,0,0,
0,0,0,0,0,0,0,0,0,0,0,0,0,0,0,0,
0,0,0,0,0,0,0,0,0,0,0,0,0,0,0,0,
0,0,0,0,0,0,0,0,0,0,0,0,0,0,0,0,
0,0,0,0,0,0,0,0,0,0,0,0,0,0,0,0,
0,0,0,0,0,0,0,0,0,0,0,0,0,0,0,0,
0,0,0,0,0,0,0,0,0,0,0,0,0,0,0,0,
0,0,0,0,0,0,0,17,17,17,17,17,17,17,17,17,
0,0,0,0,0,0,0,17,17,17,17,17,17,17,17,17,
0,0,0,0,0,0,0,17,17,17,17,17,17,17,17,17,
0,0,0,0,0,0,0,17,17,17,17,17,17,17,17,17,
0,0,0,0,0,0,0,0,0,0,0,0,0,0,0,0,
0,0,0,0,0,0,0,0,0,0,0,0,0,0,0,0,
0,0,0,0,0,0,0,0,0,0,0,0,0,0,0,0,
0,0,0,0,0,0,0,0,0,0,0,0,0,0,0,0,
0,0,0,0,0,0,0,0,0,0,0,0,0,0,0,0
</chunk>
   <chunk x="-16" y="-32" width="16" height="16">
0,0,0,0,0,0,0,0,0,0,0,0,0,0,0,0,
0,0,0,0,0,0,0,0,0,0,0,0,0,0,0,0,
0,0,0,0,0,0,0,0,0,0,0,0,0,0,0,0,
0,0,0,0,0,0,0,0,0,0,0,0,0,0,0,0,
0,0,0,0,0,0,0,0,0,0,0,0,0,0,0,0,
0,0,0,0,0,0,0,0,0,0,0,0,0,0,0,0,
0,0,0,0,0,0,0,0,0,0,0,0,0,0,0,0,
17,17,17,17,17,17,17,17,17,17,17,17,17,17,17,17,
17,17,17,17,17,17,17,17,17,17,17,17,17,17,17,17,
17,17,17,17,17,17,17,17,17,17,17,17,17,17,17,17,
17,17,17,17,17,17,17,17,17,17,17,17,17,17,17,17,
0,0,0,0,0,0,0,0,0,0,0,0,0,0,0,0,
0,0,0,0,0,0,0,0,0,0,0,0,0,0,0,0,
0,0,0,0,0,0,0,0,0,0,0,0,0,0,0,0,
0,0,0,0,0,0,0,0,0,0,0,0,0,0,0,0,
0,0,0,0,0,0,0,0,0,0,0,0,0,0,0,0
</chunk>
   <chunk x="0" y="-32" width="16" height="16">
0,0,0,0,0,0,0,0,0,0,0,0,0,0,0,0,
0,0,0,0,0,0,0,0,0,0,0,0,0,0,0,0,
0,0,0,0,0,0,0,0,0,0,0,0,0,0,0,0,
0,0,0,0,0,0,0,0,0,0,0,0,0,0,0,0,
0,0,0,0,0,0,0,0,0,0,0,0,0,0,0,0,
0,0,0,0,0,0,0,0,0,0,0,0,0,0,0,0,
0,0,0,0,0,0,0,0,0,0,0,0,0,0,0,0,
17,17,17,17,17,17,17,17,17,17,17,17,17,17,17,17,
17,17,17,17,17,17,17,17,17,17,17,17,17,17,17,17,
17,17,17,17,17,17,17,17,17,17,17,17,17,17,17,17,
17,17,17,17,17,17,17,17,17,17,17,17,17,17,17,17,
0,0,0,0,0,0,0,0,0,0,0,0,0,0,0,0,
0,0,0,0,0,0,0,0,0,0,0,0,0,0,0,0,
0,0,0,0,0,0,0,0,0,0,0,0,0,0,0,0,
0,0,0,0,0,0,0,0,0,0,0,0,0,0,0,0,
0,0,0,0,0,0,0,0,0,0,0,0,0,0,0,0
</chunk>
   <chunk x="16" y="-32" width="16" height="16">
0,0,0,0,0,0,0,0,0,0,0,0,0,0,0,0,
0,0,0,0,0,0,0,0,0,0,0,0,0,0,0,0,
0,0,0,0,0,0,0,0,0,0,0,0,0,0,0,0,
0,0,0,0,0,0,0,0,0,0,0,0,0,0,0,0,
0,0,0,0,0,0,0,0,0,0,0,0,0,0,0,0,
0,0,0,0,0,0,0,0,0,0,0,0,0,0,0,0,
0,0,0,0,0,0,0,0,0,0,0,0,0,0,0,0,
17,17,17,17,17,17,17,17,17,17,17,17,17,17,17,17,
17,17,17,17,17,17,17,17,17,17,17,17,17,17,17,17,
17,17,17,17,17,17,17,17,17,17,17,17,17,17,17,17,
17,17,17,17,17,17,17,17,17,17,17,17,17,17,17,17,
0,0,0,0,0,0,0,0,0,0,0,0,0,0,0,0,
0,0,0,0,0,0,0,0,0,0,0,0,0,0,0,0,
0,0,0,0,0,0,0,0,0,0,0,0,0,0,0,0,
0,0,0,0,0,0,0,0,0,0,0,0,0,0,0,0,
0,0,0,0,0,0,0,0,0,0,0,0,0,0,0,0
</chunk>
   <chunk x="32" y="-32" width="16" height="16">
0,0,0,0,0,0,0,0,0,0,0,0,0,0,0,0,
0,0,0,0,0,0,0,0,0,0,0,0,0,0,0,0,
0,0,0,0,0,0,0,0,0,0,0,0,0,0,0,0,
0,0,0,0,0,0,0,0,0,0,0,0,0,0,0,0,
0,0,0,0,0,0,0,0,0,0,0,0,0,0,0,0,
0,0,0,0,0,0,0,0,0,0,0,0,0,0,0,0,
0,0,0,0,0,0,0,0,0,0,0,0,0,0,0,0,
17,17,17,17,17,17,17,17,17,17,17,17,17,17,17,17,
17,17,17,17,17,17,17,17,17,17,17,17,17,17,17,17,
17,17,17,17,17,17,17,17,17,17,17,17,17,17,17,17,
17,17,17,17,17,17,17,17,17,17,17,17,17,17,17,17,
0,0,0,0,0,0,0,0,0,0,0,0,0,0,0,0,
0,0,0,0,0,0,0,0,0,0,0,0,0,0,0,0,
0,0,0,0,0,0,0,0,0,0,0,0,0,0,0,0,
0,0,0,0,0,0,0,0,0,0,0,0,0,0,0,0,
0,0,0,0,0,0,0,0,0,0,0,0,0,0,0,0
</chunk>
   <chunk x="48" y="-32" width="16" height="16">
0,0,0,0,0,0,0,0,0,0,0,0,0,0,0,0,
0,0,0,0,0,0,0,0,0,0,0,0,0,0,0,0,
0,0,0,0,0,0,0,0,0,0,0,0,0,0,0,0,
0,0,0,0,0,0,0,0,0,0,0,0,0,0,0,0,
0,0,0,0,0,0,0,0,0,0,0,0,0,0,0,0,
0,0,0,0,0,0,0,0,0,0,0,0,0,0,0,0,
0,0,0,0,0,0,0,0,0,0,0,0,0,0,0,0,
17,17,17,17,17,17,17,17,17,17,17,17,17,17,17,17,
17,17,17,17,17,17,17,17,17,17,17,17,17,17,17,17,
17,17,17,17,17,17,17,17,17,17,17,17,17,17,17,17,
17,17,17,17,17,17,17,17,17,17,17,17,17,17,17,17,
0,0,0,0,0,0,0,0,0,0,0,17,17,17,17,17,
0,0,0,0,0,0,0,0,0,0,0,17,17,17,17,17,
0,0,0,0,0,0,0,0,0,0,0,17,17,17,17,17,
0,0,0,0,0,0,0,0,0,0,0,17,17,17,17,17,
0,0,0,0,0,0,0,0,0,0,0,17,17,17,17,17
</chunk>
   <chunk x="64" y="-32" width="16" height="16">
0,0,0,0,0,0,0,0,0,0,0,0,0,0,0,0,
0,0,0,0,0,0,0,0,0,0,0,0,0,0,0,0,
0,0,0,0,0,0,0,0,0,0,0,0,0,0,0,0,
0,0,0,0,0,0,0,0,0,0,0,0,0,0,0,0,
0,0,0,0,0,0,0,0,0,0,0,0,0,0,0,0,
0,0,0,0,0,0,0,0,0,0,0,0,0,0,0,0,
0,0,0,0,0,0,0,0,0,0,0,0,0,0,0,0,
17,17,17,17,17,17,17,17,17,17,17,17,17,17,17,17,
17,17,17,17,17,17,17,17,17,17,17,17,17,17,17,17,
17,17,17,17,17,17,17,17,17,17,17,17,17,17,17,17,
17,17,17,17,17,17,17,17,17,17,17,17,17,17,17,17,
17,17,17,17,17,17,17,0,0,0,0,0,0,0,0,0,
17,17,17,17,17,17,17,0,0,0,0,0,0,0,0,0,
17,17,17,17,17,17,17,0,0,0,0,0,0,0,0,0,
17,17,17,17,17,17,17,0,0,0,0,0,0,0,0,0,
17,17,17,17,17,17,17,0,0,0,0,0,0,0,0,0
</chunk>
   <chunk x="80" y="-32" width="16" height="16">
0,0,0,0,0,0,0,0,0,0,0,0,0,0,0,0,
0,0,0,0,0,0,0,0,0,0,0,0,0,0,0,0,
0,0,0,0,0,0,0,0,0,0,0,0,0,0,0,0,
0,0,0,0,0,0,0,0,0,0,0,0,0,0,0,0,
0,0,0,0,0,0,0,0,0,0,0,0,0,0,0,0,
0,0,0,0,0,0,0,0,0,0,0,0,0,0,0,0,
0,0,0,0,0,0,0,0,0,0,0,0,0,0,0,0,
17,17,17,17,17,17,17,17,17,17,17,17,17,17,17,17,
17,17,17,17,17,17,17,17,17,17,17,17,17,17,17,17,
17,17,17,17,17,17,17,17,17,17,17,17,17,17,17,17,
17,17,17,17,17,17,17,17,17,17,17,17,17,17,17,17,
0,0,0,0,0,0,0,0,0,0,0,0,0,0,0,0,
0,0,0,0,0,0,0,0,0,0,0,0,0,0,0,0,
0,0,0,0,0,0,0,0,0,0,0,0,0,0,0,0,
0,0,0,0,0,0,0,0,0,0,0,0,0,0,0,0,
0,0,0,0,0,0,0,0,0,0,0,0,0,0,0,0
</chunk>
   <chunk x="96" y="-32" width="16" height="16">
0,0,0,0,0,0,0,0,0,0,0,0,0,0,0,0,
0,0,0,0,0,0,0,0,0,0,0,0,0,0,0,0,
0,0,0,0,0,0,0,0,0,0,0,0,0,0,0,0,
0,0,0,0,0,0,0,0,0,0,0,0,0,0,0,0,
0,0,0,0,0,0,0,0,0,0,0,0,0,0,0,0,
0,0,0,0,0,0,0,0,0,0,0,0,0,0,0,0,
0,0,0,0,0,0,0,0,0,0,0,0,0,0,0,0,
17,17,17,17,17,17,17,17,17,17,17,17,17,17,17,17,
17,17,17,17,17,17,17,17,17,17,17,17,17,17,17,17,
17,17,17,17,17,17,17,17,17,17,17,17,17,17,17,17,
17,17,17,17,17,17,17,17,17,17,17,17,17,17,17,17,
0,0,0,0,0,0,0,0,0,0,0,0,0,0,0,0,
0,0,0,0,0,0,0,0,0,0,0,0,0,0,0,0,
0,0,0,0,0,0,0,0,0,0,0,0,0,0,0,0,
0,0,0,0,0,0,0,0,0,0,0,0,0,0,0,0,
0,0,0,0,0,0,0,0,0,0,0,0,0,0,0,0
</chunk>
   <chunk x="112" y="-32" width="16" height="16">
0,0,0,0,0,0,0,0,0,0,0,0,0,0,0,0,
0,0,0,0,0,0,0,0,0,0,0,0,0,0,0,0,
0,0,0,0,0,0,0,0,0,0,0,0,0,0,0,0,
0,0,0,0,0,0,0,0,0,0,0,0,0,0,0,0,
0,0,0,0,0,0,0,0,0,0,0,0,0,0,0,0,
0,0,0,0,0,0,0,0,0,0,0,0,0,0,0,0,
0,0,0,0,0,0,0,0,0,0,0,0,0,0,0,0,
17,17,17,17,17,17,17,17,17,17,17,17,17,17,17,17,
17,17,17,17,17,17,17,17,17,17,17,17,17,17,17,17,
17,17,17,17,17,17,17,17,17,17,17,17,17,17,17,17,
17,17,17,17,17,17,17,17,17,17,17,17,17,17,17,17,
0,0,0,0,0,17,17,17,17,17,17,17,17,17,17,17,
0,0,0,0,0,17,17,17,17,17,17,17,17,17,17,17,
0,0,0,0,0,17,17,17,17,17,17,17,17,17,17,17,
0,0,0,0,0,17,17,17,17,17,17,17,17,17,17,17,
0,0,0,0,0,17,17,17,17,17,17,17,17,17,17,17
</chunk>
   <chunk x="128" y="-32" width="16" height="16">
0,0,0,0,0,0,0,0,0,0,0,0,0,0,0,0,
0,0,0,0,0,0,0,0,0,0,0,0,0,0,0,0,
0,0,0,0,0,0,0,0,0,0,0,0,0,0,0,0,
0,0,0,0,0,0,0,0,0,0,0,0,0,0,0,0,
0,0,0,0,0,0,0,0,0,0,0,0,0,0,0,0,
0,0,0,0,0,0,0,0,0,0,0,0,0,0,0,0,
0,0,0,0,0,0,0,0,0,0,0,0,0,0,0,0,
17,17,17,17,17,17,17,17,17,17,17,17,17,17,17,17,
17,17,17,17,17,17,17,17,17,17,17,17,17,17,17,17,
17,17,17,17,17,17,17,17,17,17,17,17,17,17,17,17,
17,17,17,17,17,17,17,17,17,17,17,17,17,17,17,17,
17,17,17,17,17,17,17,17,17,17,17,17,17,17,17,17,
17,17,17,17,17,17,17,17,17,17,17,17,17,17,17,17,
17,17,17,17,17,17,17,17,17,17,17,17,17,17,17,17,
17,17,17,17,17,17,17,17,17,17,17,17,17,17,17,17,
17,17,17,17,17,17,17,17,17,17,17,17,17,17,17,17
</chunk>
   <chunk x="144" y="-32" width="16" height="16">
0,0,0,0,0,0,0,0,0,0,0,0,0,0,0,0,
0,0,0,0,0,0,0,0,0,0,0,0,0,0,0,0,
0,0,0,0,0,0,0,0,0,0,0,0,0,0,0,0,
0,0,0,0,0,0,0,0,0,0,0,0,0,0,0,0,
0,0,0,0,0,0,0,0,0,0,0,0,0,0,0,0,
0,0,0,0,0,0,0,0,0,0,0,0,0,0,0,0,
0,0,0,0,0,0,0,0,0,0,0,0,0,0,0,0,
17,17,17,17,17,17,17,17,17,17,17,17,17,17,17,17,
17,17,17,17,17,17,17,17,17,17,17,17,17,17,17,17,
17,17,17,17,17,17,17,17,17,17,17,17,17,17,17,17,
17,17,17,17,17,17,17,17,17,17,17,17,17,17,17,17,
17,17,17,17,17,17,17,17,17,17,17,17,17,17,17,17,
17,17,17,17,17,17,17,17,17,17,17,17,17,17,17,17,
17,17,17,17,17,17,17,17,17,17,17,17,17,17,17,17,
17,17,17,17,17,17,17,17,17,17,17,17,17,17,17,17,
17,17,17,17,17,17,17,17,17,17,17,17,17,17,17,17
</chunk>
   <chunk x="160" y="-32" width="16" height="16">
0,0,0,0,0,0,0,0,0,0,0,0,0,0,0,0,
0,0,0,0,0,0,0,0,0,0,0,0,0,0,0,0,
0,0,0,0,0,0,0,0,0,0,0,0,0,0,0,0,
0,0,0,0,0,0,0,0,0,0,0,0,0,0,0,0,
0,0,0,0,0,0,0,0,0,0,0,0,0,0,0,0,
0,0,0,0,0,0,0,0,0,0,0,0,0,0,0,0,
0,0,0,0,0,0,0,0,0,0,0,0,0,0,0,0,
17,17,17,17,17,17,17,17,17,17,17,17,17,0,0,0,
17,17,17,17,17,17,17,17,17,17,17,17,17,0,0,0,
17,17,17,17,17,17,17,17,17,17,17,17,17,0,0,0,
17,17,17,17,17,17,17,17,17,17,17,17,17,0,0,0,
17,17,17,17,17,17,17,17,17,17,17,17,17,0,0,0,
17,17,17,17,17,17,17,17,17,17,17,17,17,0,0,0,
17,17,17,17,17,17,17,17,17,17,17,17,17,0,0,0,
17,17,17,17,17,17,17,17,17,17,17,17,17,0,0,0,
17,17,17,17,17,17,17,17,17,17,17,17,17,0,0,0
</chunk>
   <chunk x="-16" y="-16" width="16" height="16">
0,0,0,0,0,0,0,0,0,0,0,0,0,0,0,0,
0,0,0,0,0,0,0,0,0,0,0,0,0,0,0,0,
0,0,0,0,0,0,0,0,0,0,0,0,0,0,0,0,
0,0,0,0,0,0,0,0,0,0,0,0,0,0,0,0,
0,0,0,0,0,0,0,0,0,0,0,0,0,0,0,0,
0,0,0,0,0,0,0,0,0,0,0,0,0,0,0,0,
0,0,0,0,0,0,0,0,0,0,0,0,0,0,0,0,
0,0,0,0,0,0,0,0,0,0,0,0,0,0,0,0,
0,0,0,0,0,0,0,0,0,0,0,0,0,0,0,0,
0,0,0,0,0,0,0,0,0,0,0,0,0,0,0,0,
0,0,0,0,0,0,0,0,0,0,0,0,0,0,0,0,
0,0,0,0,0,0,0,0,0,0,0,0,0,0,0,0,
0,0,0,0,0,0,0,0,0,0,0,0,0,0,0,0,
0,0,0,0,0,0,0,0,0,0,0,0,0,0,0,17,
0,0,0,0,0,0,0,0,0,0,0,0,0,0,17,17,
0,0,0,0,0,0,0,0,0,0,0,0,0,17,17,17
</chunk>
   <chunk x="0" y="-16" width="16" height="16">
0,0,0,0,0,0,0,0,0,0,0,0,0,0,0,0,
0,0,0,0,0,0,0,0,0,0,0,0,0,0,0,0,
0,0,0,0,0,0,0,0,0,0,0,0,0,0,0,0,
0,0,0,0,0,0,0,0,0,0,0,0,0,0,0,0,
0,0,0,0,0,0,0,0,0,0,0,0,0,0,0,0,
0,0,0,0,0,0,0,0,0,0,0,0,0,0,0,0,
0,0,0,0,0,0,0,0,0,0,0,0,0,0,0,0,
0,0,0,0,0,0,0,0,0,0,0,0,0,0,0,0,
0,0,0,0,0,0,0,0,0,0,0,0,0,0,0,0,
0,0,0,0,0,0,0,0,0,0,0,0,0,0,0,0,
0,0,0,0,0,0,0,0,0,0,0,0,0,0,0,0,
0,0,0,0,0,0,0,0,0,0,0,0,0,0,0,0,
17,17,17,17,17,17,17,17,17,17,17,17,17,17,17,17,
17,17,17,17,17,17,17,17,17,17,17,17,17,17,17,17,
17,17,17,17,17,17,17,17,17,17,17,17,17,17,17,17,
17,17,17,17,17,17,17,17,17,17,17,17,17,17,17,17
</chunk>
   <chunk x="16" y="-16" width="16" height="16">
0,0,0,0,0,0,0,0,0,0,0,0,0,0,0,0,
0,0,0,0,0,0,0,0,0,0,0,0,0,0,0,0,
0,0,0,0,0,0,0,0,0,0,0,0,0,0,0,0,
0,0,0,0,0,0,0,0,0,0,0,0,0,0,0,0,
0,0,0,0,0,0,0,0,0,0,0,0,0,0,0,0,
0,0,0,0,0,0,0,0,0,0,0,0,0,0,0,0,
0,0,0,0,0,0,0,0,0,0,0,0,0,0,0,0,
0,0,0,0,0,0,0,0,0,0,0,0,0,0,0,0,
0,0,0,0,0,0,0,0,0,0,0,0,0,0,0,0,
0,0,0,0,0,0,0,0,0,0,0,0,0,0,0,0,
0,0,0,0,0,0,0,0,0,0,0,0,0,0,0,0,
0,0,0,0,0,0,0,0,0,0,0,0,0,0,0,0,
17,17,17,17,17,17,17,17,17,17,17,17,17,17,17,17,
17,17,17,17,17,17,17,17,17,17,17,17,17,17,17,17,
17,17,17,17,17,17,17,17,17,17,17,17,17,17,17,17,
17,17,17,17,17,17,17,17,17,17,17,17,17,17,17,17
</chunk>
   <chunk x="32" y="-16" width="16" height="16">
0,0,0,0,0,0,0,0,0,0,0,0,0,0,0,0,
0,0,0,0,0,0,0,0,0,0,0,0,0,0,0,0,
0,0,0,0,0,0,0,0,0,0,0,0,0,0,0,0,
0,0,0,0,0,0,0,0,0,0,0,0,0,0,0,0,
0,0,0,0,0,0,0,0,0,0,0,0,0,0,0,0,
0,0,0,0,0,0,0,0,0,0,0,0,0,0,0,0,
0,0,0,0,0,0,0,0,0,0,0,0,0,0,0,0,
0,0,0,0,0,0,0,0,0,0,0,0,0,0,0,0,
0,0,0,0,0,0,0,0,0,0,0,0,0,0,0,0,
0,0,0,0,0,0,0,0,0,0,0,0,0,0,0,0,
0,0,0,0,0,0,0,0,0,0,0,0,0,0,0,0,
0,0,0,0,0,0,0,0,0,0,0,0,0,0,0,0,
17,17,17,17,17,17,17,0,0,0,0,0,0,0,0,0,
17,17,17,17,17,17,17,0,0,0,0,0,0,0,0,0,
17,17,17,17,17,17,17,0,0,0,0,0,0,0,0,0,
17,17,17,17,17,17,17,0,0,0,0,0,0,0,0,0
</chunk>
   <chunk x="48" y="-16" width="16" height="16">
0,0,0,0,0,0,0,0,0,0,0,17,17,17,17,17,
0,0,0,0,0,0,0,0,0,0,0,17,17,17,17,17,
0,0,0,0,0,0,0,0,0,0,0,17,17,17,17,17,
0,0,0,0,0,0,0,0,0,0,0,17,17,17,17,17,
0,0,0,0,0,0,0,0,0,0,0,17,17,17,17,17,
0,0,0,0,0,0,0,0,0,0,0,17,17,17,17,17,
0,0,0,0,0,0,0,0,0,0,0,17,17,17,17,17,
0,0,0,0,0,0,0,0,0,0,0,17,17,17,17,17,
0,0,0,0,0,0,0,0,0,0,0,17,17,17,17,17,
0,0,0,0,0,0,0,0,0,0,0,17,17,17,17,17,
0,0,0,0,0,0,0,0,0,0,0,17,17,17,17,17,
0,0,0,0,0,0,0,0,0,0,0,17,17,17,17,17,
0,0,0,0,0,0,0,0,0,0,0,17,17,17,17,17,
0,0,0,0,0,0,0,0,0,0,0,17,17,17,17,17,
0,0,0,0,0,0,0,0,0,0,0,17,17,17,17,17,
0,0,0,0,0,0,0,0,0,0,0,17,17,17,17,17
</chunk>
   <chunk x="64" y="-16" width="16" height="16">
17,17,17,17,17,17,17,0,0,0,0,0,0,0,0,0,
17,17,17,17,17,17,17,0,0,0,0,0,0,0,0,0,
17,17,17,17,17,17,17,0,0,0,0,0,0,0,0,0,
17,17,17,17,17,17,17,0,0,0,0,0,0,0,0,0,
17,17,17,17,17,17,17,0,0,0,0,0,0,0,0,0,
17,17,17,17,17,17,17,0,0,0,0,0,0,0,0,0,
17,17,17,17,17,17,17,0,0,0,0,0,0,0,0,0,
17,17,17,17,17,17,17,0,0,0,0,0,0,0,0,0,
17,17,17,17,17,17,17,0,0,0,0,0,0,0,0,0,
17,17,17,17,17,17,17,0,0,0,0,0,0,0,0,0,
17,17,17,17,17,17,17,0,0,0,0,0,0,0,0,0,
17,17,17,17,17,17,17,0,0,0,0,0,0,0,0,0,
17,17,17,17,17,17,17,17,17,17,17,17,17,17,17,17,
17,17,17,17,17,17,17,17,17,17,17,17,17,17,17,17,
17,17,17,17,17,17,17,17,17,17,17,17,17,17,17,17,
17,17,17,17,17,17,17,17,17,17,17,17,17,17,17,17
</chunk>
   <chunk x="80" y="-16" width="16" height="16">
0,0,0,0,0,0,0,0,0,0,0,0,0,0,0,0,
0,0,0,0,0,0,0,0,0,0,0,0,0,0,0,0,
0,0,0,0,0,0,0,0,0,0,0,0,0,0,0,0,
0,0,0,0,0,0,0,0,0,0,0,0,0,0,0,0,
0,0,0,0,0,0,0,0,0,0,0,0,0,0,0,0,
0,0,0,0,0,0,0,0,0,0,0,0,0,0,0,0,
0,0,0,0,0,0,0,0,0,0,0,0,0,0,0,0,
0,0,0,0,0,0,0,0,0,0,0,0,0,0,0,0,
0,0,0,0,0,0,0,0,0,0,0,0,0,0,0,0,
0,0,0,0,0,0,0,0,0,0,0,0,0,0,0,0,
0,0,0,0,0,0,0,0,0,0,0,0,0,0,0,0,
0,0,0,0,0,0,0,0,0,0,0,0,0,0,0,0,
17,17,17,17,17,17,0,0,0,0,0,0,0,0,17,17,
17,17,17,17,17,17,17,0,0,0,0,0,0,17,17,17,
17,17,17,17,17,17,17,17,17,17,17,17,17,17,17,17,
17,17,17,17,17,17,17,17,17,17,17,17,17,17,17,17
</chunk>
   <chunk x="96" y="-16" width="16" height="16">
0,0,0,0,0,0,0,0,0,0,0,0,0,0,0,0,
0,0,0,0,0,0,0,0,0,0,0,0,0,0,0,0,
0,0,0,0,0,0,0,0,0,0,0,0,0,0,0,0,
0,0,0,0,0,0,0,0,0,0,0,0,0,0,0,0,
0,0,0,0,0,0,0,0,0,0,0,0,0,0,0,0,
0,0,0,0,0,0,0,0,0,0,0,0,0,0,0,0,
0,0,0,0,0,0,0,0,0,0,0,0,0,0,0,0,
0,0,0,0,0,0,0,0,0,0,0,0,0,0,0,0,
0,0,0,0,0,0,0,0,0,0,0,0,0,0,0,0,
0,0,0,0,0,0,0,0,0,0,0,0,0,0,0,0,
0,0,0,0,0,0,0,0,0,0,0,0,0,0,0,0,
0,0,0,0,0,0,0,0,0,0,0,0,0,0,0,0,
17,17,17,17,17,17,17,17,17,17,17,17,0,0,0,0,
17,17,17,17,17,17,17,17,17,17,17,17,0,0,0,0,
17,17,17,17,17,17,17,17,17,17,17,17,0,0,0,0,
17,17,17,17,17,17,17,17,17,17,17,17,0,0,0,0
</chunk>
   <chunk x="112" y="-16" width="16" height="16">
0,0,0,0,0,17,17,17,17,17,17,17,17,17,17,17,
0,0,0,0,0,17,17,17,17,17,17,17,17,17,17,17,
0,0,0,0,0,0,17,17,17,17,17,17,17,17,17,17,
0,0,0,0,0,0,0,17,17,17,17,17,17,17,17,17,
0,0,0,0,0,0,0,0,0,0,0,0,0,0,0,0,
0,0,0,0,0,0,0,0,0,0,0,0,0,0,0,0,
0,0,0,0,0,0,0,0,0,0,0,0,0,0,0,0,
0,0,0,0,0,0,0,0,0,0,0,0,0,0,0,0,
0,0,0,0,0,0,0,0,0,0,0,0,0,0,0,0,
0,0,0,0,0,0,0,0,0,0,0,0,0,0,0,0,
0,0,0,0,0,0,0,0,0,0,0,0,0,0,0,0,
0,0,0,0,0,0,0,0,0,0,0,0,0,0,0,0,
0,0,0,0,0,0,0,0,0,0,0,0,0,0,0,0,
0,0,0,0,0,0,0,0,0,0,0,0,0,0,0,0,
0,0,0,0,0,0,0,0,0,0,0,0,0,0,0,0,
0,0,0,0,0,0,0,0,0,0,0,0,0,0,0,0
</chunk>
   <chunk x="128" y="-16" width="16" height="16">
17,17,17,17,17,17,17,17,17,17,17,17,17,17,17,17,
17,17,17,17,17,17,17,17,17,17,17,17,17,17,17,17,
17,17,17,17,17,17,17,17,17,17,17,17,17,17,17,17,
17,17,17,17,17,17,17,17,17,17,17,17,17,17,17,17,
0,0,0,0,0,0,0,0,0,0,0,0,17,17,17,17,
0,0,0,0,0,0,0,0,0,0,0,0,17,17,17,17,
0,0,0,0,0,0,0,0,0,0,0,0,17,17,17,17,
0,0,0,0,0,0,0,0,0,0,0,0,17,17,17,17,
0,0,0,0,0,0,0,0,0,0,0,0,17,17,17,17,
0,0,0,0,0,0,0,0,0,0,0,0,17,17,17,17,
0,0,0,0,0,0,0,0,0,0,0,0,17,17,17,17,
0,0,0,0,0,0,0,0,0,0,0,0,17,17,17,17,
0,0,0,0,0,0,0,0,0,0,0,0,17,17,17,17,
0,0,0,0,0,0,0,0,0,0,0,0,17,17,17,17,
0,0,0,0,0,0,0,0,0,0,0,0,17,17,17,17,
0,0,0,0,0,0,0,0,0,0,0,0,17,17,17,17
</chunk>
   <chunk x="144" y="-16" width="16" height="16">
17,17,17,17,17,17,17,17,17,17,17,17,17,17,17,17,
17,17,17,17,17,17,17,17,17,17,17,17,17,17,17,17,
17,17,17,17,17,17,17,17,17,17,17,17,17,17,17,17,
17,17,17,17,17,17,17,17,17,17,17,17,17,17,17,17,
17,17,17,17,17,17,17,17,17,17,17,17,17,17,17,17,
17,17,17,17,17,17,17,17,17,17,17,17,17,17,17,17,
17,17,17,17,17,17,17,17,17,17,17,17,17,17,17,17,
17,17,17,17,17,17,17,17,17,17,17,17,17,17,17,17,
17,17,17,17,17,17,17,17,17,17,17,17,17,17,17,17,
17,17,17,17,17,17,17,17,17,17,17,17,17,17,17,17,
17,17,17,17,17,17,17,17,17,17,17,17,17,17,17,17,
17,17,17,17,17,17,17,17,17,17,17,17,17,17,17,17,
17,17,17,17,17,17,17,17,17,17,17,17,17,17,17,17,
17,17,17,17,17,17,17,17,17,17,17,17,17,17,17,17,
17,17,17,17,17,17,17,17,17,17,17,17,17,17,17,17,
17,17,17,17,17,17,17,17,17,17,17,17,17,17,17,17
</chunk>
   <chunk x="160" y="-16" width="16" height="16">
17,17,17,17,17,17,17,17,17,17,17,17,17,0,0,0,
17,17,17,17,17,17,17,17,17,17,17,17,17,0,0,0,
17,17,17,17,17,17,17,17,17,17,17,17,17,0,0,0,
17,17,17,17,17,17,17,17,17,17,17,17,17,0,0,0,
17,17,17,17,17,17,17,17,17,17,17,17,17,0,0,0,
17,17,17,17,17,17,17,17,17,17,17,17,17,0,0,0,
17,17,17,17,17,17,17,17,17,17,17,17,17,0,0,0,
17,17,17,17,17,17,17,17,17,17,17,17,17,0,0,0,
17,17,17,17,17,17,17,17,17,17,17,17,17,0,0,0,
17,17,17,17,17,17,17,17,17,17,17,17,17,0,0,0,
17,17,17,17,17,17,17,17,17,17,17,17,17,0,0,0,
17,17,17,17,17,17,17,17,17,17,17,17,17,0,0,0,
17,17,17,17,17,17,17,17,17,17,17,17,17,0,0,0,
17,17,17,17,17,17,17,17,17,17,17,17,17,0,0,0,
17,17,17,17,17,17,17,17,17,17,17,17,17,0,0,0,
17,17,17,17,17,17,17,17,17,17,17,17,17,0,0,0
</chunk>
   <chunk x="-32" y="0" width="16" height="16">
0,0,0,0,0,0,0,17,17,17,17,17,17,17,17,17,
0,0,0,0,0,0,0,17,17,17,17,17,17,17,17,17,
0,0,0,0,0,0,0,17,17,17,17,17,17,17,17,17,
0,0,0,0,0,0,0,17,17,17,17,17,17,17,17,17,
0,0,0,0,0,0,0,17,17,17,17,17,17,17,17,17,
0,0,0,0,0,0,0,17,17,17,17,17,17,17,17,17,
0,0,0,0,0,0,0,17,17,17,17,17,17,17,17,17,
0,0,0,0,0,0,0,17,17,17,17,17,17,17,17,17,
0,0,0,0,0,0,0,17,17,17,17,17,17,17,17,17,
0,0,0,0,0,0,0,17,17,17,17,17,17,17,17,17,
0,0,0,0,0,0,0,17,17,17,17,17,17,17,17,17,
0,0,0,0,0,0,0,17,17,17,17,17,17,17,17,17,
0,0,0,0,0,0,0,17,17,17,17,17,17,17,17,17,
0,0,0,0,0,0,0,17,17,17,17,17,17,17,17,17,
0,0,0,0,0,0,0,17,17,17,17,17,17,17,17,17,
0,0,0,0,0,0,0,17,17,17,17,17,17,17,17,17
</chunk>
   <chunk x="-16" y="0" width="16" height="16">
17,17,17,17,17,17,17,17,17,17,17,17,17,17,17,17,
17,17,17,17,17,17,17,17,17,17,17,17,17,17,17,17,
17,17,17,17,17,17,17,17,17,17,17,17,17,17,17,17,
17,17,17,17,17,17,17,17,17,17,17,17,17,17,17,17,
17,17,17,17,17,17,17,17,17,17,17,17,17,17,17,17,
17,17,17,17,17,17,17,17,17,17,17,17,17,17,17,17,
17,17,17,17,17,17,17,17,17,17,17,17,17,17,17,17,
17,17,17,17,17,17,17,17,17,17,17,17,17,17,17,17,
17,17,17,17,17,17,17,17,17,17,17,17,17,17,17,17,
17,17,17,17,17,17,17,17,17,17,17,17,17,17,17,17,
17,17,17,17,17,17,17,17,17,17,17,17,17,17,17,17,
17,17,17,17,17,17,17,17,17,17,17,17,17,17,17,17,
17,17,17,17,17,17,17,17,17,17,17,17,17,17,17,17,
17,17,17,17,17,17,17,17,17,17,17,17,17,17,17,17,
17,17,17,17,17,17,17,17,17,17,17,17,17,17,17,17,
17,17,17,17,17,17,17,17,17,17,0,0,0,0,0,0
</chunk>
   <chunk x="0" y="0" width="16" height="16">
17,17,17,17,17,17,17,17,17,17,17,17,17,17,17,17,
17,17,17,17,17,17,17,17,17,17,17,17,17,17,17,17,
17,17,17,17,17,17,17,17,17,17,17,17,17,17,17,17,
17,17,17,17,17,17,17,17,17,17,17,17,17,17,17,17,
17,17,17,17,17,17,17,17,17,17,17,17,17,17,17,17,
17,17,17,17,17,17,17,17,17,17,17,17,17,17,17,17,
17,17,17,17,17,17,17,17,17,17,17,17,17,17,17,17,
17,17,17,17,17,17,17,17,17,17,17,17,17,17,17,17,
17,17,17,17,17,17,17,17,17,17,17,17,17,17,17,17,
17,17,17,17,17,17,17,17,17,17,17,17,17,17,17,17,
17,17,17,17,17,17,17,17,17,17,17,17,17,17,17,17,
17,17,0,0,0,0,0,0,0,0,0,0,0,0,0,0,
17,17,0,0,0,0,0,0,0,0,0,0,0,0,0,0,
17,17,0,0,0,0,0,0,0,0,0,0,0,0,0,0,
17,0,0,0,0,0,0,0,0,0,0,0,0,0,0,0,
0,0,0,0,0,0,0,0,0,0,0,0,0,0,0,0
</chunk>
   <chunk x="16" y="0" width="16" height="16">
17,17,17,17,17,17,17,17,17,17,17,17,17,17,17,17,
17,17,17,17,17,17,17,17,17,17,17,17,17,17,17,17,
17,17,17,17,17,17,17,17,17,17,17,17,17,17,17,17,
17,17,17,17,17,17,17,17,17,17,17,17,17,17,17,17,
17,17,17,17,17,17,17,17,17,17,17,17,17,17,17,17,
17,17,17,17,17,17,17,17,17,17,17,17,17,17,17,17,
17,17,17,17,17,17,17,17,17,17,17,17,17,17,17,17,
17,17,17,17,17,17,17,17,17,17,17,17,17,17,17,0,
17,17,17,17,17,17,17,17,17,17,17,17,17,17,17,0,
17,17,17,17,17,17,17,17,17,17,17,17,17,17,0,0,
17,17,17,17,17,17,17,17,17,17,17,17,17,0,0,0,
0,0,0,0,0,0,0,0,0,0,0,0,0,0,0,0,
0,0,0,0,0,0,0,0,0,0,0,0,0,0,0,0,
0,0,0,0,0,0,0,0,0,0,0,0,0,0,0,0,
0,0,0,0,0,0,0,0,0,0,0,0,0,0,0,0,
0,0,0,0,0,0,0,0,0,0,0,0,0,0,0,0
</chunk>
   <chunk x="32" y="0" width="16" height="16">
17,17,17,17,17,17,17,0,0,0,0,0,0,0,0,0,
17,17,17,17,17,17,17,0,0,0,0,0,0,0,0,0,
17,17,17,17,17,17,17,0,0,0,0,0,0,0,0,0,
17,17,17,17,17,17,17,0,0,0,0,0,0,0,0,0,
17,17,17,17,17,17,17,0,0,0,0,0,0,0,0,0,
17,17,17,17,17,17,0,0,0,0,0,0,0,0,0,0,
17,17,17,17,17,0,0,0,0,0,0,0,0,0,0,0,
0,0,0,0,0,0,0,0,0,0,0,0,0,0,0,0,
0,0,0,0,0,0,0,0,0,0,0,0,0,0,0,0,
0,0,0,0,0,0,0,0,0,0,0,0,0,0,0,0,
0,0,0,0,0,0,0,0,0,0,0,0,0,0,0,0,
0,0,0,0,0,0,0,0,0,0,0,0,0,0,0,0,
0,0,0,0,0,0,0,0,0,0,0,0,0,0,0,0,
0,0,0,0,0,0,0,0,0,0,0,0,0,0,0,0,
0,0,0,0,0,0,0,0,0,0,0,0,0,0,0,0,
0,0,0,0,0,0,0,0,0,0,0,0,0,0,0,0
</chunk>
   <chunk x="48" y="0" width="16" height="16">
0,0,0,0,0,0,0,0,0,0,0,17,17,17,17,17,
0,0,0,0,0,0,0,0,0,0,0,0,17,17,17,17,
0,0,0,0,0,0,0,0,0,0,0,0,0,17,17,17,
0,0,0,0,0,0,0,0,0,0,0,0,0,0,17,17,
0,0,0,0,0,0,0,0,0,0,0,0,0,0,0,17,
0,0,0,0,0,0,0,0,0,0,0,0,0,0,0,0,
0,0,0,0,0,0,0,0,0,0,0,0,0,0,0,0,
0,0,0,0,0,0,0,0,0,0,0,0,0,0,0,0,
0,0,0,0,0,0,0,0,0,0,0,0,0,0,0,0,
0,0,0,0,0,0,0,0,0,0,0,0,0,0,0,0,
0,0,0,0,0,0,0,0,0,0,0,0,0,0,0,0,
0,0,0,0,0,0,0,0,0,0,0,0,0,0,0,0,
0,0,0,0,0,0,0,0,0,0,0,0,0,0,0,0,
0,0,0,0,0,0,0,0,0,0,0,0,0,0,0,0,
0,0,0,0,0,0,0,0,0,0,0,0,0,0,0,0,
0,0,0,0,0,0,0,0,0,0,0,0,0,0,0,0
</chunk>
   <chunk x="64" y="0" width="16" height="16">
17,17,17,17,17,17,17,17,17,17,17,17,17,17,17,17,
17,17,17,17,17,17,17,17,17,17,17,17,17,17,17,17,
17,17,17,17,17,17,17,17,17,17,17,17,17,17,17,17,
17,17,17,17,17,17,17,17,17,17,17,17,17,17,17,17,
17,17,17,17,17,17,17,17,17,17,17,17,17,17,17,17,
17,17,17,17,17,17,17,17,17,17,17,17,17,17,17,17,
0,0,0,0,0,0,0,0,0,0,0,0,0,0,0,0,
0,0,0,0,0,0,0,0,0,0,0,0,0,0,0,0,
0,0,0,0,0,0,0,0,0,0,0,0,0,0,0,0,
0,0,0,0,0,0,0,0,0,0,0,0,0,0,0,0,
0,0,0,0,0,0,0,0,0,0,0,0,0,0,0,0,
0,0,0,0,0,0,0,0,0,0,0,0,0,0,0,0,
0,0,0,0,0,0,0,0,0,0,0,0,0,0,0,0,
0,0,0,0,0,0,0,0,0,0,0,0,0,0,0,0,
0,0,0,0,0,0,0,0,0,0,0,0,0,0,0,0,
0,0,0,0,0,0,0,0,0,0,0,0,0,0,0,0
</chunk>
   <chunk x="80" y="0" width="16" height="16">
17,17,17,17,17,17,17,17,17,17,17,17,17,17,17,17,
17,17,17,17,17,17,17,17,17,17,17,17,17,17,17,17,
17,17,17,17,17,17,17,17,17,17,17,17,17,17,17,17,
17,17,17,17,17,17,17,17,17,17,17,17,17,17,17,17,
17,17,17,17,17,17,17,17,17,17,17,17,17,17,17,17,
17,17,17,17,17,17,17,17,17,17,17,17,17,17,17,17,
0,0,0,0,0,0,0,0,0,0,0,0,0,0,0,0,
0,0,0,0,0,0,0,0,0,0,0,0,0,0,0,0,
0,0,0,0,0,0,0,0,0,0,0,0,0,0,0,0,
0,0,0,0,0,0,0,0,0,0,0,0,0,0,0,0,
0,0,0,0,0,0,0,0,0,0,0,0,0,0,0,0,
0,0,0,0,0,0,0,0,0,0,0,0,0,0,0,0,
0,0,0,0,0,0,0,0,0,0,0,0,0,0,0,0,
0,0,0,0,0,0,0,0,0,0,0,0,0,0,0,0,
0,0,0,0,0,0,0,0,0,0,0,0,0,0,0,0,
0,0,0,0,0,0,0,0,0,0,0,0,0,0,0,0
</chunk>
   <chunk x="96" y="0" width="16" height="16">
17,17,17,17,17,17,17,17,17,17,17,17,0,0,0,0,
17,17,17,17,17,17,17,17,17,17,17,17,0,0,0,0,
17,17,17,17,17,17,17,17,17,17,17,17,0,0,0,0,
17,17,17,17,17,17,17,17,17,17,17,17,0,0,0,0,
17,17,17,17,17,17,17,17,17,17,17,17,0,0,0,0,
17,17,17,17,17,17,17,17,17,17,17,17,0,0,0,0,
0,0,0,0,0,0,0,0,0,0,0,0,0,0,0,0,
0,0,0,0,0,0,0,0,0,0,0,0,0,0,0,0,
0,0,0,0,0,0,0,0,0,0,0,0,0,0,0,0,
0,0,0,0,0,0,0,0,0,0,0,0,0,0,0,0,
0,0,0,0,0,0,0,0,0,0,0,0,0,0,0,0,
0,0,0,0,0,0,0,0,0,0,0,0,0,0,0,0,
0,0,0,0,0,0,0,0,0,0,0,0,0,0,0,0,
0,0,0,0,0,0,0,0,0,0,0,0,0,0,0,0,
0,0,0,0,0,0,0,0,0,0,0,0,0,0,0,0,
0,0,0,0,0,0,0,0,0,0,0,0,0,0,0,0
</chunk>
   <chunk x="128" y="0" width="16" height="16">
0,0,0,0,0,0,0,0,0,0,0,0,17,17,17,17,
0,0,0,0,0,0,0,0,0,0,0,0,17,17,17,17,
0,0,0,0,0,0,0,0,0,0,0,0,17,17,17,17,
0,0,0,0,0,0,0,0,0,0,0,0,0,17,17,17,
0,0,0,0,0,0,0,0,0,0,0,0,0,0,17,17,
0,0,0,0,0,0,0,0,0,0,0,0,0,0,0,0,
0,0,0,0,0,0,0,0,0,0,0,0,0,0,0,0,
0,0,0,0,0,0,0,0,0,0,0,0,0,0,0,0,
0,0,0,0,0,0,0,0,0,0,0,0,0,0,0,0,
0,0,0,0,0,0,0,0,0,0,0,0,0,0,0,0,
0,0,0,0,0,0,0,0,0,0,0,0,0,0,0,0,
0,0,0,0,0,0,0,0,0,0,0,0,0,0,0,0,
0,0,0,0,0,0,0,0,0,0,0,0,0,0,0,0,
0,0,0,0,0,0,0,0,0,0,0,0,0,0,0,0,
0,0,0,0,0,0,0,0,0,0,0,0,0,0,0,0,
0,0,0,0,0,0,0,0,0,0,0,0,0,0,0,0
</chunk>
   <chunk x="144" y="0" width="16" height="16">
17,17,17,17,17,17,17,17,17,17,17,17,17,17,17,17,
17,17,17,17,17,17,17,17,17,17,17,17,17,17,17,17,
17,17,17,17,17,17,17,17,17,17,17,17,17,17,17,17,
17,17,17,17,17,17,17,17,17,17,17,17,17,17,17,17,
17,17,17,17,17,17,17,17,17,17,17,17,17,17,17,17,
0,0,17,17,17,17,17,17,17,17,17,17,17,17,17,17,
0,0,17,17,17,17,17,17,17,17,17,17,17,17,17,17,
0,0,17,17,17,17,17,17,17,17,17,17,17,17,17,17,
0,0,17,17,17,17,17,17,17,17,17,17,17,17,17,17,
0,0,17,17,17,17,17,17,17,17,17,17,17,17,17,17,
0,0,17,17,17,17,17,17,17,17,17,17,17,17,17,17,
0,0,17,17,17,17,17,17,17,17,17,17,17,17,17,17,
0,0,17,17,17,17,17,17,17,17,17,17,17,17,17,17,
0,0,17,17,17,17,17,17,17,17,17,17,17,17,17,17,
0,0,17,17,17,17,17,17,17,17,17,17,17,17,17,17,
0,0,17,17,17,17,17,17,17,17,17,17,17,17,17,17
</chunk>
   <chunk x="160" y="0" width="16" height="16">
17,17,17,17,17,17,17,17,17,17,17,17,17,0,0,0,
17,17,17,17,17,17,17,17,17,17,17,17,17,0,0,0,
17,17,17,17,17,17,17,17,17,17,17,17,17,0,0,0,
17,17,17,17,17,17,17,17,17,17,17,17,17,0,0,0,
17,17,17,17,17,17,17,17,17,17,17,17,17,0,0,0,
17,17,17,17,17,17,17,17,17,17,17,17,17,0,0,0,
17,17,17,17,17,17,17,17,17,17,17,17,17,0,0,0,
17,17,17,17,17,17,17,17,17,17,17,17,17,0,0,0,
17,17,17,17,17,17,17,17,17,17,17,17,17,0,0,0,
17,17,17,17,17,17,17,17,17,17,17,17,17,0,0,0,
17,17,17,17,17,17,17,17,17,17,17,17,17,0,0,0,
17,17,17,17,17,17,17,17,17,17,17,17,17,0,0,0,
17,17,17,17,17,17,17,17,17,17,17,17,17,0,0,0,
17,17,17,17,17,17,17,17,17,17,17,17,17,0,0,0,
17,17,17,17,17,17,17,17,17,17,17,17,17,0,0,0,
17,17,17,17,17,17,17,17,17,17,17,17,17,0,0,0
</chunk>
   <chunk x="-32" y="16" width="16" height="16">
0,0,0,0,0,0,0,17,17,17,17,17,17,17,17,17,
0,0,0,0,0,0,0,17,17,17,17,17,17,17,17,17,
0,0,0,0,0,0,0,17,17,17,17,17,17,17,17,17,
0,0,0,0,0,0,0,17,17,17,17,17,17,17,17,17,
0,0,0,0,0,0,0,17,17,17,17,17,17,17,17,17,
0,0,0,0,0,0,0,17,17,17,17,17,17,17,17,17,
0,0,0,0,0,0,0,17,17,17,17,17,17,17,17,17,
0,0,0,0,0,0,0,17,17,17,17,17,17,17,17,17,
0,0,0,0,0,0,0,17,17,17,17,17,17,17,17,17,
0,0,0,0,0,0,0,17,17,17,17,17,17,17,17,17,
0,0,0,0,0,0,0,17,17,17,17,17,17,17,17,17,
0,0,0,0,0,0,0,17,17,17,17,17,17,17,17,17,
0,0,0,0,0,0,0,17,17,17,17,17,17,17,17,17,
0,0,0,0,0,0,0,17,17,17,17,17,17,17,17,17,
0,0,0,0,0,0,0,17,17,17,17,17,17,17,17,17,
0,0,0,0,0,0,0,0,0,0,0,0,0,0,0,0
</chunk>
   <chunk x="-16" y="16" width="16" height="16">
17,17,17,17,17,17,17,17,17,17,0,0,0,0,0,0,
17,17,17,17,17,17,17,17,17,17,0,0,0,0,0,0,
17,17,17,17,17,17,17,17,17,17,0,0,0,0,0,0,
17,17,17,17,17,17,17,17,17,17,17,17,17,17,17,17,
17,17,17,17,17,17,17,17,17,17,17,17,17,17,17,17,
17,17,17,17,17,17,17,17,17,17,17,17,17,17,17,17,
17,17,17,17,17,17,17,17,17,17,17,17,17,17,17,17,
17,17,17,17,17,17,17,17,17,17,17,17,17,17,17,17,
17,17,17,17,17,17,17,17,17,17,17,17,17,17,17,17,
17,17,17,17,17,17,17,17,17,17,17,17,17,17,17,17,
17,17,17,17,17,17,17,17,17,17,17,17,17,17,17,17,
17,17,17,17,17,17,17,17,17,17,17,17,17,17,17,17,
17,17,17,17,17,17,17,17,17,17,17,17,17,17,17,17,
17,17,17,17,17,17,17,17,17,17,17,17,17,17,17,17,
17,17,17,17,17,17,17,17,17,17,17,17,17,17,17,0,
0,0,0,0,0,0,0,0,0,0,0,0,0,0,0,0
</chunk>
   <chunk x="0" y="16" width="16" height="16">
0,0,0,0,0,0,0,0,0,0,0,0,0,0,0,0,
0,0,0,0,0,0,0,0,0,0,0,0,0,0,0,0,
0,0,0,0,0,0,0,0,0,0,0,0,0,0,0,0,
17,17,17,17,17,17,17,17,17,17,17,17,17,17,17,17,
17,17,17,17,17,17,17,17,17,17,17,17,17,17,17,17,
17,17,17,17,17,17,17,17,17,17,17,17,17,17,17,17,
17,17,17,17,17,17,17,17,17,17,17,17,17,17,17,17,
17,17,17,17,17,17,17,17,17,17,17,17,17,17,17,17,
17,17,17,17,17,17,17,17,17,17,17,17,17,17,17,17,
17,17,17,17,17,17,17,17,17,17,17,17,17,17,17,17,
17,17,17,17,17,17,17,17,17,17,17,17,17,17,17,17,
17,17,17,17,17,17,17,17,17,17,17,17,17,17,17,17,
17,17,17,17,17,17,17,17,17,17,17,17,17,17,17,17,
0,0,0,0,0,0,0,0,0,0,0,0,0,0,0,0,
0,0,0,0,0,0,0,0,0,0,0,0,0,0,0,0,
0,0,0,0,0,0,0,0,0,0,0,0,0,0,0,0
</chunk>
   <chunk x="16" y="16" width="16" height="16">
0,0,0,0,0,0,0,0,0,0,0,0,0,0,0,0,
0,0,0,0,0,0,0,0,0,0,0,0,0,0,0,0,
0,0,0,0,0,0,0,0,0,0,0,0,0,0,0,0,
17,17,17,17,17,17,17,17,17,17,17,0,0,0,0,0,
17,17,17,17,17,17,17,17,17,17,17,0,0,0,0,0,
17,17,17,17,17,17,17,17,17,17,17,0,0,0,0,0,
17,17,17,17,17,17,17,17,17,17,17,0,0,0,0,0,
17,17,17,17,17,17,17,17,17,17,17,0,0,0,0,0,
17,17,17,17,17,17,17,17,17,17,17,0,0,0,0,0,
17,17,17,17,17,17,17,17,17,17,0,0,0,0,0,0,
17,17,17,17,17,17,17,17,17,0,0,0,0,0,0,0,
17,17,17,17,17,17,17,17,17,0,0,0,0,0,0,0,
17,17,17,17,17,17,17,17,0,0,0,0,0,0,0,0,
0,0,0,0,0,0,0,0,0,0,0,0,0,0,0,0,
0,0,0,0,0,0,0,0,0,0,0,0,0,0,0,0,
0,0,0,0,0,0,0,0,0,0,0,0,0,0,0,0
</chunk>
   <chunk x="48" y="16" width="16" height="16">
0,0,0,0,0,0,0,0,0,0,0,0,0,0,0,0,
0,0,0,0,0,0,0,0,0,0,0,0,0,0,0,0,
0,0,0,0,0,0,0,0,0,0,0,0,0,0,0,0,
0,0,0,0,0,0,0,0,0,0,0,0,0,0,0,0,
0,0,0,0,0,0,0,0,0,0,0,0,0,0,0,0,
0,0,0,0,0,0,0,0,0,0,0,0,0,0,0,0,
0,0,0,0,0,0,0,0,0,0,0,0,0,0,0,0,
0,0,0,0,0,0,0,0,0,0,0,0,0,0,0,0,
0,0,0,0,0,0,0,0,0,0,0,0,0,0,0,0,
0,0,0,0,0,0,0,0,0,0,0,0,0,0,0,0,
0,0,0,0,0,0,0,0,0,0,0,0,0,0,0,0,
0,0,0,0,0,0,0,0,0,0,0,0,0,0,0,0,
0,0,0,0,0,0,0,0,0,0,0,0,0,0,0,0,
0,0,0,0,0,0,0,0,0,0,0,0,0,0,0,0,
0,0,0,0,0,0,0,0,17,17,17,17,17,17,17,17,
0,0,0,0,0,0,0,0,17,17,17,17,17,17,17,17
</chunk>
   <chunk x="64" y="16" width="16" height="16">
0,0,0,0,0,0,0,0,0,0,0,0,0,0,0,0,
0,0,0,0,0,0,0,0,0,0,0,0,0,0,0,0,
0,0,0,0,0,0,0,0,0,0,0,0,0,0,0,0,
0,0,0,0,17,17,17,17,17,17,17,17,17,17,17,17,
0,0,0,0,17,17,17,17,17,17,17,17,17,17,17,17,
0,0,0,0,17,17,17,17,17,17,17,17,17,17,17,17,
0,0,0,0,17,17,17,17,17,17,17,17,17,17,17,17,
0,0,0,0,17,17,17,17,17,17,17,17,17,17,17,17,
0,0,0,0,17,17,17,17,17,17,17,17,17,17,17,17,
0,0,0,0,17,17,17,17,17,17,17,17,17,17,17,17,
0,0,0,0,17,17,17,17,17,17,17,17,17,17,17,0,
0,0,0,0,17,17,17,17,17,17,17,17,17,17,17,0,
0,0,0,0,17,17,17,17,17,17,17,17,17,17,17,0,
0,0,0,0,17,17,17,17,17,17,17,17,17,17,17,0,
17,17,17,17,17,17,17,17,17,17,17,17,17,17,17,0,
17,17,17,17,17,17,17,17,17,17,17,17,17,17,17,0
</chunk>
   <chunk x="80" y="16" width="16" height="16">
0,0,0,0,0,0,0,0,0,0,0,0,0,0,0,0,
0,0,0,0,0,0,0,0,0,0,0,0,0,0,0,0,
0,0,0,0,0,0,0,0,0,0,0,0,0,0,0,0,
17,17,17,17,17,0,0,0,0,0,0,0,0,0,0,17,
17,17,17,17,17,0,0,0,0,0,0,0,0,0,0,17,
17,17,17,17,17,0,0,0,0,0,0,0,0,0,0,17,
17,17,17,17,17,0,0,0,0,0,0,0,0,0,0,17,
17,17,17,17,17,0,0,0,0,0,0,0,0,0,0,17,
17,17,17,17,17,0,0,0,0,0,0,0,0,0,0,17,
17,17,17,17,17,0,0,0,0,0,0,0,0,0,0,17,
0,0,0,0,0,0,0,0,0,0,0,0,0,0,0,0,
0,0,0,0,0,0,0,0,0,0,0,0,0,0,0,0,
0,0,0,0,0,0,0,0,0,0,0,0,0,0,0,0,
0,0,0,0,0,0,0,0,0,0,0,0,0,0,0,0,
0,0,0,0,0,0,0,0,0,0,0,0,0,0,0,0,
0,0,0,0,0,0,0,0,0,0,0,0,0,0,0,0
</chunk>
   <chunk x="96" y="16" width="16" height="16">
0,0,0,0,0,0,0,0,0,0,0,0,0,0,0,0,
0,0,0,0,0,0,0,0,0,0,0,0,0,0,0,0,
0,0,0,0,0,0,0,0,0,0,0,0,0,0,0,0,
17,17,17,17,17,17,17,17,17,17,17,17,17,17,17,17,
17,17,17,17,17,17,17,17,17,17,17,17,17,17,17,17,
17,17,17,17,17,17,17,17,17,17,17,17,17,17,17,17,
17,17,17,17,17,17,17,17,17,17,17,17,17,17,17,17,
17,17,17,17,17,17,17,17,17,17,17,17,17,17,17,17,
17,17,17,17,17,17,17,17,17,17,17,17,17,17,17,17,
17,17,17,17,17,17,17,17,17,17,17,17,17,17,17,17,
0,0,0,0,0,17,17,17,17,17,17,17,17,17,17,17,
0,0,0,0,0,0,17,17,17,17,17,17,17,17,17,17,
0,0,0,0,0,0,0,17,17,17,17,17,17,17,17,17,
0,0,0,0,0,0,0,0,17,17,17,17,17,17,17,17,
0,0,0,0,0,0,0,0,17,17,17,17,17,17,17,17,
0,0,0,0,0,0,0,0,17,17,17,17,17,17,17,17
</chunk>
   <chunk x="112" y="16" width="16" height="16">
0,0,0,0,0,0,0,0,0,0,0,0,0,0,0,0,
0,0,0,0,0,0,0,0,0,0,0,0,0,0,0,0,
0,0,0,0,0,0,0,0,0,0,0,0,0,0,0,0,
17,17,17,17,17,17,17,0,0,0,0,0,0,0,0,0,
17,17,17,17,17,17,17,0,0,0,0,0,0,0,0,0,
17,17,17,17,17,17,17,0,0,0,0,0,0,0,0,0,
17,17,17,17,17,17,17,0,0,0,0,0,0,0,0,0,
17,17,17,17,17,17,17,0,0,0,0,0,0,0,0,0,
17,17,17,17,17,17,17,0,0,0,0,0,0,0,0,0,
17,17,17,17,17,17,17,0,0,0,0,0,0,0,0,0,
17,17,17,17,17,17,17,0,0,0,0,0,0,0,0,0,
17,17,17,17,17,17,17,0,0,0,0,0,0,0,0,0,
17,17,17,17,17,17,17,0,0,0,0,0,0,0,0,0,
17,17,17,17,17,17,17,0,0,0,0,0,0,0,0,0,
17,17,17,17,17,17,17,0,0,0,0,0,0,0,0,0,
17,17,17,17,17,17,17,0,0,0,0,0,0,0,0,0
</chunk>
   <chunk x="128" y="16" width="16" height="16">
0,0,0,0,0,0,0,0,0,0,0,0,0,0,0,0,
0,0,0,0,0,0,0,0,0,0,0,0,0,0,0,0,
0,0,0,0,0,0,0,0,0,0,0,0,0,0,0,0,
0,17,17,17,17,17,17,17,17,17,17,17,17,17,17,17,
0,17,17,17,17,17,17,17,17,17,17,17,17,17,17,17,
0,17,17,17,17,17,17,17,17,17,17,17,17,17,17,17,
0,17,17,17,17,17,17,17,17,17,17,17,17,17,17,17,
0,17,17,17,17,17,17,17,17,17,17,17,17,17,17,17,
0,0,17,17,17,17,17,17,17,17,17,17,17,17,17,17,
0,0,0,17,17,17,17,17,17,17,17,17,17,17,17,17,
0,0,0,0,17,17,17,17,17,17,17,17,17,17,17,17,
0,0,0,0,0,17,17,17,17,17,17,17,17,17,17,17,
0,0,0,0,0,0,0,0,0,0,0,0,0,0,0,0,
0,0,0,0,0,0,0,0,0,0,0,0,0,0,0,0,
0,0,0,0,0,0,0,0,0,0,0,0,0,0,0,0,
0,0,0,0,0,0,0,0,0,0,0,0,0,0,0,0
</chunk>
   <chunk x="144" y="16" width="16" height="16">
0,0,17,17,17,17,17,17,17,17,17,17,17,17,17,17,
0,0,17,17,17,17,17,17,17,17,17,17,17,17,17,17,
0,0,17,17,17,17,17,17,17,17,17,17,17,17,17,17,
17,17,17,17,17,17,17,17,17,17,17,17,17,17,17,17,
17,17,17,17,17,17,17,17,17,17,17,17,17,17,17,17,
17,17,17,17,17,17,17,17,17,17,17,17,17,17,17,17,
17,17,17,17,17,17,17,17,17,17,17,17,17,17,17,17,
17,17,17,17,17,17,17,17,17,17,17,17,17,17,17,17,
17,17,17,17,17,17,17,17,17,17,17,17,17,17,17,17,
17,17,17,17,17,17,17,17,17,17,17,17,17,17,17,17,
17,17,17,17,17,17,17,17,17,17,17,17,17,17,17,17,
17,17,17,17,17,17,17,17,17,17,17,17,17,17,17,17,
0,0,0,0,0,0,0,0,0,0,0,0,0,0,0,0,
0,0,0,0,0,0,0,0,0,0,0,0,0,0,0,0,
0,0,0,0,0,0,0,0,0,0,0,0,0,0,0,0,
0,0,0,0,0,0,0,0,0,0,0,0,0,0,0,0
</chunk>
   <chunk x="160" y="16" width="16" height="16">
17,17,17,17,17,17,17,17,17,17,17,17,17,0,0,0,
17,17,17,17,17,17,17,17,17,17,17,17,17,0,0,0,
17,17,17,17,17,17,17,17,17,17,17,17,17,0,0,0,
17,17,17,17,17,17,17,17,17,17,17,17,17,0,0,0,
17,17,17,17,17,17,17,17,17,17,17,17,17,0,0,0,
17,17,17,17,17,17,17,17,17,17,17,17,17,0,0,0,
17,17,17,17,17,17,17,17,17,17,17,17,17,0,0,0,
17,17,17,17,17,17,17,17,17,17,17,17,17,0,0,0,
17,17,17,17,17,17,17,17,17,17,17,17,17,0,0,0,
17,17,17,17,17,17,17,17,17,17,17,17,17,0,0,0,
17,17,17,17,17,17,17,17,17,17,17,17,17,0,0,0,
17,17,17,17,17,17,17,17,17,17,17,17,17,0,0,0,
0,17,17,17,17,17,17,17,17,17,17,17,17,0,0,0,
0,17,17,17,17,17,17,17,17,17,17,17,17,0,0,0,
0,17,17,17,17,17,17,17,17,17,17,17,17,0,0,0,
0,17,17,17,17,17,17,17,17,17,17,17,17,0,0,0
</chunk>
   <chunk x="-32" y="32" width="16" height="16">
0,0,0,0,0,0,0,0,0,0,0,0,0,0,0,0,
0,0,0,0,0,0,0,0,0,0,0,0,0,0,0,0,
0,0,0,0,0,0,0,0,0,0,0,0,0,0,0,0,
0,0,0,0,0,0,0,0,0,0,0,0,0,0,0,0,
0,0,0,0,0,0,0,0,0,0,0,0,0,0,0,0,
0,0,0,0,0,0,0,0,0,0,0,0,0,0,0,0,
0,0,0,0,0,0,0,17,17,17,17,17,17,17,17,17,
0,0,0,0,0,0,0,17,17,17,17,17,17,17,17,17,
0,0,0,0,0,0,0,17,17,17,17,17,17,17,17,17,
0,0,0,0,0,0,0,17,17,17,17,17,17,17,17,17,
0,0,0,0,0,0,0,17,17,17,17,17,17,17,17,17,
0,0,0,0,0,0,0,17,17,17,17,17,17,17,17,17,
0,0,0,0,0,0,0,17,17,17,17,17,17,17,17,17,
0,0,0,0,0,0,0,17,17,17,17,17,17,17,17,17,
0,0,0,0,0,0,0,17,17,17,17,17,17,17,17,17,
0,0,0,0,0,0,0,0,0,0,0,0,0,0,0,0
</chunk>
   <chunk x="-16" y="32" width="16" height="16">
0,0,0,0,0,0,0,0,0,0,0,0,0,0,0,0,
0,0,0,0,0,0,0,0,0,0,0,0,0,0,0,0,
0,0,0,0,0,0,0,0,0,0,0,0,0,0,0,0,
0,0,0,0,0,0,0,0,0,0,0,0,0,0,0,0,
0,0,0,0,0,0,0,0,0,0,0,0,0,0,0,0,
0,0,0,0,0,0,0,0,0,0,0,0,0,0,0,0,
17,17,17,17,17,17,17,17,17,17,17,17,17,17,17,17,
17,17,17,17,17,17,17,17,17,17,17,17,17,17,17,17,
17,17,17,17,17,17,17,17,17,17,17,17,17,17,17,17,
17,17,17,17,17,17,17,17,17,17,17,17,17,17,17,17,
17,17,17,17,17,17,17,17,17,17,17,17,17,17,17,17,
17,17,17,17,17,17,17,17,17,17,17,17,17,17,17,17,
17,17,17,17,17,17,17,17,17,17,17,17,17,17,17,17,
17,17,17,17,17,17,17,17,17,17,17,17,17,17,17,17,
17,17,17,17,17,17,17,17,17,17,17,17,17,17,17,17,
0,0,0,0,0,0,0,0,0,0,0,0,0,0,0,0
</chunk>
   <chunk x="0" y="32" width="16" height="16">
0,0,0,0,0,0,0,0,0,0,0,0,0,0,0,0,
0,0,0,0,0,0,0,0,0,0,0,0,0,0,0,0,
0,0,0,0,0,0,0,0,0,0,0,0,0,0,0,0,
0,0,0,0,0,0,0,0,0,0,0,0,0,0,0,0,
0,0,0,0,0,0,0,0,0,0,0,0,0,0,0,0,
0,0,0,0,0,0,0,0,0,0,0,0,0,0,0,0,
17,17,17,17,17,17,17,17,17,17,17,17,17,17,17,17,
17,17,17,17,17,17,17,17,17,17,17,17,17,17,17,17,
17,17,17,17,17,17,17,17,17,17,17,17,17,17,17,17,
17,17,17,17,17,17,17,17,17,17,17,17,17,17,17,17,
17,17,17,17,17,17,17,17,17,17,17,17,17,17,17,17,
17,17,17,17,17,17,17,17,17,17,17,17,17,17,17,17,
17,17,17,17,17,17,17,17,17,17,17,17,17,17,17,17,
17,17,17,17,17,17,17,17,17,17,17,17,17,17,17,17,
17,17,17,17,17,17,17,17,17,17,17,17,17,17,17,17,
0,0,0,0,0,0,0,0,0,0,0,0,0,0,0,0
</chunk>
   <chunk x="16" y="32" width="16" height="16">
0,0,0,0,0,0,0,0,0,0,0,0,0,0,0,0,
0,0,0,0,0,0,0,0,0,0,0,0,0,0,0,0,
0,0,0,0,0,0,0,0,0,0,0,0,0,0,0,0,
0,0,0,0,0,0,0,0,0,0,0,0,0,0,0,0,
0,0,0,0,0,0,0,0,0,0,0,0,0,0,0,0,
0,0,0,0,0,0,0,0,0,0,0,0,0,0,0,0,
17,17,17,0,0,0,0,0,0,0,0,0,0,0,0,0,
17,17,17,0,0,0,0,0,0,0,0,0,0,0,0,0,
17,17,17,0,0,0,0,0,0,0,0,0,0,0,0,0,
17,17,17,0,0,0,0,0,0,0,0,0,0,0,0,0,
17,17,17,0,0,0,0,0,0,0,0,0,0,0,0,0,
17,17,0,0,0,0,0,0,0,0,0,0,0,0,0,0,
17,17,0,0,0,0,0,0,0,0,0,0,0,0,0,0,
17,0,0,0,0,0,0,0,0,0,0,0,0,0,0,0,
0,0,0,0,0,0,0,0,0,0,0,0,0,0,0,0,
0,0,0,0,0,0,0,0,0,0,0,0,0,0,0,0
</chunk>
   <chunk x="32" y="32" width="16" height="16">
0,0,0,0,0,0,0,0,0,0,0,0,0,0,0,0,
0,0,0,0,0,0,0,0,0,0,0,0,0,0,0,0,
0,0,0,0,0,17,17,17,17,17,17,17,17,17,17,17,
0,0,0,0,0,17,17,17,17,17,17,17,17,17,17,17,
0,0,0,0,0,17,17,17,17,17,17,17,17,17,17,17,
0,0,0,0,0,17,17,17,17,17,17,17,17,17,17,17,
0,0,0,0,0,17,17,17,17,17,17,17,17,17,17,17,
0,0,0,0,0,17,17,17,17,17,17,17,17,17,17,17,
0,0,0,0,0,0,17,17,17,17,17,17,17,17,17,17,
0,0,0,0,0,0,0,17,17,17,17,17,17,17,17,17,
0,0,0,0,0,0,0,0,17,17,17,17,17,17,17,17,
0,0,0,0,0,0,0,0,0,0,0,0,0,0,0,0,
0,0,0,0,0,0,0,0,0,0,0,0,0,0,0,0,
0,0,0,0,0,0,0,0,0,0,0,0,0,0,0,0,
0,0,0,0,0,0,0,0,0,0,0,0,0,0,0,0,
0,0,0,0,0,0,0,0,17,17,17,17,17,17,17,17
</chunk>
   <chunk x="48" y="32" width="16" height="16">
0,0,0,0,0,0,0,0,0,0,0,0,0,0,0,0,
0,0,0,0,0,0,0,0,0,0,0,0,0,0,0,0,
17,17,17,17,17,17,17,17,17,17,17,17,17,17,17,17,
17,17,17,17,17,17,17,17,17,17,17,17,17,17,17,17,
17,17,17,17,17,17,17,17,17,17,17,17,17,17,17,17,
17,17,17,17,17,17,17,17,17,17,17,17,17,17,17,17,
17,17,17,17,17,17,17,17,17,17,17,17,17,17,17,17,
17,17,17,17,17,17,17,17,17,17,17,17,17,17,17,17,
17,17,17,17,17,17,17,17,17,17,17,17,17,17,17,17,
17,17,17,17,17,17,17,17,17,17,17,17,17,17,17,17,
17,17,17,17,17,17,17,17,17,17,17,17,17,17,17,17,
0,0,0,0,17,17,17,17,17,17,17,17,17,17,17,17,
0,0,0,0,17,17,17,17,17,17,17,17,17,17,17,17,
0,0,0,0,17,17,17,17,17,17,17,17,17,17,17,17,
0,0,0,0,17,17,17,17,17,17,17,17,17,17,17,17,
17,17,17,17,17,17,17,17,17,17,17,17,17,17,17,17
</chunk>
   <chunk x="64" y="32" width="16" height="16">
0,0,0,0,17,17,17,17,17,17,17,17,17,17,17,0,
0,0,0,0,17,17,17,17,17,17,17,17,17,17,17,0,
17,17,17,17,17,17,17,17,17,17,17,17,17,17,17,0,
17,17,17,17,17,17,17,17,17,17,17,17,17,17,17,0,
17,17,17,17,17,17,17,17,17,17,17,17,17,17,0,0,
17,17,17,17,17,17,17,17,17,17,17,17,17,0,0,0,
17,17,17,17,17,17,17,17,17,17,17,17,0,0,0,0,
17,17,17,17,17,17,17,17,17,17,17,0,0,0,0,0,
17,17,17,17,17,17,17,17,17,17,17,0,0,0,0,0,
17,17,17,17,17,17,17,17,17,17,17,0,0,0,0,0,
17,17,17,17,17,17,17,17,17,17,17,0,0,0,0,0,
17,17,17,17,17,17,17,17,17,17,17,0,0,0,0,0,
17,17,17,17,17,17,17,17,17,17,17,0,0,0,0,0,
17,17,17,17,17,17,17,17,17,17,17,0,0,0,0,0,
17,17,17,17,17,17,17,17,17,17,17,0,0,0,0,0,
17,17,17,17,17,17,17,17,17,17,17,0,0,0,0,0
</chunk>
   <chunk x="96" y="32" width="16" height="16">
0,0,0,0,0,0,0,0,17,17,17,17,17,17,17,17,
0,0,0,0,0,0,0,0,17,17,17,17,17,17,17,17,
0,0,0,0,0,0,0,0,17,17,17,17,17,17,17,17,
0,0,0,0,0,0,0,0,17,17,17,17,17,17,17,17,
0,0,0,0,0,0,0,0,17,17,17,17,17,17,17,17,
0,0,0,0,0,0,0,0,17,17,17,17,17,17,17,17,
0,0,0,0,0,0,0,0,17,17,17,17,17,17,17,17,
0,0,0,0,0,0,0,0,17,17,17,17,17,17,17,17,
0,0,0,0,0,0,0,0,17,17,17,17,17,17,17,17,
0,0,0,0,0,0,0,0,17,17,17,17,17,17,17,17,
0,0,0,0,0,0,0,0,17,17,17,17,17,17,17,17,
0,0,0,0,0,0,0,0,17,17,17,17,17,17,17,17,
0,0,0,0,0,0,0,0,17,17,17,17,17,17,17,17,
0,0,0,0,0,0,0,0,17,17,17,17,17,17,17,17,
0,0,0,0,0,0,0,0,17,17,17,17,17,17,17,17,
0,0,0,0,0,0,0,0,17,17,17,17,17,17,17,17
</chunk>
   <chunk x="112" y="32" width="16" height="16">
17,17,17,17,17,17,17,0,0,0,0,0,0,0,0,0,
17,17,17,17,17,17,17,0,0,0,0,0,0,0,0,0,
17,17,17,17,17,17,17,0,0,0,0,17,17,17,17,17,
17,17,17,17,17,17,17,0,0,0,0,17,17,17,17,17,
17,17,17,17,17,17,17,0,0,0,0,17,17,17,17,17,
17,17,17,17,17,17,17,0,0,0,0,17,17,17,17,17,
17,17,17,17,17,17,17,17,17,17,17,17,17,17,17,17,
17,17,17,17,17,17,17,17,17,17,17,17,17,17,17,17,
17,17,17,17,17,17,17,17,17,17,17,17,17,17,17,17,
17,17,17,17,17,17,17,17,17,17,17,17,17,17,17,17,
17,17,17,17,17,17,17,17,17,17,17,17,17,17,17,17,
17,17,17,17,17,17,17,17,17,17,17,17,17,17,17,17,
17,17,17,17,17,17,17,17,17,17,17,17,17,17,17,17,
17,17,17,17,17,17,17,17,17,17,17,17,17,17,17,17,
17,17,17,17,17,17,17,17,17,17,17,17,17,17,17,17,
17,17,17,17,17,17,17,0,0,0,0,0,0,0,0,0
</chunk>
   <chunk x="128" y="32" width="16" height="16">
0,0,0,0,0,0,0,0,0,0,0,0,0,0,0,0,
0,0,0,0,0,0,0,0,0,0,0,0,0,0,0,0,
17,17,17,17,17,17,17,17,17,0,0,0,0,0,0,0,
17,17,17,17,17,17,17,17,17,0,0,0,0,0,0,0,
17,17,17,17,17,17,17,17,17,0,0,0,0,0,0,0,
17,17,17,17,17,17,17,17,17,0,0,0,0,0,0,0,
17,17,17,17,17,17,17,17,17,17,17,17,17,17,17,17,
17,17,17,17,17,17,17,17,17,17,17,17,17,17,17,17,
17,17,17,17,17,17,17,17,17,17,17,17,17,17,17,17,
17,17,17,17,17,17,17,17,17,17,17,17,17,17,17,17,
17,17,17,17,17,17,17,17,17,17,17,17,17,17,17,17,
17,17,17,17,17,17,17,17,17,17,17,17,17,17,17,17,
17,17,17,17,17,17,17,17,17,17,17,17,17,17,17,17,
17,17,17,17,17,17,17,17,17,17,17,17,17,17,17,17,
17,17,17,17,17,17,17,17,17,17,17,17,17,17,17,17,
0,0,0,0,0,0,0,0,0,0,0,0,0,0,0,0
</chunk>
   <chunk x="144" y="32" width="16" height="16">
0,0,0,0,0,0,0,0,0,0,0,0,0,0,0,0,
0,0,0,0,0,0,0,0,0,0,0,0,0,0,0,0,
0,0,0,0,0,0,0,0,0,0,0,0,0,0,0,0,
0,0,0,0,0,0,0,0,0,0,0,0,0,0,0,0,
0,0,0,0,0,0,0,0,0,0,0,0,0,0,0,0,
0,0,0,0,0,0,0,0,0,0,0,0,0,0,0,0,
17,17,17,0,0,0,0,0,0,0,0,0,0,0,0,0,
17,17,17,0,0,0,0,0,0,0,0,0,0,0,0,0,
17,17,17,0,0,0,0,0,0,0,0,0,0,0,0,0,
17,17,17,0,0,0,0,0,0,0,0,0,0,0,0,0,
17,17,17,0,0,0,0,0,0,0,0,0,0,0,0,0,
17,17,17,0,0,0,0,0,0,0,0,0,0,0,0,0,
17,17,17,0,0,0,0,0,0,0,0,0,0,0,0,0,
17,17,17,0,0,0,0,0,0,0,0,0,0,0,0,0,
17,17,17,0,0,0,0,0,0,0,0,0,0,0,0,0,
0,0,0,0,0,0,0,0,0,0,0,0,0,0,0,0
</chunk>
   <chunk x="160" y="32" width="16" height="16">
0,17,17,17,17,17,17,17,17,17,17,17,17,0,0,0,
0,17,17,17,17,17,17,17,17,17,17,17,17,0,0,0,
0,17,17,17,17,17,17,17,17,17,17,17,17,0,0,0,
0,17,17,17,17,17,17,17,17,17,17,17,17,0,0,0,
0,17,17,17,17,17,17,17,17,17,17,17,17,0,0,0,
0,17,17,17,17,17,17,17,17,17,17,17,17,0,0,0,
0,17,17,17,17,17,17,17,17,17,17,17,17,0,0,0,
0,17,17,17,17,17,17,17,17,17,17,17,17,0,0,0,
0,17,17,17,17,17,17,17,17,17,17,17,17,0,0,0,
0,17,17,17,17,17,17,17,17,17,17,17,17,0,0,0,
0,17,17,17,17,17,17,17,17,17,17,17,17,0,0,0,
0,17,17,17,17,17,17,17,17,17,17,17,17,0,0,0,
0,17,17,17,17,17,17,17,17,17,17,17,17,0,0,0,
0,17,17,17,17,17,17,17,17,17,17,17,17,0,0,0,
0,17,17,17,17,17,17,17,17,17,17,17,17,0,0,0,
0,0,0,0,0,0,0,0,0,0,0,0,0,0,0,0
</chunk>
   <chunk x="-32" y="48" width="16" height="16">
0,0,0,0,0,0,0,0,0,0,0,0,0,0,0,0,
0,0,0,0,0,0,0,0,0,0,0,0,0,0,0,0,
0,0,0,0,0,0,0,0,0,0,0,0,0,0,0,0,
0,0,0,0,0,0,0,0,0,0,0,0,0,0,0,0,
0,0,0,0,0,0,0,0,0,0,0,0,0,0,0,0,
0,0,0,0,0,0,0,0,0,0,0,0,0,0,0,0,
0,0,0,0,0,0,0,17,17,17,17,17,17,17,17,17,
0,0,0,0,0,0,0,17,17,17,17,17,17,17,17,17,
0,0,0,0,0,0,0,17,17,17,17,17,17,17,17,17,
0,0,0,0,0,0,0,17,17,17,17,17,17,17,17,17,
0,0,0,0,0,0,0,17,17,17,17,17,17,17,17,17,
0,0,0,0,0,0,0,17,17,17,17,17,17,17,17,17,
0,0,0,0,0,0,0,17,17,17,17,17,17,17,17,17,
0,0,0,0,0,0,0,17,17,17,17,17,17,17,17,17,
0,0,0,0,0,0,0,17,17,17,17,17,17,17,17,17,
0,0,0,0,0,0,0,17,17,17,17,17,17,17,17,17
</chunk>
   <chunk x="-16" y="48" width="16" height="16">
0,0,0,0,0,0,0,0,0,0,0,0,0,0,0,0,
0,0,0,0,0,0,0,0,0,0,0,0,0,0,0,0,
0,0,0,0,0,0,0,0,0,0,0,0,0,0,0,0,
0,0,0,0,0,0,0,0,0,0,0,0,0,0,0,0,
0,0,0,0,0,0,0,0,0,0,0,0,0,0,0,0,
0,0,0,0,0,0,0,0,0,0,0,0,0,0,0,0,
17,17,17,17,17,17,17,17,17,17,17,17,17,17,17,17,
17,17,17,17,17,17,17,17,17,17,17,17,17,17,17,17,
17,17,17,17,17,17,17,17,17,17,17,17,17,17,17,17,
17,17,17,17,17,17,17,17,17,17,17,17,17,17,17,17,
17,17,17,17,17,17,17,17,17,17,17,17,17,17,17,17,
17,17,17,17,17,17,17,17,17,17,17,17,17,17,17,17,
17,17,17,17,17,17,17,17,17,17,17,17,17,17,17,17,
17,17,17,17,17,17,17,17,17,17,17,17,17,17,17,17,
17,17,17,17,17,17,17,17,17,17,17,17,17,17,17,17,
17,17,17,17,17,17,17,17,17,17,17,17,17,17,17,17
</chunk>
   <chunk x="0" y="48" width="16" height="16">
0,0,0,0,0,0,0,0,0,0,0,0,0,0,0,0,
0,0,0,0,0,0,0,0,0,0,0,0,0,0,0,0,
0,0,0,0,0,0,0,0,0,0,0,0,0,0,0,0,
0,0,0,0,0,0,0,0,0,0,0,0,0,0,0,0,
0,0,0,0,0,0,0,0,0,0,0,0,0,0,0,0,
0,0,0,0,0,0,0,0,0,0,0,0,0,0,0,0,
17,17,17,17,17,17,17,17,17,17,17,17,17,17,17,17,
17,17,17,17,17,17,17,17,17,17,17,17,17,17,17,17,
17,17,17,17,17,17,17,17,17,17,17,17,17,17,17,17,
17,17,17,17,17,17,17,17,17,17,17,17,17,17,17,17,
17,17,17,17,17,17,17,17,17,17,17,17,17,17,17,17,
17,17,17,17,17,17,17,17,17,17,17,17,17,17,17,17,
17,17,17,17,17,17,17,17,17,17,17,17,17,17,17,17,
17,17,17,17,17,17,17,17,17,17,17,17,17,17,17,17,
17,17,17,17,17,17,17,17,17,17,17,17,17,17,17,17,
17,17,17,17,17,17,17,17,17,17,17,17,17,17,17,17
</chunk>
   <chunk x="16" y="48" width="16" height="16">
0,0,0,0,0,0,0,0,0,0,0,0,0,0,0,0,
0,0,0,0,0,0,0,0,0,0,0,0,0,0,0,0,
0,0,0,0,0,0,0,0,0,0,0,0,0,0,0,0,
0,0,0,0,0,0,0,0,0,0,0,0,0,0,0,0,
0,0,0,0,0,0,0,0,0,0,0,0,0,0,0,0,
0,0,0,0,0,0,0,0,0,0,0,0,0,0,0,0,
17,17,17,17,17,17,17,17,17,17,17,17,17,17,17,17,
17,17,17,17,17,17,17,17,17,17,17,17,17,17,17,17,
17,17,17,17,17,17,17,17,17,17,17,17,17,17,17,17,
17,17,17,17,17,17,17,17,17,17,17,17,17,17,17,17,
17,17,17,17,17,17,17,17,17,17,17,17,17,17,17,17,
17,17,17,17,17,17,17,17,17,17,17,17,17,17,17,17,
17,17,17,17,17,17,17,17,17,17,17,17,17,17,17,17,
17,17,17,17,17,17,17,17,17,17,17,17,17,17,17,17,
17,17,17,17,17,17,17,17,17,17,17,17,17,17,17,17,
17,17,17,17,17,17,17,17,17,17,17,17,17,17,17,17
</chunk>
   <chunk x="32" y="48" width="16" height="16">
0,0,0,0,0,0,0,0,17,17,17,17,17,17,17,17,
0,0,0,0,0,0,0,0,17,17,17,17,17,17,17,17,
0,0,0,0,0,0,0,0,17,17,17,17,17,17,17,17,
0,0,0,0,0,0,0,0,17,17,17,17,17,17,17,17,
0,0,0,0,0,0,0,0,17,17,17,17,17,17,17,17,
0,0,0,0,0,0,0,0,17,17,17,17,17,17,17,17,
17,17,17,17,17,17,17,17,17,17,17,17,17,17,17,17,
17,17,17,17,17,17,17,17,17,17,17,17,17,17,17,17,
17,17,17,17,17,17,17,17,17,17,17,17,17,17,17,17,
17,17,17,17,17,17,17,17,17,17,17,17,17,17,17,17,
17,17,17,17,17,17,17,17,17,17,17,17,17,17,17,17,
17,17,17,17,17,17,17,17,17,17,17,17,17,17,17,17,
17,17,17,17,17,17,17,17,17,17,17,17,17,17,17,17,
17,17,17,17,17,17,17,17,17,17,17,17,17,17,17,17,
17,17,17,17,17,17,17,17,17,17,17,17,17,17,17,17,
17,17,17,17,17,17,17,17,17,17,17,17,17,17,17,17
</chunk>
   <chunk x="48" y="48" width="16" height="16">
17,17,17,17,17,17,17,17,17,17,17,17,17,17,17,17,
17,17,17,17,17,17,17,17,17,17,17,17,17,17,17,17,
17,17,17,17,17,17,17,17,17,17,17,17,17,17,17,17,
17,17,17,17,17,17,17,17,17,17,17,17,17,17,17,17,
17,17,17,17,17,17,17,17,17,17,17,17,17,17,17,17,
17,17,17,17,17,17,17,17,17,17,17,17,17,17,17,17,
17,17,17,17,17,17,17,17,17,17,17,17,17,17,17,17,
17,17,17,17,17,17,17,17,17,17,17,17,17,17,17,17,
17,17,17,17,17,17,17,17,17,17,17,17,17,17,17,17,
17,17,17,17,17,17,17,17,17,17,17,17,17,17,17,17,
17,17,17,17,17,17,17,17,17,17,17,17,17,17,17,17,
17,17,17,17,17,17,17,17,17,17,17,17,17,17,17,17,
17,17,17,17,17,17,17,17,17,17,17,17,17,17,17,17,
17,17,17,17,17,17,17,17,17,17,17,17,17,17,17,17,
17,17,17,17,17,17,17,17,17,17,17,17,17,17,17,17,
17,17,17,17,17,17,17,17,17,17,17,17,17,17,17,17
</chunk>
   <chunk x="64" y="48" width="16" height="16">
17,17,17,17,17,17,17,17,17,17,17,0,0,0,0,0,
17,17,17,17,17,17,17,17,17,17,17,0,0,0,0,0,
17,17,17,17,17,17,17,17,17,17,17,0,0,0,0,0,
17,17,17,17,17,17,17,17,17,17,17,0,0,0,0,0,
17,17,17,17,17,17,17,17,17,17,17,0,0,0,0,0,
17,17,17,17,17,17,17,17,17,17,17,0,0,0,0,0,
17,17,17,17,17,17,17,17,17,17,17,17,17,17,17,17,
17,17,17,17,17,17,17,17,17,17,17,17,17,17,17,17,
17,17,17,17,17,17,17,17,17,17,17,17,17,17,17,17,
17,17,17,17,17,17,17,17,17,17,17,17,17,17,17,17,
17,17,17,17,17,17,17,17,17,17,17,17,17,17,17,17,
17,17,17,17,17,17,17,17,17,17,17,17,17,17,17,17,
17,17,17,17,17,17,17,17,17,17,17,17,17,17,17,17,
17,17,17,17,17,17,17,17,17,17,17,17,17,17,17,17,
17,17,17,17,17,17,17,17,17,17,17,17,17,17,17,17,
17,17,17,17,17,17,17,17,17,17,17,17,17,17,17,17
</chunk>
   <chunk x="80" y="48" width="16" height="16">
0,0,0,0,0,0,0,0,0,0,0,0,0,0,0,0,
0,0,0,0,0,0,0,0,0,0,0,0,0,0,0,0,
0,0,0,0,0,0,0,0,0,0,0,0,0,0,0,0,
0,0,0,0,0,0,0,0,0,0,0,0,0,0,0,0,
0,0,0,0,0,0,0,0,0,0,0,0,0,0,0,0,
0,0,0,0,0,0,0,0,0,0,0,0,0,0,0,0,
17,17,17,17,17,17,17,17,17,17,17,17,17,17,17,17,
17,17,17,17,17,17,17,17,17,17,17,17,17,17,17,17,
17,17,17,17,17,17,17,17,17,17,17,17,17,17,17,17,
17,17,17,17,17,17,17,17,17,17,17,17,17,17,17,17,
17,17,17,17,17,17,17,17,17,17,17,17,17,17,17,17,
17,17,17,17,17,17,17,17,17,17,17,17,17,17,17,17,
17,17,17,17,17,17,17,17,17,17,17,17,17,17,17,17,
17,17,17,17,17,17,17,17,17,17,17,17,17,17,17,17,
17,17,17,17,17,17,17,17,17,17,17,17,17,17,17,17,
17,17,17,17,17,17,17,17,17,17,17,17,17,17,17,17
</chunk>
   <chunk x="96" y="48" width="16" height="16">
0,0,0,0,0,0,0,0,17,17,17,17,17,17,17,17,
0,0,0,0,0,0,0,0,17,17,17,17,17,17,17,17,
0,0,0,0,0,0,0,0,17,17,17,17,17,17,17,17,
0,0,0,0,0,0,0,0,17,17,17,17,17,17,17,17,
0,0,0,0,0,0,0,0,17,17,17,17,17,17,17,17,
0,0,0,0,0,0,0,0,17,17,17,17,17,17,17,17,
17,17,17,17,17,17,17,17,17,17,17,17,17,17,17,17,
17,17,17,17,17,17,17,17,17,17,17,17,17,17,17,17,
17,17,17,17,17,17,17,17,17,17,17,17,17,17,17,17,
17,17,17,17,17,17,17,17,17,17,17,17,17,17,17,17,
17,17,17,17,17,17,17,17,17,17,17,17,17,17,17,17,
17,17,17,17,17,17,17,17,17,17,17,17,17,17,17,17,
17,17,17,17,17,17,17,17,17,17,17,17,17,17,17,17,
17,17,17,17,17,17,17,17,17,17,17,17,17,17,17,17,
17,17,17,17,17,17,17,17,17,17,17,17,17,17,17,17,
17,17,17,17,17,17,17,17,17,17,17,17,17,17,17,17
</chunk>
   <chunk x="112" y="48" width="16" height="16">
17,17,17,17,17,17,17,0,0,0,0,0,0,0,0,0,
17,17,17,17,17,17,17,0,0,0,0,0,0,0,0,0,
17,17,17,17,17,17,17,0,0,0,0,0,0,0,0,0,
17,17,17,17,17,17,17,0,0,0,0,0,0,0,0,0,
17,17,17,17,17,17,17,0,0,0,0,0,0,0,0,0,
17,17,17,17,17,17,17,0,0,0,0,0,0,0,0,0,
17,17,17,17,17,17,17,0,0,0,0,0,0,0,0,0,
17,17,17,17,17,17,17,0,0,0,0,0,0,0,0,0,
17,17,17,17,17,17,17,0,0,0,0,0,0,0,0,0,
17,17,17,17,17,17,17,0,0,0,0,0,0,0,0,0,
17,17,17,17,17,17,17,0,0,0,0,0,0,0,0,0,
17,17,17,17,17,17,17,0,0,0,0,0,0,0,0,0,
17,17,17,17,17,17,17,0,0,0,0,0,0,0,0,0,
17,17,17,17,17,17,17,0,0,0,0,0,0,0,0,0,
17,17,17,17,17,17,17,0,0,0,0,0,0,0,0,0,
17,17,17,17,17,17,17,0,0,0,0,0,0,0,0,0
</chunk>
   <chunk x="128" y="48" width="16" height="16">
0,0,0,0,0,0,0,0,0,0,0,0,0,0,0,0,
0,0,0,0,0,0,0,0,0,0,0,0,0,0,0,0,
0,0,0,0,0,0,0,0,0,0,0,0,0,0,0,0,
0,0,0,0,0,0,0,0,0,0,0,0,0,0,0,0,
0,0,0,0,0,0,0,0,0,0,0,0,0,0,0,0,
0,0,0,0,0,0,0,0,0,0,0,0,0,0,0,0,
0,17,17,17,17,17,17,17,17,17,17,17,17,17,17,17,
0,17,17,17,17,17,17,17,17,17,17,17,17,17,17,17,
0,17,17,17,17,17,17,17,17,17,17,17,17,17,17,17,
0,17,17,17,17,17,17,17,17,17,17,17,17,17,17,17,
0,17,17,17,17,17,17,17,17,17,17,17,17,17,17,17,
0,17,17,17,17,17,17,17,17,17,17,17,17,17,17,17,
0,17,17,17,17,17,17,17,17,17,17,17,17,17,17,17,
0,17,17,17,17,17,17,17,17,17,17,17,17,17,17,17,
0,17,17,17,17,17,17,17,17,17,17,17,17,17,17,17,
0,17,17,17,17,17,17,17,17,17,17,17,17,17,17,17
</chunk>
   <chunk x="144" y="48" width="16" height="16">
0,0,0,0,0,0,0,0,0,0,0,0,0,0,0,0,
0,0,0,0,0,0,0,0,0,0,0,0,0,0,0,0,
0,0,0,0,0,0,0,0,0,0,0,0,0,0,0,0,
0,0,0,0,0,0,0,0,0,0,0,0,0,0,0,0,
0,0,0,0,0,0,0,0,0,0,0,0,0,0,0,0,
0,0,0,0,0,0,0,0,0,0,0,0,0,0,0,0,
17,17,17,17,17,17,17,17,17,17,17,17,17,17,17,17,
17,17,17,17,17,17,17,17,17,17,17,17,17,17,17,17,
17,17,17,17,17,17,17,17,17,17,17,17,17,17,17,17,
17,17,17,17,17,17,17,17,17,17,17,17,17,17,17,17,
17,17,17,17,17,17,17,17,17,17,17,17,17,17,17,17,
17,17,17,17,17,17,17,17,17,17,17,17,17,17,17,17,
17,17,17,17,17,17,17,17,17,17,17,17,17,17,17,17,
17,17,17,17,17,17,17,17,17,17,17,17,17,17,17,17,
17,17,17,17,17,17,17,17,17,17,17,17,17,17,17,17,
17,17,17,17,17,17,17,17,17,17,17,17,17,17,17,17
</chunk>
   <chunk x="160" y="48" width="16" height="16">
0,0,0,0,0,0,0,0,0,0,0,0,0,0,0,0,
0,0,0,0,0,0,0,0,0,0,0,0,0,0,0,0,
0,0,0,0,0,0,0,0,0,0,0,0,0,0,0,0,
0,0,0,0,0,0,0,0,0,0,0,0,0,0,0,0,
0,0,0,0,0,0,0,0,0,0,0,0,0,0,0,0,
0,0,0,0,0,0,0,0,0,0,0,0,0,0,0,0,
17,17,17,17,17,17,17,17,17,17,17,17,17,0,0,0,
17,17,17,17,17,17,17,17,17,17,17,17,17,0,0,0,
17,17,17,17,17,17,17,17,17,17,17,17,17,0,0,0,
17,17,17,17,17,17,17,17,17,17,17,17,17,0,0,0,
17,17,17,17,17,17,17,17,17,17,17,17,17,0,0,0,
17,17,17,17,17,17,17,17,17,17,17,17,17,0,0,0,
17,17,17,17,17,17,17,17,17,17,17,17,17,0,0,0,
17,17,17,17,17,17,17,17,17,17,17,17,17,0,0,0,
17,17,17,17,17,17,17,17,17,17,17,17,17,0,0,0,
17,17,17,17,17,17,17,17,17,17,17,17,17,0,0,0
</chunk>
   <chunk x="-32" y="64" width="16" height="16">
0,0,0,0,0,0,0,17,17,17,17,17,17,17,17,17,
0,0,0,0,0,0,0,0,0,0,0,0,0,0,0,0,
0,0,0,0,0,0,0,0,0,0,0,0,0,0,0,0,
0,0,0,0,0,0,0,0,0,0,0,0,0,0,0,0,
0,0,0,0,0,0,0,0,0,0,0,0,0,0,0,0,
0,0,0,0,0,0,0,0,0,0,0,0,0,0,0,0,
0,0,0,0,0,0,0,0,0,0,0,0,0,0,0,0,
0,0,0,0,0,0,0,0,0,0,0,0,0,0,0,0,
0,0,0,0,0,0,0,0,0,0,0,0,0,0,0,0,
0,0,0,0,0,0,0,0,0,0,0,0,0,0,0,0,
0,0,0,0,0,0,0,0,0,0,0,0,0,0,0,0,
0,0,0,0,0,0,0,0,0,0,0,0,0,0,0,0,
0,0,0,0,0,0,0,0,0,0,0,0,0,0,0,0,
0,0,0,0,0,0,0,0,0,0,0,0,0,0,0,0,
0,0,0,0,0,0,0,0,0,0,0,0,0,0,0,0,
0,0,0,0,0,0,0,0,0,0,0,0,0,0,0,0
</chunk>
   <chunk x="-16" y="64" width="16" height="16">
17,17,17,17,17,17,17,17,17,17,17,17,17,17,17,17,
0,0,0,0,0,0,0,0,0,0,0,0,0,0,0,0,
0,0,0,0,0,0,0,0,0,0,0,0,0,0,0,0,
0,0,0,0,0,0,0,0,0,0,0,0,0,0,0,0,
0,0,0,0,0,0,0,0,0,0,0,0,0,0,0,0,
0,0,0,0,0,0,0,0,0,0,0,0,0,0,0,0,
0,0,0,0,0,0,0,0,0,0,0,0,0,0,0,0,
0,0,0,0,0,0,0,0,0,0,0,0,0,0,0,0,
0,0,0,0,0,0,0,0,0,0,0,0,0,0,0,0,
0,0,0,0,0,0,0,0,0,0,0,0,0,0,0,0,
0,0,0,0,0,0,0,0,0,0,0,0,0,0,0,0,
0,0,0,0,0,0,0,0,0,0,0,0,0,0,0,0,
0,0,0,0,0,0,0,0,0,0,0,0,0,0,0,0,
0,0,0,0,0,0,0,0,0,0,0,0,0,0,0,0,
0,0,0,0,0,0,0,0,0,0,0,0,0,0,0,0,
0,0,0,0,0,0,0,0,0,0,0,0,0,0,0,0
</chunk>
   <chunk x="0" y="64" width="16" height="16">
17,17,17,17,17,17,17,17,17,17,17,17,17,17,17,17,
0,0,0,0,0,0,0,0,0,0,0,0,0,0,0,0,
0,0,0,0,0,0,0,0,0,0,0,0,0,0,0,0,
0,0,0,0,0,0,0,0,0,0,0,0,0,0,0,0,
0,0,0,0,0,0,0,0,0,0,0,0,0,0,0,0,
0,0,0,0,0,0,0,0,0,0,0,0,0,0,0,0,
0,0,0,0,0,0,0,0,0,0,0,0,0,0,0,0,
0,0,0,0,0,0,0,0,0,0,0,0,0,0,0,0,
0,0,0,0,0,0,0,0,0,0,0,0,0,0,0,0,
0,0,0,0,0,0,0,0,0,0,0,0,0,0,0,0,
0,0,0,0,0,0,0,0,0,0,0,0,0,0,0,0,
0,0,0,0,0,0,0,0,0,0,0,0,0,0,0,0,
0,0,0,0,0,0,0,0,0,0,0,0,0,0,0,0,
0,0,0,0,0,0,0,0,0,0,0,0,0,0,0,0,
0,0,0,0,0,0,0,0,0,0,0,0,0,0,0,0,
0,0,0,0,0,0,0,0,0,0,0,0,0,0,0,0
</chunk>
   <chunk x="16" y="64" width="16" height="16">
17,17,17,17,17,17,17,17,17,17,17,17,17,17,17,17,
0,0,0,0,0,0,0,0,0,0,0,0,0,0,0,0,
0,0,0,0,0,0,0,0,0,0,0,0,0,0,0,0,
0,0,0,0,0,0,0,0,0,0,0,0,0,0,0,0,
0,0,0,0,0,0,0,0,0,0,0,0,0,0,0,0,
0,0,0,0,0,0,0,0,0,0,0,0,0,0,0,0,
0,0,0,0,0,0,0,0,0,0,0,0,0,0,0,0,
0,0,0,0,0,0,0,0,0,0,0,0,0,0,0,0,
0,0,0,0,0,0,0,0,0,0,0,0,0,0,0,0,
0,0,0,0,0,0,0,0,0,0,0,0,0,0,0,0,
0,0,0,0,0,0,0,0,0,0,0,0,0,0,0,0,
0,0,0,0,0,0,0,0,0,0,0,0,0,0,0,0,
0,0,0,0,0,0,0,0,0,0,0,0,0,0,0,0,
0,0,0,0,0,0,0,0,0,0,0,0,0,0,0,0,
0,0,0,0,0,0,0,0,0,0,0,0,0,0,0,0,
0,0,0,0,0,0,0,0,0,0,0,0,0,0,0,0
</chunk>
   <chunk x="32" y="64" width="16" height="16">
17,17,17,17,17,17,17,17,17,17,17,17,17,17,17,17,
0,0,0,0,0,0,0,0,0,0,0,0,0,0,0,0,
0,0,0,0,0,0,0,0,0,0,0,0,0,0,0,0,
0,0,0,0,0,0,0,0,0,0,0,0,0,0,0,0,
0,0,0,0,0,0,0,0,0,0,0,0,0,0,0,0,
0,0,0,0,0,0,0,0,0,0,0,0,0,0,0,0,
0,0,0,0,0,0,0,0,0,0,0,0,0,0,0,0,
0,0,0,0,0,0,0,0,0,0,0,0,0,0,0,0,
0,0,0,0,0,0,0,0,0,0,0,0,0,0,0,0,
0,0,0,0,0,0,0,0,0,0,0,0,0,0,0,0,
0,0,0,0,0,0,0,0,0,0,0,0,0,0,0,0,
0,0,0,0,0,0,0,0,0,0,0,0,0,0,0,0,
0,0,0,0,0,0,0,0,0,0,0,0,0,0,0,0,
0,0,0,0,0,0,0,0,0,0,0,0,0,0,0,0,
0,0,0,0,0,0,0,0,0,0,0,0,0,0,0,0,
0,0,0,0,0,0,0,0,0,0,0,0,0,0,0,0
</chunk>
   <chunk x="48" y="64" width="16" height="16">
17,17,17,17,17,17,17,17,17,17,17,17,17,17,17,17,
0,0,0,0,0,0,0,0,0,0,0,0,0,0,0,0,
0,0,0,0,0,0,0,0,0,0,0,0,0,0,0,0,
0,0,0,0,0,0,0,0,0,0,0,0,0,0,0,0,
0,0,0,0,0,0,0,0,0,0,0,0,0,0,0,0,
0,0,0,0,0,0,0,0,0,0,0,0,0,0,0,0,
0,0,0,0,0,0,0,0,0,0,0,0,0,0,0,0,
0,0,0,0,0,0,0,0,0,0,0,0,0,0,0,0,
0,0,0,0,0,0,0,0,0,0,0,0,0,0,0,0,
0,0,0,0,0,0,0,0,0,0,0,0,0,0,0,0,
0,0,0,0,0,0,0,0,0,0,0,0,0,0,0,0,
0,0,0,0,0,0,0,0,0,0,0,0,0,0,0,0,
0,0,0,0,0,0,0,0,0,0,0,0,0,0,0,0,
0,0,0,0,0,0,0,0,0,0,0,0,0,0,0,0,
0,0,0,0,0,0,0,0,0,0,0,0,0,0,0,0,
0,0,0,0,0,0,0,0,0,0,0,0,0,0,0,0
</chunk>
   <chunk x="64" y="64" width="16" height="16">
17,17,17,17,17,17,17,17,17,17,17,17,17,17,17,17,
0,0,0,0,0,0,0,0,0,0,0,0,0,0,0,0,
0,0,0,0,0,0,0,0,0,0,0,0,0,0,0,0,
0,0,0,0,0,0,0,0,0,0,0,0,0,0,0,0,
0,0,0,0,0,0,0,0,0,0,0,0,0,0,0,0,
0,0,0,0,0,0,0,0,0,0,0,0,0,0,0,0,
0,0,0,0,0,0,0,0,0,0,0,0,0,0,0,0,
0,0,0,0,0,0,0,0,0,0,0,0,0,0,0,0,
0,0,0,0,0,0,0,0,0,0,0,0,0,0,0,0,
0,0,0,0,0,0,0,0,0,0,0,0,0,0,0,0,
0,0,0,0,0,0,0,0,0,0,0,0,0,0,0,0,
0,0,0,0,0,0,0,0,0,0,0,0,0,0,0,0,
0,0,0,0,0,0,0,0,0,0,0,0,0,0,0,0,
0,0,0,0,0,0,0,0,0,0,0,0,0,0,0,0,
0,0,0,0,0,0,0,0,0,0,0,0,0,0,0,0,
0,0,0,0,0,0,0,0,0,0,0,0,0,0,0,0
</chunk>
   <chunk x="80" y="64" width="16" height="16">
17,17,17,17,17,17,17,17,17,17,17,17,17,17,17,17,
0,0,0,0,0,0,0,0,0,0,0,0,0,0,0,0,
0,0,0,0,0,0,0,0,0,0,0,0,0,0,0,0,
0,0,0,0,0,0,0,0,0,0,0,0,0,0,0,0,
0,0,0,0,0,0,0,0,0,0,0,0,0,0,0,0,
0,0,0,0,0,0,0,0,0,0,0,0,0,0,0,0,
0,0,0,0,0,0,0,0,0,0,0,0,0,0,0,0,
0,0,0,0,0,0,0,0,0,0,0,0,0,0,0,0,
0,0,0,0,0,0,0,0,0,0,0,0,0,0,0,0,
0,0,0,0,0,0,0,0,0,0,0,0,0,0,0,0,
0,0,0,0,0,0,0,0,0,0,0,0,0,0,0,0,
0,0,0,0,0,0,0,0,0,0,0,0,0,0,0,0,
0,0,0,0,0,0,0,0,0,0,0,0,0,0,0,0,
0,0,0,0,0,0,0,0,0,0,0,0,0,0,0,0,
0,0,0,0,0,0,0,0,0,0,0,0,0,0,0,0,
0,0,0,0,0,0,0,0,0,0,0,0,0,0,0,0
</chunk>
   <chunk x="96" y="64" width="16" height="16">
17,17,17,17,17,17,17,17,17,17,17,17,17,17,17,17,
0,0,0,0,0,0,0,0,0,0,0,0,0,0,0,0,
0,0,0,0,0,0,0,0,0,0,0,0,0,0,0,0,
0,0,0,0,0,0,0,0,0,0,0,0,0,0,0,0,
0,0,0,0,0,0,0,0,0,0,0,0,0,0,0,0,
0,0,0,0,0,0,0,0,0,0,0,0,0,0,0,0,
0,0,0,0,0,0,0,0,0,0,0,0,0,0,0,0,
0,0,0,0,0,0,0,0,0,0,0,0,0,0,0,0,
0,0,0,0,0,0,0,0,0,0,0,0,0,0,0,0,
0,0,0,0,0,0,0,0,0,0,0,0,0,0,0,0,
0,0,0,0,0,0,0,0,0,0,0,0,0,0,0,0,
0,0,0,0,0,0,0,0,0,0,0,0,0,0,0,0,
0,0,0,0,0,0,0,0,0,0,0,0,0,0,0,0,
0,0,0,0,0,0,0,0,0,0,0,0,0,0,0,0,
0,0,0,0,0,0,0,0,0,0,0,0,0,0,0,0,
0,0,0,0,0,0,0,0,0,0,0,0,0,0,0,0
</chunk>
   <chunk x="112" y="64" width="16" height="16">
17,17,17,17,17,17,17,0,0,0,0,0,0,0,0,0,
0,0,0,0,0,0,0,0,0,0,0,0,0,0,0,0,
0,0,0,0,0,0,0,0,0,0,0,0,0,0,0,0,
0,0,0,0,0,0,0,0,0,0,0,0,0,0,0,0,
0,0,0,0,0,0,0,0,0,0,0,0,0,0,0,0,
0,0,0,0,0,0,0,0,0,0,0,0,0,0,0,0,
0,0,0,0,0,0,0,0,0,0,0,0,0,0,0,0,
0,0,0,0,0,0,0,0,0,0,0,0,0,0,0,0,
0,0,0,0,0,0,0,0,0,0,0,0,0,0,0,0,
0,0,0,0,0,0,0,0,0,0,0,0,0,0,0,0,
0,0,0,0,0,0,0,0,0,0,0,0,0,0,0,0,
0,0,0,0,0,0,0,0,0,0,0,0,0,0,0,0,
0,0,0,0,0,0,0,0,0,0,0,0,0,0,0,0,
0,0,0,0,0,0,0,0,0,0,0,0,0,0,0,0,
0,0,0,0,0,0,0,0,0,0,0,0,0,0,0,0,
0,0,0,0,0,0,0,0,0,0,0,0,0,0,0,0
</chunk>
   <chunk x="128" y="64" width="16" height="16">
0,17,17,17,17,17,17,17,17,17,17,17,17,17,17,17,
0,0,0,0,0,0,0,0,0,0,0,0,0,0,0,0,
0,0,0,0,0,0,0,0,0,0,0,0,0,0,0,0,
0,0,0,0,0,0,0,0,0,0,0,0,0,0,0,0,
0,0,0,0,0,0,0,0,0,0,0,0,0,0,0,0,
0,0,0,0,0,0,0,0,0,0,0,0,0,0,0,0,
0,0,0,0,0,0,0,0,0,0,0,0,0,0,0,0,
0,0,0,0,0,0,0,0,0,0,0,0,0,0,0,0,
0,0,0,0,0,0,0,0,0,0,0,0,0,0,0,0,
0,0,0,0,0,0,0,0,0,0,0,0,0,0,0,0,
0,0,0,0,0,0,0,0,0,0,0,0,0,0,0,0,
0,0,0,0,0,0,0,0,0,0,0,0,0,0,0,0,
0,0,0,0,0,0,0,0,0,0,0,0,0,0,0,0,
0,0,0,0,0,0,0,0,0,0,0,0,0,0,0,0,
0,0,0,0,0,0,0,0,0,0,0,0,0,0,0,0,
0,0,0,0,0,0,0,0,0,0,0,0,0,0,0,0
</chunk>
   <chunk x="144" y="64" width="16" height="16">
17,17,17,17,17,17,17,17,17,17,17,17,17,17,17,17,
0,0,0,0,0,0,0,0,0,0,0,0,0,0,0,0,
0,0,0,0,0,0,0,0,0,0,0,0,0,0,0,0,
0,0,0,0,0,0,0,0,0,0,0,0,0,0,0,0,
0,0,0,0,0,0,0,0,0,0,0,0,0,0,0,0,
0,0,0,0,0,0,0,0,0,0,0,0,0,0,0,0,
0,0,0,0,0,0,0,0,0,0,0,0,0,0,0,0,
0,0,0,0,0,0,0,0,0,0,0,0,0,0,0,0,
0,0,0,0,0,0,0,0,0,0,0,0,0,0,0,0,
0,0,0,0,0,0,0,0,0,0,0,0,0,0,0,0,
0,0,0,0,0,0,0,0,0,0,0,0,0,0,0,0,
0,0,0,0,0,0,0,0,0,0,0,0,0,0,0,0,
0,0,0,0,0,0,0,0,0,0,0,0,0,0,0,0,
0,0,0,0,0,0,0,0,0,0,0,0,0,0,0,0,
0,0,0,0,0,0,0,0,0,0,0,0,0,0,0,0,
0,0,0,0,0,0,0,0,0,0,0,0,0,0,0,0
</chunk>
   <chunk x="160" y="64" width="16" height="16">
17,17,17,17,17,17,17,17,17,17,17,17,17,0,0,0,
0,0,0,0,0,0,0,0,0,0,0,0,0,0,0,0,
0,0,0,0,0,0,0,0,0,0,0,0,0,0,0,0,
0,0,0,0,0,0,0,0,0,0,0,0,0,0,0,0,
0,0,0,0,0,0,0,0,0,0,0,0,0,0,0,0,
0,0,0,0,0,0,0,0,0,0,0,0,0,0,0,0,
0,0,0,0,0,0,0,0,0,0,0,0,0,0,0,0,
0,0,0,0,0,0,0,0,0,0,0,0,0,0,0,0,
0,0,0,0,0,0,0,0,0,0,0,0,0,0,0,0,
0,0,0,0,0,0,0,0,0,0,0,0,0,0,0,0,
0,0,0,0,0,0,0,0,0,0,0,0,0,0,0,0,
0,0,0,0,0,0,0,0,0,0,0,0,0,0,0,0,
0,0,0,0,0,0,0,0,0,0,0,0,0,0,0,0,
0,0,0,0,0,0,0,0,0,0,0,0,0,0,0,0,
0,0,0,0,0,0,0,0,0,0,0,0,0,0,0,0,
0,0,0,0,0,0,0,0,0,0,0,0,0,0,0,0
</chunk>
  </data>
 </layer>
 <layer id="4" name="TreetopWalkBlockout" width="30" height="20">
  <data encoding="csv">
   <chunk x="-160" y="-80" width="16" height="16">
17,17,17,17,17,17,17,17,17,17,17,17,17,17,17,17,
17,17,17,17,17,17,17,17,17,17,17,17,17,17,17,17,
17,17,17,17,17,17,17,17,17,17,17,17,17,17,17,17,
17,17,17,17,17,17,17,17,17,17,17,17,17,17,17,17,
17,17,17,17,17,17,17,17,17,17,17,17,17,17,17,17,
17,17,17,17,17,17,17,17,17,17,17,17,17,17,17,17,
17,17,17,17,17,17,17,17,17,17,17,17,17,17,17,17,
17,17,17,17,17,17,17,17,17,17,17,17,17,17,17,17,
17,17,17,17,17,17,17,17,17,17,17,17,17,17,17,17,
17,17,17,17,17,17,17,17,17,17,17,17,17,17,17,17,
17,17,17,17,17,17,17,17,17,17,17,17,17,17,17,17,
17,17,17,17,17,17,17,17,17,17,17,17,17,17,17,17,
17,17,17,17,17,17,17,17,17,17,17,17,17,17,17,0,
17,17,17,17,17,17,17,17,17,17,17,17,17,17,17,0,
17,17,17,17,17,17,17,17,17,17,17,17,17,17,17,0,
17,17,17,17,17,17,17,17,17,17,17,17,17,17,17,0
</chunk>
   <chunk x="-144" y="-80" width="16" height="16">
17,17,17,17,17,17,17,17,17,17,17,17,17,17,17,17,
17,17,17,17,17,17,17,17,17,17,17,17,17,17,17,17,
17,17,17,17,17,17,17,17,17,17,17,17,17,17,17,17,
17,17,17,17,17,17,17,17,17,17,17,17,17,17,17,17,
17,17,17,17,17,17,17,17,17,17,17,17,17,17,17,17,
17,17,17,17,17,17,17,17,17,17,17,17,17,17,17,17,
17,17,17,17,17,17,17,17,17,17,17,17,17,17,17,17,
17,17,17,17,17,17,17,17,17,17,17,17,17,17,17,17,
17,17,17,17,17,17,17,17,17,17,17,17,17,17,17,17,
17,17,17,17,17,17,17,17,17,17,17,17,17,17,17,17,
17,17,17,17,17,17,17,17,17,17,17,17,17,17,17,17,
17,17,17,17,17,17,17,17,17,17,17,17,17,17,17,17,
0,0,0,0,0,0,0,0,0,0,0,0,0,0,0,0,
0,0,0,0,0,0,0,0,0,0,0,0,0,0,0,0,
0,0,0,0,0,0,0,0,0,0,0,0,0,0,0,0,
0,0,0,0,0,0,0,0,0,0,0,0,0,0,0,0
</chunk>
   <chunk x="-128" y="-80" width="16" height="16">
17,17,17,17,17,17,17,17,17,17,17,17,17,17,17,17,
17,17,17,17,17,17,17,17,17,17,17,17,17,17,17,17,
17,17,17,17,17,17,17,17,17,17,17,17,17,17,17,17,
17,17,17,17,17,17,17,17,17,17,17,17,17,17,17,17,
17,17,17,17,17,17,17,17,17,17,17,17,17,17,17,17,
17,17,17,17,17,17,17,17,17,17,17,17,17,17,17,17,
17,17,17,17,17,17,17,17,17,17,17,17,17,17,17,17,
17,17,17,17,17,17,17,17,17,17,17,17,17,17,17,17,
17,17,17,17,17,17,17,17,17,17,17,17,17,17,17,17,
17,17,17,17,17,17,17,17,17,17,17,17,17,17,17,17,
17,17,17,17,17,17,17,17,17,17,17,17,17,17,17,17,
17,17,17,17,17,17,17,17,17,17,17,17,17,17,17,17,
0,0,0,0,0,0,0,0,0,0,0,0,0,0,0,0,
0,0,0,0,0,0,0,0,0,0,0,0,0,0,0,0,
0,0,0,0,0,0,0,0,0,0,0,0,0,0,0,0,
0,0,0,0,0,0,0,0,0,0,0,0,0,0,0,0
</chunk>
   <chunk x="-112" y="-80" width="16" height="16">
17,17,17,17,17,17,17,17,17,17,17,17,17,17,17,17,
17,17,17,17,17,17,17,17,17,17,17,17,17,17,17,17,
17,17,17,17,17,17,17,17,17,17,17,17,17,17,17,17,
17,17,17,17,17,17,17,17,17,17,17,17,17,17,17,17,
17,17,17,17,17,17,17,17,17,17,17,17,17,17,17,17,
17,17,17,17,17,17,17,17,17,17,17,17,17,17,17,17,
17,17,17,17,17,17,17,17,17,17,17,17,17,17,17,17,
17,17,17,17,17,17,17,17,17,17,17,17,17,17,17,17,
17,17,17,17,17,17,17,17,17,17,17,17,17,17,17,17,
17,17,17,17,17,17,17,17,17,17,17,17,17,17,17,17,
17,17,17,17,17,17,17,17,17,17,17,17,17,17,17,17,
17,17,17,17,17,17,17,17,17,17,17,17,17,17,17,17,
0,0,0,0,0,0,0,0,0,0,0,0,0,0,0,0,
0,0,0,0,0,0,0,0,0,0,0,0,0,0,0,0,
0,0,0,0,0,0,0,0,0,0,0,0,0,0,0,0,
0,0,0,0,0,0,0,0,0,0,0,0,0,0,0,0
</chunk>
   <chunk x="-96" y="-80" width="16" height="16">
17,17,17,17,17,17,17,17,17,17,17,17,17,17,17,17,
17,17,17,17,17,17,17,17,17,17,17,17,17,17,17,17,
17,17,17,17,17,17,17,17,17,17,17,17,17,17,17,17,
17,17,17,17,17,17,17,17,17,17,17,17,17,17,17,17,
17,17,17,17,17,17,17,17,17,17,17,17,17,17,17,17,
17,17,17,17,17,17,17,17,17,17,17,17,17,17,17,17,
17,17,17,17,17,17,17,17,17,17,17,17,17,17,17,17,
17,17,17,17,17,17,17,17,17,17,17,17,17,17,17,17,
17,17,17,17,17,17,17,17,17,17,17,17,17,17,17,17,
17,17,17,17,17,17,17,17,17,17,17,17,17,17,17,17,
17,17,17,17,17,17,17,17,17,17,17,17,17,17,17,17,
17,17,17,17,17,17,17,17,17,17,17,17,17,17,17,17,
0,0,0,0,0,0,0,0,0,0,0,0,0,0,0,0,
0,0,0,0,0,0,0,0,0,0,0,0,0,0,0,0,
0,0,0,0,0,0,0,0,0,0,0,0,0,0,0,0,
0,0,0,0,0,0,0,0,0,0,0,0,0,0,0,0
</chunk>
   <chunk x="-80" y="-80" width="16" height="16">
17,17,17,17,17,17,17,17,17,17,17,17,17,17,17,17,
17,17,17,17,17,17,17,17,17,17,17,17,17,17,17,17,
17,17,17,17,17,17,17,17,17,17,17,17,17,17,17,17,
17,17,17,17,17,17,17,17,17,17,17,17,17,17,17,17,
17,17,17,17,17,17,17,17,17,17,17,17,17,17,17,17,
17,17,17,17,17,17,17,17,17,17,17,17,17,17,17,17,
17,17,17,17,17,17,17,17,17,17,17,17,17,17,17,17,
17,17,17,17,17,17,17,17,17,17,17,17,17,17,17,17,
17,17,17,17,17,17,17,17,17,17,17,17,17,17,17,17,
17,17,17,17,17,17,17,17,17,17,17,17,17,17,17,17,
17,17,17,17,17,17,17,17,17,17,17,17,17,17,17,17,
17,17,17,17,17,17,17,17,17,17,17,17,17,17,17,17,
0,0,0,0,0,0,0,0,0,0,0,0,0,0,0,0,
0,0,0,0,0,0,0,0,0,0,0,0,0,0,0,0,
0,0,0,0,0,0,0,0,0,0,0,0,0,0,0,0,
0,0,0,0,0,0,0,0,0,0,0,0,0,0,0,0
</chunk>
   <chunk x="-64" y="-80" width="16" height="16">
17,17,17,17,17,17,17,17,17,17,17,17,17,17,17,17,
17,17,17,17,17,17,17,17,17,17,17,17,17,17,17,17,
17,17,17,17,17,17,17,17,17,17,17,17,17,17,17,17,
17,17,17,17,17,17,17,17,17,17,17,17,17,17,17,17,
17,17,17,17,17,17,17,17,17,17,17,17,17,17,17,17,
17,17,17,17,17,17,17,17,17,17,17,17,17,17,17,17,
17,17,17,17,17,17,17,17,17,17,17,17,17,17,17,17,
17,17,17,17,17,17,17,17,17,17,17,17,17,17,17,17,
17,17,17,17,17,17,17,17,17,17,17,17,17,17,17,17,
17,17,17,17,17,17,17,17,17,17,17,17,17,17,17,17,
17,17,17,17,17,17,17,17,17,17,17,17,17,17,17,17,
17,17,17,17,17,17,17,17,17,17,17,17,17,17,17,17,
0,0,0,0,0,0,0,0,0,0,0,0,0,0,0,0,
0,0,0,0,0,0,0,0,0,0,0,0,0,0,0,0,
0,0,0,0,0,0,0,0,0,0,0,0,0,0,0,0,
0,0,0,0,0,0,0,0,0,0,0,0,0,0,0,0
</chunk>
   <chunk x="-48" y="-80" width="16" height="16">
17,17,17,17,17,17,17,17,17,17,17,17,17,17,17,17,
17,17,17,17,17,17,17,17,17,17,17,17,17,17,17,17,
17,17,17,17,17,17,17,17,17,17,17,17,17,17,17,17,
17,17,17,17,17,17,17,17,17,17,17,17,17,17,17,17,
17,17,17,17,17,17,17,17,17,17,17,17,17,17,17,17,
17,17,17,17,17,17,17,17,17,17,17,17,17,17,17,17,
17,17,17,17,17,17,17,17,17,17,17,17,17,17,17,17,
17,17,17,17,17,17,17,17,17,17,17,17,17,17,17,17,
17,17,17,17,17,17,17,17,17,17,17,17,17,17,17,17,
17,17,17,17,17,17,17,17,17,17,17,17,17,17,17,17,
17,17,17,17,17,17,17,17,17,17,17,17,17,17,17,17,
17,17,17,17,17,17,17,17,17,17,17,17,17,17,17,17,
0,0,0,0,0,0,0,0,0,0,0,0,0,0,0,0,
0,0,0,0,0,0,0,0,0,0,0,0,0,0,0,0,
0,0,0,0,0,0,0,0,0,0,0,0,0,0,0,0,
0,0,0,0,0,0,0,0,0,0,0,0,0,0,0,0
</chunk>
   <chunk x="-32" y="-80" width="16" height="16">
17,17,17,17,17,17,17,17,17,17,17,17,17,17,17,17,
17,17,17,17,17,17,17,17,17,17,17,17,17,17,17,17,
17,17,17,17,17,17,17,17,17,17,17,17,17,17,17,17,
17,17,17,17,17,17,17,17,17,17,17,17,17,17,17,17,
17,17,17,17,17,17,17,17,17,17,17,17,17,17,17,17,
17,17,17,17,17,17,17,17,17,17,17,17,17,17,17,17,
17,17,17,17,17,17,17,17,17,17,17,17,17,17,17,17,
17,17,17,17,17,17,17,17,17,17,17,17,17,17,17,17,
17,17,17,17,17,17,17,17,17,17,17,17,17,17,17,17,
17,17,17,17,17,17,17,17,17,17,17,17,17,17,17,17,
17,17,17,17,17,17,17,17,17,17,17,17,17,17,17,17,
17,17,17,17,17,17,17,17,17,17,17,17,17,17,17,17,
0,0,0,0,0,0,0,0,0,0,0,0,0,0,0,0,
0,0,0,0,0,0,0,0,0,0,0,0,0,0,0,0,
0,0,0,0,0,0,0,0,0,0,0,0,0,0,0,0,
0,0,0,0,0,0,0,0,0,0,0,0,0,0,0,0
</chunk>
   <chunk x="-16" y="-80" width="16" height="16">
17,17,17,17,17,17,17,17,17,17,17,17,17,17,17,17,
17,17,17,17,17,17,17,17,17,17,17,17,17,17,17,17,
17,17,17,17,17,17,17,17,17,17,17,17,17,17,17,17,
17,17,17,17,17,17,17,17,17,17,17,17,17,17,17,17,
17,17,17,17,17,17,17,17,17,17,17,17,17,17,17,17,
17,17,17,17,17,17,17,17,17,17,17,17,17,17,17,17,
17,17,17,17,17,17,17,17,17,17,17,17,17,17,17,17,
17,17,17,17,17,17,17,17,17,17,17,17,17,17,17,17,
17,17,17,17,17,17,17,17,17,17,17,17,17,17,17,17,
17,17,17,17,17,17,17,17,17,17,17,17,17,17,17,17,
17,17,17,17,17,17,17,17,17,17,17,17,17,17,17,17,
17,17,17,17,17,17,17,17,17,17,17,17,17,17,17,17,
0,0,0,0,0,0,0,0,0,0,0,0,0,0,0,0,
0,0,0,0,0,0,0,0,0,0,0,0,0,0,0,0,
0,0,0,0,0,0,0,0,0,0,0,0,0,0,0,0,
0,0,0,0,0,0,0,0,0,0,0,0,0,0,0,0
</chunk>
   <chunk x="0" y="-80" width="16" height="16">
17,17,17,17,17,17,17,17,17,17,17,17,17,17,17,17,
17,17,17,17,17,17,17,17,17,17,17,17,17,17,17,17,
17,17,17,17,17,17,17,17,17,17,17,17,17,17,17,17,
17,17,17,17,17,17,17,17,17,17,17,17,17,17,17,17,
17,17,17,17,17,17,17,17,17,17,17,17,17,17,17,17,
17,17,17,17,17,17,17,17,17,17,17,17,17,17,17,17,
17,17,17,17,17,17,17,17,17,17,17,17,17,17,17,17,
17,17,17,17,17,17,17,17,17,17,17,17,17,17,17,17,
17,17,17,17,17,17,17,17,17,17,17,17,17,17,17,17,
17,17,17,17,17,17,17,17,17,17,17,17,17,17,17,17,
17,17,17,17,17,17,17,17,17,17,17,17,17,17,17,17,
17,17,17,17,17,17,17,17,17,17,17,17,17,17,17,17,
0,0,0,0,0,0,0,0,0,0,0,0,0,0,0,0,
0,0,0,0,0,0,0,0,0,0,0,0,0,0,0,0,
0,0,0,0,0,0,0,0,0,0,0,0,0,0,0,0,
0,0,0,0,0,0,0,0,0,0,0,0,0,0,0,0
</chunk>
   <chunk x="16" y="-80" width="16" height="16">
17,17,17,17,17,17,17,17,17,17,17,17,17,17,17,17,
17,17,17,17,17,17,17,17,17,17,17,17,17,17,17,17,
17,17,17,17,17,17,17,17,17,17,17,17,17,17,17,17,
17,17,17,17,17,17,17,17,17,17,17,17,17,17,17,17,
17,17,17,17,17,17,17,17,17,17,17,17,17,17,17,17,
17,17,17,17,17,17,17,17,17,17,17,17,17,17,17,17,
17,17,17,17,17,17,17,17,17,17,17,17,17,17,17,17,
17,17,17,17,17,17,17,17,17,17,17,17,17,17,17,17,
17,17,17,17,17,17,17,17,17,17,17,17,17,17,17,17,
17,17,17,17,17,17,17,17,17,17,17,17,17,17,17,17,
17,17,17,17,17,17,17,17,17,17,17,17,17,17,17,17,
17,17,17,17,17,17,17,17,17,17,17,17,17,17,17,17,
0,0,0,0,0,0,0,0,0,0,0,0,0,0,0,0,
0,0,0,0,0,0,0,0,0,0,0,0,0,0,0,0,
0,0,0,0,0,0,0,0,0,0,0,0,0,0,0,0,
0,0,0,0,0,0,0,0,0,0,0,0,0,0,0,0
</chunk>
   <chunk x="32" y="-80" width="16" height="16">
17,17,17,17,17,17,17,17,17,17,17,17,17,17,17,17,
17,17,17,17,17,17,17,17,17,17,17,17,17,17,17,17,
17,17,17,17,17,17,17,17,17,17,17,17,17,17,17,17,
17,17,17,17,17,17,17,17,17,17,17,17,17,17,17,17,
17,17,17,17,17,17,17,17,17,17,17,17,17,17,17,17,
17,17,17,17,17,17,17,17,17,17,17,17,17,17,17,17,
17,17,17,17,17,17,17,17,17,17,17,17,17,17,17,17,
17,17,17,17,17,17,17,17,17,17,17,17,17,17,17,17,
17,17,17,17,17,17,17,17,17,17,17,17,17,17,17,17,
17,17,17,17,17,17,17,17,17,17,17,17,17,17,17,17,
17,17,17,17,17,17,17,17,17,17,17,17,17,17,17,17,
17,17,17,17,17,17,17,17,17,17,17,17,17,17,17,17,
0,0,0,0,0,0,0,0,0,0,0,0,0,0,0,0,
0,0,0,0,0,0,0,0,0,0,0,0,0,0,0,0,
0,0,0,0,0,0,0,0,0,0,0,0,0,0,0,0,
0,0,0,0,0,0,0,0,0,0,0,0,0,0,0,0
</chunk>
   <chunk x="48" y="-80" width="16" height="16">
17,17,17,17,17,17,17,17,17,17,17,17,17,17,17,17,
17,17,17,17,17,17,17,17,17,17,17,17,17,17,17,17,
17,17,17,17,17,17,17,17,17,17,17,17,17,17,17,17,
17,17,17,17,17,17,17,17,17,17,17,17,17,17,17,17,
17,17,17,17,17,17,17,17,17,17,17,17,17,17,17,17,
17,17,17,17,17,17,17,17,17,17,17,17,17,17,17,17,
17,17,17,17,17,17,17,17,17,17,17,17,17,17,17,17,
17,17,17,17,17,17,17,17,17,17,17,17,17,17,17,17,
17,17,17,17,17,17,17,17,17,17,17,17,17,17,17,17,
17,17,17,17,17,17,17,17,17,17,17,17,17,17,17,17,
17,17,17,17,17,17,17,17,17,17,17,17,17,17,17,17,
17,17,17,17,17,17,17,17,17,17,17,17,17,17,17,17,
0,0,0,0,0,0,0,0,0,0,17,17,17,17,17,17,
0,0,0,0,0,0,0,0,0,0,17,17,17,17,17,17,
0,0,0,0,0,0,0,0,0,0,17,17,17,17,17,17,
0,0,0,0,0,0,0,0,0,0,17,17,17,17,17,17
</chunk>
   <chunk x="64" y="-80" width="16" height="16">
17,17,17,17,17,17,17,17,0,0,0,0,0,0,0,0,
17,17,17,17,17,17,17,17,0,0,0,0,0,0,0,0,
17,17,17,17,17,17,17,17,0,0,0,0,0,0,0,0,
17,17,17,17,17,17,17,17,0,0,0,0,0,0,0,0,
17,17,17,17,17,17,17,17,0,0,0,0,0,0,0,0,
17,17,17,17,17,17,17,17,0,0,0,0,0,0,0,0,
17,17,17,17,17,17,17,17,0,0,0,0,0,0,0,0,
17,17,17,17,17,17,17,17,0,0,0,0,0,0,0,0,
17,17,17,17,17,17,17,17,0,0,0,0,0,0,0,0,
17,17,17,17,17,17,17,17,0,0,0,0,0,0,0,0,
17,17,17,17,17,17,17,17,0,0,0,0,0,0,0,0,
17,17,17,17,17,17,17,17,0,0,0,0,0,0,0,0,
17,17,17,17,17,17,17,17,0,0,0,0,0,0,0,0,
17,17,17,17,17,17,17,17,0,0,0,0,0,0,0,0,
17,17,17,17,17,17,17,17,0,0,0,0,0,0,0,0,
17,17,17,17,17,17,17,17,0,0,0,0,0,0,0,0
</chunk>
   <chunk x="-160" y="-64" width="16" height="16">
17,17,17,17,17,17,17,17,17,17,17,17,17,17,17,0,
17,17,17,17,17,17,17,17,17,17,17,17,17,17,17,0,
17,17,17,17,17,17,17,17,17,17,17,17,17,17,17,0,
17,17,17,17,17,17,17,17,17,17,17,17,17,17,17,0,
17,17,17,17,17,17,17,17,17,17,17,17,17,17,17,0,
17,17,17,17,17,17,17,17,17,17,17,17,17,17,17,0,
17,17,17,17,17,17,17,17,17,17,17,17,17,17,17,0,
17,17,17,17,17,17,17,17,17,17,17,17,17,17,17,0,
17,17,17,17,17,17,17,17,17,17,17,17,17,17,17,0,
17,17,17,17,17,17,17,17,17,17,17,17,17,17,17,0,
17,17,17,17,17,17,17,17,17,17,17,17,17,17,17,0,
17,17,17,17,17,17,17,17,17,17,17,17,17,17,17,0,
17,17,17,17,17,17,17,17,17,17,17,17,17,17,17,0,
17,17,17,17,17,17,17,17,17,17,17,17,17,17,17,0,
17,17,17,17,17,17,17,17,17,17,17,17,17,17,17,0,
17,17,17,17,17,17,17,17,17,17,17,17,17,17,17,0
</chunk>
   <chunk x="-112" y="-64" width="16" height="16">
0,0,0,0,0,0,0,0,0,0,0,0,0,0,0,0,
0,0,0,0,0,0,0,0,0,0,0,0,0,0,0,0,
0,0,0,0,0,0,0,0,0,0,0,0,0,0,0,0,
0,0,0,0,0,0,0,0,0,0,0,0,0,0,0,0,
0,0,0,0,0,0,0,0,0,0,0,0,0,0,0,0,
0,0,0,0,0,0,0,0,0,0,0,0,0,0,0,0,
0,0,0,0,0,0,0,0,0,0,0,0,0,0,0,0,
0,0,0,0,0,0,0,0,0,0,0,0,0,0,0,0,
0,0,0,0,0,0,0,0,0,0,0,0,0,0,0,0,
0,0,0,0,0,0,0,0,0,0,0,0,0,0,0,0,
0,0,0,0,0,17,17,17,17,17,17,17,17,17,17,17,
0,0,0,0,0,17,17,17,17,17,17,17,17,17,17,17,
0,0,0,0,0,17,17,17,17,17,17,17,17,17,17,17,
0,0,0,0,0,0,0,0,0,0,0,0,0,0,0,0,
0,0,0,0,0,0,0,0,0,0,0,0,0,0,0,0,
0,0,0,0,0,0,0,0,0,0,0,0,0,0,0,0
</chunk>
   <chunk x="-96" y="-64" width="16" height="16">
0,0,0,0,0,0,0,0,0,0,0,0,0,0,0,0,
0,0,0,0,0,0,0,0,0,0,0,0,0,0,0,0,
0,0,0,0,0,0,0,0,0,0,0,0,0,0,0,0,
0,0,0,0,0,0,0,0,0,0,0,0,0,0,0,0,
0,0,0,0,0,0,0,0,0,0,0,0,0,0,0,0,
0,0,0,0,0,0,0,0,0,0,0,0,0,0,0,0,
0,0,0,0,0,0,0,0,0,0,0,0,0,0,0,0,
0,0,0,0,0,0,0,0,0,0,0,0,0,0,0,0,
0,0,0,0,0,0,0,0,0,0,0,0,0,0,0,0,
0,0,0,0,0,0,0,0,0,0,0,0,0,0,0,0,
17,17,17,17,17,0,0,0,0,0,0,0,0,0,0,0,
17,17,17,17,17,0,0,0,0,0,0,0,0,0,0,0,
17,17,17,17,17,0,0,0,0,0,0,0,0,0,0,0,
17,17,17,17,17,0,0,0,0,0,0,0,0,0,0,0,
0,17,17,17,17,0,0,0,0,0,0,0,0,0,0,0,
0,0,17,17,17,0,0,0,0,0,0,0,0,0,0,0
</chunk>
   <chunk x="48" y="-64" width="16" height="16">
0,0,0,0,0,0,0,0,0,0,17,17,17,17,17,17,
0,0,0,0,0,0,0,0,0,0,17,17,17,17,17,17,
0,0,0,0,0,0,0,0,0,0,17,17,17,17,17,17,
0,0,0,0,0,0,0,0,0,0,17,17,17,17,17,17,
0,0,0,0,0,0,0,0,0,0,17,17,17,17,17,17,
0,0,0,0,0,0,0,0,0,0,17,17,17,17,17,17,
0,0,0,0,0,0,0,0,0,0,17,17,17,17,17,17,
0,0,0,0,0,0,0,0,0,0,17,17,17,17,17,17,
0,0,0,0,0,0,0,0,0,0,17,17,17,17,17,17,
0,0,0,0,0,0,0,0,0,0,17,17,17,17,17,17,
0,0,0,0,0,0,0,0,0,0,17,17,17,17,17,17,
0,0,0,0,0,0,0,0,0,0,17,17,17,17,17,17,
0,0,0,0,0,0,0,0,0,0,17,17,17,17,17,17,
0,0,0,0,0,0,0,0,0,0,17,17,17,17,17,17,
0,0,0,0,0,0,0,0,0,0,17,17,17,17,17,17,
0,0,0,0,0,0,0,0,0,0,17,17,17,17,17,17
</chunk>
   <chunk x="64" y="-64" width="16" height="16">
17,17,17,17,17,17,17,17,0,0,0,0,0,0,0,0,
17,17,17,17,17,17,17,17,0,0,0,0,0,0,0,0,
17,17,17,17,17,17,17,17,0,0,0,0,0,0,0,0,
17,17,17,17,17,17,17,17,0,0,0,0,0,0,0,0,
17,17,17,17,17,17,17,17,0,0,0,0,0,0,0,0,
17,17,17,17,17,17,17,17,0,0,0,0,0,0,0,0,
17,17,17,17,17,17,17,17,0,0,0,0,0,0,0,0,
17,17,17,17,17,17,17,17,0,0,0,0,0,0,0,0,
17,17,17,17,17,17,17,17,0,0,0,0,0,0,0,0,
17,17,17,17,17,17,17,17,0,0,0,0,0,0,0,0,
17,17,17,17,17,17,17,17,0,0,0,0,0,0,0,0,
17,17,17,17,17,17,17,17,0,0,0,0,0,0,0,0,
17,17,17,17,17,17,17,17,0,0,0,0,0,0,0,0,
17,17,17,17,17,17,17,17,0,0,0,0,0,0,0,0,
17,17,17,17,17,17,17,17,0,0,0,0,0,0,0,0,
17,17,17,17,17,17,17,17,0,0,0,0,0,0,0,0
</chunk>
   <chunk x="-160" y="-48" width="16" height="16">
17,17,17,17,17,17,17,17,17,17,17,17,17,17,17,0,
17,17,17,17,17,17,17,17,17,17,17,17,17,17,17,0,
17,17,17,17,17,17,17,17,17,17,17,17,17,17,17,0,
17,17,17,17,17,17,17,17,17,17,17,17,17,17,17,0,
17,17,17,17,17,17,17,17,17,17,17,17,17,17,17,0,
17,17,17,17,17,17,17,17,17,17,17,17,17,17,17,0,
17,17,17,17,17,17,17,17,17,17,17,17,17,17,17,0,
17,17,17,17,17,17,17,17,17,17,17,17,17,17,17,0,
17,17,17,17,17,17,17,17,17,17,17,17,17,17,17,0,
17,17,17,17,17,17,17,17,17,17,17,17,17,17,17,0,
17,17,17,17,17,17,17,17,17,17,17,17,17,17,17,0,
17,17,17,17,17,17,17,17,17,17,17,17,17,17,17,0,
17,17,17,17,17,17,17,17,17,17,17,17,17,17,17,0,
17,17,17,17,17,17,17,17,17,17,17,17,17,17,17,0,
17,17,17,17,17,17,17,17,17,17,17,17,17,17,17,0,
17,17,17,17,17,17,17,17,17,17,17,17,17,17,17,0
</chunk>
   <chunk x="-112" y="-48" width="16" height="16">
0,0,0,0,0,0,0,0,0,0,0,0,0,0,0,0,
0,0,0,0,0,0,0,0,0,0,0,0,0,0,0,0,
0,0,0,0,0,0,0,0,0,0,0,0,0,0,0,0,
0,0,0,0,0,0,0,0,0,0,0,0,0,0,0,0,
0,0,0,0,0,0,0,0,0,0,0,0,0,0,0,0,
0,0,0,0,0,0,0,0,0,0,0,0,0,0,0,0,
0,0,0,0,0,0,0,0,0,0,0,0,0,0,0,0,
0,0,0,0,0,0,0,0,0,0,0,0,0,0,0,0,
0,0,0,0,0,0,0,0,0,0,0,0,0,0,0,0,
0,0,0,0,0,0,0,0,0,0,0,0,0,0,0,0,
0,0,0,0,0,0,0,0,0,0,0,0,0,0,0,0,
0,0,0,0,0,0,0,0,0,0,0,0,0,0,0,0,
0,0,0,0,0,0,0,0,0,0,0,0,0,0,0,0,
0,0,0,0,0,0,0,0,0,0,17,17,17,17,17,17,
0,0,0,0,0,0,0,17,17,17,17,17,17,17,17,17,
0,0,0,0,0,0,17,17,17,17,17,17,17,17,17,17
</chunk>
   <chunk x="-96" y="-48" width="16" height="16">
0,0,17,17,17,0,0,0,0,0,0,0,0,0,0,0,
0,0,17,17,17,0,0,0,0,0,0,0,0,0,0,0,
0,0,17,17,17,0,0,0,0,0,0,0,0,0,0,0,
0,0,17,17,17,0,0,0,0,0,0,0,0,0,0,0,
0,0,17,17,17,17,17,17,17,17,17,17,17,17,17,17,
0,0,17,17,17,17,17,17,17,17,17,17,17,17,17,17,
0,0,17,17,17,17,17,17,17,17,17,17,17,17,17,17,
0,0,17,17,17,0,0,0,0,0,0,0,0,0,0,0,
0,0,17,17,17,0,0,0,0,0,0,0,0,0,0,0,
0,0,17,17,17,0,0,0,0,0,0,0,0,0,0,0,
0,0,17,17,17,0,0,0,0,0,0,0,0,0,0,0,
0,0,17,17,17,0,0,0,0,0,0,0,0,0,0,0,
0,0,17,17,17,0,0,0,0,0,0,0,0,0,0,0,
17,17,17,17,17,0,0,0,0,0,0,0,0,0,0,0,
17,17,17,17,17,0,0,0,0,0,0,0,0,0,0,0,
17,17,17,17,0,0,0,0,0,0,0,0,0,0,0,0
</chunk>
   <chunk x="-80" y="-48" width="16" height="16">
0,0,0,0,0,0,0,0,0,0,0,0,0,0,0,0,
0,0,0,0,0,0,0,0,0,0,0,0,0,0,0,0,
0,0,0,0,0,0,0,0,0,0,0,0,0,0,0,0,
0,0,0,0,0,0,0,0,0,0,0,0,0,0,0,0,
17,0,0,0,0,0,0,0,0,0,0,0,0,0,0,0,
17,0,0,0,0,0,0,0,0,0,0,0,0,0,0,0,
17,0,0,0,0,0,0,0,0,0,0,0,0,0,0,0,
0,0,0,0,0,0,0,0,0,0,0,0,0,0,0,0,
0,0,0,0,0,0,0,0,0,0,0,0,0,0,0,0,
0,0,0,0,0,0,0,0,0,0,0,0,0,0,0,0,
0,0,0,0,0,0,0,0,0,0,0,0,0,0,0,0,
0,0,0,0,0,0,0,0,0,0,0,0,0,0,0,0,
0,0,0,0,0,0,0,0,0,0,0,0,0,0,0,0,
0,0,0,0,0,0,0,0,0,0,0,0,0,0,0,0,
0,0,0,0,0,0,0,0,0,0,0,0,0,0,0,0,
0,0,0,0,0,0,0,0,0,0,0,0,0,0,0,0
</chunk>
   <chunk x="-32" y="-48" width="16" height="16">
0,0,0,0,0,0,0,0,0,0,0,0,0,0,0,0,
0,0,0,0,0,0,0,0,0,0,0,0,0,0,0,0,
0,0,0,0,0,0,0,0,0,0,0,0,0,0,0,0,
0,0,0,0,0,0,0,0,0,0,0,0,0,0,0,0,
0,0,0,0,0,0,0,0,0,0,0,0,0,0,0,0,
0,0,0,0,0,0,0,0,0,0,0,0,0,0,0,0,
0,0,0,0,0,0,0,0,0,0,0,0,0,0,0,0,
0,0,0,0,0,0,0,0,0,0,0,0,0,0,0,0,
0,0,0,0,0,0,0,0,0,0,0,0,0,0,0,0,
0,0,0,0,0,0,0,0,0,0,0,0,0,0,0,0,
0,0,0,0,0,0,17,17,17,17,17,17,17,17,17,17,
0,0,0,0,0,17,17,17,17,17,17,17,17,17,17,17,
0,0,0,0,0,17,17,17,17,17,17,17,17,17,17,17,
0,0,0,0,0,17,17,17,17,17,17,17,17,17,17,17,
0,0,0,0,0,17,17,17,17,17,17,17,17,17,17,17,
0,0,0,0,0,17,17,17,17,17,17,17,17,17,17,17
</chunk>
   <chunk x="-16" y="-48" width="16" height="16">
0,0,0,0,0,0,0,0,0,0,0,0,0,0,0,0,
0,0,0,0,0,0,0,0,0,0,0,0,0,0,0,0,
0,0,0,0,0,0,0,0,0,0,0,0,0,0,0,0,
0,0,0,0,0,0,0,0,0,0,0,0,0,0,0,0,
0,0,0,0,0,0,0,0,0,0,0,0,0,0,0,0,
0,0,0,0,0,0,0,0,0,0,0,0,0,0,0,0,
0,0,0,0,0,0,0,0,0,0,0,0,0,0,0,0,
0,0,0,0,0,0,0,0,0,0,0,0,0,0,0,0,
0,0,0,0,0,0,0,0,0,0,0,0,0,0,0,0,
0,0,0,0,0,0,0,0,0,0,0,0,0,0,0,0,
17,17,17,17,17,17,17,17,17,17,17,17,17,17,17,17,
17,17,17,17,17,17,17,17,17,17,17,17,17,17,17,17,
17,17,17,17,17,17,17,17,17,17,17,17,17,17,17,17,
17,17,17,17,17,17,17,17,17,17,17,17,17,17,17,17,
17,17,17,17,17,17,17,17,17,17,17,17,17,17,17,17,
17,17,17,17,17,17,17,17,17,17,17,17,17,17,17,17
</chunk>
   <chunk x="0" y="-48" width="16" height="16">
0,0,0,0,0,0,0,0,0,0,0,0,0,0,0,0,
0,0,0,0,0,0,0,0,0,0,0,0,0,0,0,0,
0,0,0,0,0,0,0,0,0,0,0,0,0,0,0,0,
0,0,0,0,0,0,0,0,0,0,0,0,0,0,0,0,
0,0,0,0,0,0,0,0,0,0,0,0,0,0,0,0,
0,0,0,0,0,0,0,0,0,0,0,0,0,0,0,0,
0,0,0,0,0,0,0,0,0,0,0,0,0,0,0,0,
0,0,0,0,0,0,0,0,0,0,0,0,0,0,0,0,
0,0,0,0,0,0,0,0,0,0,0,0,0,0,0,0,
0,0,0,0,0,0,0,0,0,0,0,0,0,0,0,0,
17,17,17,17,17,17,17,17,17,0,0,0,0,0,0,0,
17,17,17,17,17,17,17,17,17,17,17,17,17,17,17,17,
17,17,17,17,17,17,17,17,17,17,17,17,17,17,17,17,
17,17,17,17,17,17,17,17,17,17,17,17,17,17,17,17,
17,17,17,17,17,17,17,17,17,17,17,17,17,17,17,17,
17,17,17,17,17,17,17,17,17,17,17,17,17,17,17,17
</chunk>
   <chunk x="16" y="-48" width="16" height="16">
0,0,0,0,0,0,0,0,0,0,0,0,0,0,0,0,
0,0,0,0,0,0,0,0,0,0,0,0,0,0,0,0,
0,0,0,0,0,0,0,0,0,0,0,0,0,0,0,0,
0,0,0,0,0,0,0,0,0,0,0,0,0,0,0,0,
0,0,0,0,0,0,0,0,0,0,0,0,0,0,0,0,
0,0,0,0,0,0,0,0,0,0,0,0,0,0,0,0,
0,0,0,0,0,0,0,0,0,0,0,0,0,0,0,0,
0,0,0,0,0,0,0,0,0,0,0,0,0,0,0,0,
0,0,0,0,0,0,0,0,0,0,0,0,0,0,0,0,
0,0,0,0,0,0,0,0,0,0,0,0,0,0,0,0,
0,0,0,0,0,0,0,0,0,0,0,0,0,0,0,0,
17,17,17,17,17,17,17,17,17,17,17,17,17,17,17,17,
17,17,17,17,17,17,17,17,17,17,17,17,17,17,17,17,
17,17,17,17,17,17,17,17,17,17,17,17,17,17,17,17,
17,17,17,17,17,17,17,17,17,17,17,17,17,17,17,17,
17,17,17,17,17,17,17,17,17,17,17,17,17,17,17,17
</chunk>
   <chunk x="32" y="-48" width="16" height="16">
0,0,0,0,0,0,0,0,0,0,0,0,0,0,0,0,
0,0,0,0,0,0,0,0,0,0,0,0,0,0,0,0,
0,0,0,0,0,0,0,0,0,0,0,0,0,0,0,0,
0,0,0,0,0,0,0,0,0,0,0,0,0,0,0,0,
0,0,0,0,0,0,0,0,0,0,0,0,0,0,0,0,
0,0,0,0,0,0,0,0,0,0,0,0,0,0,0,0,
0,0,0,0,0,0,0,0,0,0,0,0,0,0,0,0,
0,0,0,0,0,0,0,0,0,0,0,0,0,0,0,0,
0,0,0,0,0,0,0,0,0,0,0,0,0,0,0,0,
0,0,0,0,0,0,0,0,0,0,0,0,0,0,0,0,
0,0,0,0,0,0,0,0,0,0,0,0,0,0,0,0,
17,17,17,17,17,17,17,17,17,17,17,17,17,17,17,17,
17,17,17,17,17,17,17,17,17,17,17,17,17,17,17,17,
17,17,17,17,17,17,17,17,17,17,17,17,17,17,17,17,
17,17,17,17,17,17,17,17,17,17,17,17,17,17,17,17,
17,17,17,17,17,17,17,17,17,17,17,17,17,17,17,17
</chunk>
   <chunk x="48" y="-48" width="16" height="16">
0,0,0,0,0,0,0,0,0,0,17,17,17,17,17,17,
0,0,0,0,0,0,0,0,0,0,17,17,17,17,17,17,
0,0,0,0,0,0,0,0,0,0,17,17,17,17,17,17,
0,0,0,0,0,0,0,0,0,0,17,17,17,17,17,17,
0,0,0,0,0,0,0,0,0,0,17,17,17,17,17,17,
0,0,0,0,0,0,0,0,0,0,17,17,17,17,17,17,
0,0,0,0,0,0,0,0,0,0,17,17,17,17,17,17,
0,0,0,0,0,0,0,0,0,0,17,17,17,17,17,17,
0,0,0,0,0,0,0,0,0,0,17,17,17,17,17,17,
0,0,0,0,0,0,0,0,0,0,17,17,17,17,17,17,
0,0,0,0,0,0,0,0,17,17,17,17,17,17,17,17,
17,17,17,17,17,17,17,17,17,17,17,17,17,17,17,17,
17,17,17,17,17,17,17,17,17,17,17,17,17,17,17,17,
17,17,17,17,17,17,17,17,17,17,17,17,17,17,17,17,
17,17,17,17,17,17,17,17,17,17,17,17,17,17,17,17,
17,17,17,17,17,17,17,17,17,17,17,17,17,17,17,17
</chunk>
   <chunk x="64" y="-48" width="16" height="16">
17,17,17,17,17,17,17,17,0,0,0,0,0,0,0,0,
17,17,17,17,17,17,17,17,0,0,0,0,0,0,0,0,
17,17,17,17,17,17,17,17,0,0,0,0,0,0,0,0,
17,17,17,17,17,17,17,17,0,0,0,0,0,0,0,0,
17,17,17,17,17,17,17,17,0,0,0,0,0,0,0,0,
17,17,17,17,17,17,17,17,0,0,0,0,0,0,0,0,
17,17,17,17,17,17,17,17,0,0,0,0,0,0,0,0,
17,17,17,17,17,17,17,17,0,0,0,0,0,0,0,0,
17,17,17,17,17,17,17,17,0,0,0,0,0,0,0,0,
17,17,17,17,17,17,17,17,0,0,0,0,0,0,0,0,
17,17,17,17,17,17,17,17,0,0,0,0,0,0,0,0,
17,17,17,17,17,17,17,17,0,0,0,0,0,0,0,0,
17,17,17,17,17,17,17,17,0,0,0,0,0,0,0,0,
17,17,17,17,17,17,17,17,0,0,0,0,0,0,0,0,
17,17,17,17,17,17,17,17,0,0,0,0,0,0,0,0,
17,17,17,17,17,17,17,17,0,0,0,0,0,0,0,0
</chunk>
   <chunk x="-160" y="-32" width="16" height="16">
17,17,17,17,17,17,17,17,17,17,17,17,17,17,17,0,
17,17,17,17,17,17,17,17,17,17,17,17,17,17,17,0,
17,17,17,17,17,17,17,17,17,17,17,17,17,17,17,0,
17,17,17,17,17,17,17,17,17,17,17,17,17,17,17,0,
17,17,17,17,17,17,17,17,17,17,17,17,17,17,17,0,
17,17,17,17,17,17,17,17,17,17,17,17,17,17,17,0,
17,17,17,17,17,17,17,17,17,17,17,17,17,17,17,0,
17,17,17,17,17,17,17,17,17,17,17,17,17,17,17,0,
17,17,17,17,17,17,17,17,17,17,17,17,17,17,17,0,
17,17,17,17,17,17,17,17,17,17,17,17,17,17,17,0,
17,17,17,17,17,17,17,17,17,17,17,17,17,17,17,0,
17,17,17,17,17,17,17,17,17,17,17,17,17,17,17,0,
17,17,17,17,17,17,17,17,17,17,17,17,17,17,17,17,
17,17,17,17,17,17,17,17,17,17,17,17,17,17,17,17,
17,17,17,17,17,17,17,17,17,17,17,17,17,17,17,17,
17,17,17,17,17,17,17,17,17,17,17,17,17,17,17,17
</chunk>
   <chunk x="-144" y="-32" width="16" height="16">
0,0,0,0,0,0,0,0,0,0,0,0,0,0,0,0,
0,0,0,0,0,0,0,0,0,0,0,0,0,0,0,0,
0,0,0,0,0,0,0,0,0,0,0,0,0,0,0,0,
0,0,0,0,0,0,0,0,0,0,0,0,0,0,0,0,
0,0,0,0,0,0,0,0,0,0,0,0,0,0,0,0,
0,0,0,0,0,0,0,0,0,0,0,0,0,0,0,0,
0,0,0,0,0,0,0,0,0,0,0,0,0,0,0,0,
0,0,0,0,0,0,0,0,0,0,0,0,0,0,0,0,
0,0,0,0,0,0,0,0,0,0,0,0,0,0,0,0,
0,0,0,0,0,0,0,0,0,0,0,0,0,0,0,0,
0,0,0,0,0,0,0,0,0,0,0,0,0,0,0,0,
0,0,0,0,0,0,0,0,0,0,0,0,0,0,0,0,
17,17,17,17,17,17,17,17,17,17,17,17,17,17,17,17,
17,17,17,17,17,17,17,17,17,17,17,17,17,17,17,17,
17,17,17,17,17,17,17,17,17,17,17,17,17,17,17,17,
17,17,17,17,17,17,17,17,17,17,17,17,17,17,17,17
</chunk>
   <chunk x="-128" y="-32" width="16" height="16">
0,0,0,0,0,0,0,0,0,0,0,0,0,0,0,0,
0,0,0,0,0,0,0,0,0,0,0,0,0,0,0,0,
0,0,0,0,0,0,0,0,0,0,0,0,0,0,0,0,
0,0,0,0,0,0,0,0,0,0,0,0,0,0,0,0,
0,0,0,0,0,0,0,0,0,0,0,0,0,0,0,0,
0,0,0,0,0,0,0,0,0,0,0,0,0,0,0,0,
0,0,0,0,0,0,0,0,0,0,0,0,0,0,0,0,
0,0,0,0,0,0,0,0,0,0,0,0,0,0,0,0,
0,0,0,0,0,0,0,0,0,0,0,0,0,0,0,0,
0,0,0,0,0,0,0,0,0,0,0,0,0,0,0,0,
0,0,0,0,0,0,0,0,0,0,0,0,0,0,0,0,
0,0,0,0,0,0,0,0,0,0,0,0,0,0,0,0,
17,17,17,17,17,17,17,17,17,0,0,0,0,0,0,0,
17,17,17,17,17,17,17,17,17,0,0,0,0,0,0,0,
17,17,17,17,17,17,17,17,17,0,0,0,0,0,0,0,
17,17,17,17,17,17,17,17,17,0,0,0,0,0,0,0
</chunk>
   <chunk x="-96" y="-32" width="16" height="16">
0,0,0,0,0,0,0,0,0,0,0,0,0,0,0,0,
0,0,0,0,0,0,0,0,0,0,0,0,0,0,0,0,
0,0,0,0,0,0,0,0,0,0,0,0,0,0,0,0,
0,0,0,0,0,0,0,0,0,0,0,0,0,0,0,0,
0,0,0,0,0,0,0,0,0,0,0,0,0,0,0,0,
0,0,0,0,0,0,0,0,0,0,0,0,0,0,0,0,
0,0,0,0,0,0,0,0,0,0,0,0,0,0,0,0,
0,0,0,0,0,0,0,0,0,17,17,17,0,0,0,0,
0,0,0,0,0,0,0,0,0,17,17,17,0,0,0,0,
0,0,0,0,0,0,0,0,0,17,17,17,17,17,17,17,
0,0,0,0,0,0,0,0,0,17,17,17,17,17,17,17,
0,0,0,0,0,0,0,0,0,0,0,0,0,0,0,0,
0,0,0,0,0,0,0,0,0,0,0,0,0,0,0,0,
0,0,0,0,0,0,0,0,0,0,0,0,0,0,0,0,
0,0,0,0,0,0,0,0,0,0,0,0,0,0,0,0,
0,0,0,0,0,0,0,0,0,0,0,0,0,0,0,0
</chunk>
   <chunk x="-80" y="-32" width="16" height="16">
0,0,0,0,0,0,0,0,0,0,0,0,0,0,0,0,
0,0,0,0,0,0,0,0,0,0,0,0,0,0,0,0,
0,0,0,0,0,0,0,0,0,0,0,0,0,0,0,0,
0,0,0,0,0,0,0,0,0,0,0,0,0,0,0,0,
0,0,0,0,0,0,0,0,0,0,0,0,0,0,0,0,
0,0,0,0,0,0,0,0,0,0,0,0,0,0,0,0,
0,0,0,0,0,0,0,0,0,0,0,0,0,0,0,0,
0,0,0,0,0,0,0,0,0,0,0,17,17,17,0,0,
0,0,0,0,0,0,0,0,0,0,0,17,17,17,0,0,
17,17,17,17,17,17,17,17,17,17,17,17,17,17,0,0,
17,17,17,17,17,17,17,17,17,17,17,17,17,17,0,0,
0,0,0,0,0,0,0,0,0,0,0,0,0,0,0,0,
0,0,0,0,0,0,0,0,0,0,0,0,0,0,0,0,
0,0,0,0,0,0,0,0,0,0,0,0,0,0,0,0,
0,0,0,0,0,0,0,0,0,0,0,0,0,0,0,0,
0,0,0,0,0,0,0,0,0,0,0,0,0,0,0,0
</chunk>
   <chunk x="-64" y="-32" width="16" height="16">
0,0,0,0,0,0,0,0,0,0,0,0,0,0,0,0,
0,0,0,0,0,0,0,0,0,0,0,0,0,0,0,0,
0,0,0,0,0,0,0,0,0,0,0,0,0,0,0,0,
0,0,0,0,0,0,0,0,0,0,0,0,0,0,0,0,
0,0,0,0,0,0,0,0,0,0,0,0,0,0,0,0,
0,0,0,0,0,0,0,0,0,0,0,0,0,0,0,0,
0,0,0,0,0,0,0,0,0,0,0,0,0,0,0,0,
0,0,0,0,0,0,0,0,0,0,0,0,0,0,0,0,
0,0,0,0,0,0,0,0,0,0,0,0,0,0,0,0,
0,0,0,0,0,0,0,0,0,0,0,0,0,0,0,0,
0,0,0,0,0,0,0,0,0,0,0,0,0,0,0,0,
0,0,0,0,0,0,0,0,0,17,17,17,17,17,17,17,
0,0,0,17,17,17,17,17,17,17,17,17,17,17,17,17,
0,0,0,17,17,17,17,17,17,17,17,17,17,17,17,17,
0,0,0,17,17,17,17,17,17,17,17,17,17,17,17,17,
0,0,0,17,17,17,17,17,17,17,17,17,17,17,17,17
</chunk>
   <chunk x="-48" y="-32" width="16" height="16">
0,0,0,0,0,0,0,0,0,0,0,0,0,0,0,0,
0,0,0,0,0,0,0,0,0,0,0,0,0,0,0,0,
0,0,0,0,0,0,0,0,0,0,0,0,0,0,0,0,
0,0,0,0,0,0,0,0,0,0,0,0,0,0,0,0,
0,0,0,0,0,0,0,0,0,0,0,0,0,0,0,0,
0,0,0,0,0,0,0,0,0,0,0,0,0,0,0,0,
0,0,0,0,0,0,0,0,0,0,0,0,0,0,0,0,
0,0,0,0,0,0,0,0,0,0,0,0,0,0,0,0,
0,0,0,0,0,0,0,0,0,0,0,0,0,0,0,0,
0,0,0,0,0,0,0,0,0,0,0,0,0,0,0,0,
0,0,0,0,0,0,0,0,0,0,0,0,0,0,0,0,
17,17,17,17,17,17,17,17,17,17,17,17,17,17,17,17,
17,17,17,17,17,17,17,17,17,17,17,17,17,17,17,17,
17,17,17,17,17,17,17,17,17,17,17,17,17,17,17,17,
17,17,17,17,17,17,17,17,17,17,17,17,17,17,17,17,
17,17,17,17,17,17,17,17,17,17,17,17,17,17,17,17
</chunk>
   <chunk x="-32" y="-32" width="16" height="16">
0,0,0,0,0,17,17,17,17,17,17,17,17,17,17,17,
0,0,0,0,0,17,17,17,17,17,17,17,17,17,17,17,
0,0,0,0,0,17,17,17,17,17,17,17,17,17,17,17,
0,0,0,0,0,17,17,17,17,17,17,17,17,17,17,17,
0,0,0,0,0,17,17,17,17,17,17,17,17,17,17,17,
0,0,0,0,0,17,17,17,17,17,17,17,17,17,17,17,
0,0,0,0,0,17,17,17,17,17,17,17,17,17,17,17,
0,0,0,0,0,17,17,17,17,17,17,17,17,17,17,17,
0,0,0,0,0,17,17,17,17,17,17,17,17,17,17,17,
0,0,0,0,0,17,17,17,17,17,17,17,17,17,17,17,
0,0,0,0,0,17,17,17,17,17,17,17,17,17,17,17,
17,17,17,17,17,17,17,17,17,17,17,17,17,17,17,17,
17,17,17,17,17,17,17,17,17,17,17,17,17,17,17,17,
17,17,17,17,17,17,17,17,17,17,17,17,17,17,17,17,
17,17,17,17,17,17,17,17,17,17,17,17,17,17,17,17,
17,17,17,17,17,17,17,17,17,17,17,17,17,17,17,17
</chunk>
   <chunk x="-16" y="-32" width="16" height="16">
17,17,17,17,17,17,17,17,17,17,17,17,17,17,17,17,
17,17,17,17,17,17,17,17,17,17,17,17,17,17,17,17,
17,17,17,17,17,17,17,17,17,17,17,17,17,17,17,17,
17,17,17,17,17,17,17,17,17,17,17,17,17,17,17,17,
17,17,17,17,17,17,17,17,17,17,17,17,17,17,17,17,
17,17,17,17,17,17,17,17,17,17,17,17,17,17,17,17,
17,17,17,17,17,17,17,17,17,17,17,17,17,17,17,17,
17,17,17,17,17,17,17,17,17,17,17,17,17,17,17,17,
17,17,17,17,17,17,17,17,17,17,17,17,17,17,17,17,
17,17,17,17,17,17,17,17,17,17,17,17,17,17,17,17,
17,17,17,17,17,17,17,17,17,17,17,17,17,17,17,17,
17,17,17,17,17,17,17,17,17,17,17,17,17,17,17,17,
17,17,17,17,17,17,17,17,17,17,17,17,17,17,17,17,
17,17,17,17,17,17,17,17,17,17,17,17,17,17,17,17,
17,17,17,17,17,17,17,17,17,17,17,17,17,17,17,17,
17,17,17,17,17,17,17,17,17,17,17,17,17,17,17,17
</chunk>
   <chunk x="0" y="-32" width="16" height="16">
17,17,17,17,17,17,17,17,17,17,17,17,17,17,17,17,
17,17,17,17,17,17,17,17,17,17,17,17,17,17,17,17,
17,17,17,17,17,17,17,17,17,17,17,17,17,17,17,17,
17,17,17,17,17,17,17,17,17,17,17,17,17,17,17,17,
17,17,17,17,17,17,17,17,17,17,17,17,17,17,17,17,
17,17,17,17,17,17,17,17,17,17,17,17,17,17,17,17,
17,17,17,17,17,17,17,17,17,17,17,17,17,17,17,17,
17,17,17,17,17,17,17,17,17,17,17,17,17,17,17,17,
17,17,17,17,17,17,17,17,17,17,17,17,17,17,17,17,
17,17,17,17,17,17,17,17,17,17,17,17,17,17,17,17,
17,17,17,17,17,17,17,17,17,17,17,17,17,17,17,17,
17,17,17,17,17,17,17,17,17,17,17,17,17,17,17,17,
17,17,17,17,17,17,17,17,17,17,17,17,17,17,17,17,
17,17,17,17,17,17,17,17,17,17,17,17,17,17,17,17,
17,17,17,17,17,17,17,17,17,17,17,17,17,17,17,17,
17,17,17,17,17,17,17,17,17,17,17,17,17,17,17,17
</chunk>
   <chunk x="16" y="-32" width="16" height="16">
17,17,17,17,17,17,17,17,17,17,17,17,17,17,17,17,
17,17,17,17,17,17,17,17,17,17,17,17,17,17,17,17,
17,17,17,17,17,17,17,17,17,17,17,17,17,17,17,17,
17,17,17,17,17,17,17,17,17,17,17,17,17,17,17,17,
17,17,17,17,17,17,17,17,17,17,17,17,17,17,17,17,
17,17,17,17,17,17,17,17,17,17,17,17,17,17,17,17,
17,17,17,17,17,17,17,17,17,17,17,17,17,17,17,17,
17,17,17,17,0,0,0,0,0,0,0,0,0,0,0,0,
17,17,17,17,0,0,0,0,0,0,0,0,0,0,0,0,
17,17,17,17,0,0,0,0,0,0,0,0,0,0,0,0,
17,17,17,17,0,0,0,0,0,0,0,0,0,0,0,0,
17,17,17,17,0,0,0,0,0,0,0,0,0,0,0,0,
17,17,17,17,0,0,0,0,0,0,0,0,0,0,0,0,
17,17,17,17,0,0,0,0,0,0,0,0,0,0,0,0,
17,17,17,17,0,0,0,0,0,0,0,0,0,0,0,0,
17,17,17,17,0,0,0,0,0,0,0,0,0,0,0,0
</chunk>
   <chunk x="32" y="-32" width="16" height="16">
17,17,17,17,17,17,17,17,17,17,17,17,17,17,17,17,
17,17,17,17,17,17,17,17,17,17,17,17,17,17,17,17,
17,17,17,17,17,17,17,17,17,17,17,17,17,17,17,17,
17,17,17,17,17,17,17,17,17,17,17,17,17,17,17,17,
17,17,17,17,17,17,17,17,17,17,17,17,17,17,17,17,
17,17,17,17,17,17,17,17,17,17,17,17,17,17,17,17,
17,17,17,17,17,17,17,17,17,17,17,17,17,17,17,17,
0,0,0,0,0,0,0,0,0,0,0,0,0,0,0,0,
0,0,0,0,0,0,0,0,0,0,0,0,0,0,0,0,
0,0,0,0,0,0,0,0,0,0,0,0,0,0,0,0,
0,0,0,0,0,0,0,0,0,0,0,0,0,0,0,0,
0,0,0,0,0,0,0,0,0,0,0,0,0,0,0,0,
0,0,0,0,0,0,0,0,0,0,0,0,0,0,0,0,
0,0,0,0,0,0,0,0,0,0,0,0,0,0,0,0,
0,0,0,0,0,0,0,0,0,0,0,0,0,0,0,0,
0,0,0,0,0,0,0,0,0,0,0,0,0,0,0,0
</chunk>
   <chunk x="48" y="-32" width="16" height="16">
17,17,17,17,17,17,17,17,17,17,17,17,17,17,17,17,
17,17,17,17,17,17,17,17,17,17,17,17,17,17,17,17,
17,17,17,17,17,17,17,17,17,17,17,17,17,17,17,17,
17,17,17,17,17,17,17,17,17,17,17,17,17,17,17,17,
17,17,17,17,17,17,17,17,17,17,17,17,17,17,17,17,
17,17,17,17,17,17,17,17,17,17,17,17,17,17,17,17,
17,17,17,17,17,17,17,17,17,17,17,17,17,17,17,17,
0,0,0,0,0,0,0,0,0,0,0,0,0,0,0,0,
0,0,0,0,0,0,0,0,0,0,0,0,0,0,0,0,
0,0,0,0,0,0,0,0,0,0,0,0,0,0,0,0,
0,0,0,0,0,0,0,0,0,0,0,0,0,0,0,0,
0,0,0,0,0,0,0,0,0,0,0,0,0,0,0,0,
0,0,0,0,0,0,0,0,0,0,0,0,0,0,0,0,
0,0,0,0,0,0,0,0,0,0,0,0,0,0,0,0,
0,0,0,0,0,0,0,0,0,0,0,0,0,0,0,0,
0,0,0,0,0,0,0,0,0,0,0,0,0,0,0,0
</chunk>
   <chunk x="64" y="-32" width="16" height="16">
17,17,17,17,17,17,17,17,0,0,0,0,0,0,0,0,
17,17,17,17,17,17,17,17,0,0,0,0,0,0,0,0,
17,17,17,17,17,17,17,17,0,0,0,0,0,0,0,0,
17,17,17,17,17,17,17,17,0,0,0,0,0,0,0,0,
17,17,17,17,17,17,17,17,0,0,0,0,0,0,0,0,
17,17,17,17,17,17,17,17,0,0,0,0,0,0,0,0,
17,17,17,17,17,17,17,17,0,0,0,0,0,0,0,0,
0,0,0,0,0,0,0,0,0,0,0,0,0,0,0,0,
0,0,0,0,0,0,0,0,0,0,0,0,0,0,0,0,
0,0,0,0,0,0,0,0,0,0,0,0,0,0,0,0,
0,0,0,0,0,0,0,0,0,0,0,0,0,0,0,0,
0,0,0,0,0,0,0,0,0,0,0,0,0,0,0,0,
0,0,0,0,0,0,0,0,0,0,0,0,0,0,0,0,
0,0,0,0,0,0,0,0,0,0,0,0,0,0,0,0,
0,0,0,0,0,0,0,0,0,0,0,0,0,0,0,0,
0,0,0,0,0,0,0,0,0,0,0,0,0,0,0,0
</chunk>
   <chunk x="-160" y="-16" width="16" height="16">
17,17,17,17,17,17,17,17,17,17,17,17,17,17,17,17,
17,17,17,17,17,17,17,17,17,17,17,17,17,17,17,17,
17,17,17,17,17,17,17,17,17,17,17,17,17,17,17,17,
17,17,17,17,17,17,17,17,17,17,17,17,17,17,17,17,
17,17,17,17,17,17,17,17,17,17,17,17,17,17,17,17,
17,17,17,17,17,17,17,17,17,17,17,17,17,17,17,17,
17,17,17,17,17,17,17,17,17,17,17,17,17,17,17,17,
17,17,17,17,17,17,17,17,17,17,17,17,17,17,17,17,
17,17,17,17,17,17,17,17,17,17,17,17,17,17,17,17,
17,17,17,17,17,17,17,17,17,17,17,17,17,17,17,17,
17,17,17,17,17,17,17,17,17,17,17,17,17,17,17,17,
17,17,17,17,17,17,17,17,17,17,17,17,17,17,17,17,
17,17,17,17,17,17,17,17,17,17,17,17,17,17,17,17,
17,17,17,17,17,17,17,17,17,17,17,17,17,17,17,17,
17,17,17,17,17,17,17,17,17,17,17,17,17,17,17,17,
17,17,17,17,17,17,17,17,17,17,17,17,17,17,17,17
</chunk>
   <chunk x="-144" y="-16" width="16" height="16">
17,17,17,17,17,17,17,17,17,17,17,17,17,17,17,17,
17,17,17,17,17,17,17,17,17,17,17,17,17,17,17,17,
17,17,17,17,17,17,17,17,17,17,17,17,17,17,17,17,
17,17,17,17,17,17,0,0,0,0,0,0,0,0,0,0,
17,17,17,17,17,0,0,0,0,0,0,0,0,0,0,0,
17,17,17,17,0,0,0,0,0,0,0,0,0,0,0,0,
17,17,17,0,0,0,0,0,0,0,0,0,0,0,0,0,
17,17,17,0,0,0,0,0,0,0,0,0,0,0,0,0,
17,17,17,0,0,0,0,0,0,0,0,0,0,0,0,0,
17,17,17,0,0,0,0,0,0,0,0,0,0,0,0,0,
17,17,17,0,0,0,0,0,0,0,0,0,0,0,0,0,
17,17,17,0,0,0,0,0,0,0,0,0,0,0,0,0,
17,17,17,0,0,0,0,0,0,0,0,0,0,0,0,0,
17,17,17,0,0,0,0,0,0,0,0,0,0,0,0,0,
17,17,17,0,0,0,0,0,0,0,0,0,0,0,0,0,
17,17,17,0,0,0,0,0,0,0,0,0,0,0,0,0
</chunk>
   <chunk x="-128" y="-16" width="16" height="16">
17,17,17,17,17,17,17,17,17,0,0,0,0,0,0,0,
17,17,17,17,17,17,17,17,17,0,0,0,0,0,0,0,
17,17,17,17,17,17,17,17,17,0,0,0,0,0,0,0,
0,0,0,0,0,0,0,0,0,0,0,0,0,0,0,0,
0,0,0,0,0,0,0,0,0,0,0,0,0,0,0,0,
0,0,0,0,0,0,0,0,0,0,0,0,0,0,0,0,
0,0,0,0,0,0,0,0,0,0,0,0,0,0,0,0,
0,0,0,0,0,0,0,0,0,0,0,0,0,0,0,0,
0,0,0,0,0,0,0,0,0,0,0,0,0,0,0,0,
0,0,0,0,0,0,0,0,0,0,0,0,0,0,0,0,
0,0,0,0,0,0,0,0,0,0,0,0,0,0,0,0,
0,0,0,0,0,0,0,0,0,0,0,0,0,0,0,0,
0,0,0,0,0,0,0,0,0,0,0,0,0,0,0,0,
0,0,0,0,0,0,0,0,0,0,0,0,0,0,0,0,
0,0,0,0,0,0,0,0,0,0,0,0,0,0,0,0,
0,0,0,0,0,0,0,0,0,0,0,0,0,0,0,0
</chunk>
   <chunk x="-80" y="-16" width="16" height="16">
0,0,0,0,0,0,0,0,0,0,0,0,0,0,0,0,
0,0,0,0,0,0,0,0,0,0,0,0,0,0,0,0,
0,0,0,0,0,0,0,0,0,0,0,0,0,0,0,0,
0,0,0,0,0,0,0,0,0,0,0,0,0,0,0,0,
0,0,0,0,0,0,0,0,0,0,0,0,0,0,0,0,
0,0,0,0,0,0,0,0,0,0,0,0,0,0,0,0,
0,0,0,0,0,0,0,0,0,0,0,0,0,0,0,0,
0,0,0,0,0,0,0,0,0,0,0,0,0,0,0,0,
0,0,0,0,0,0,0,0,0,0,0,0,0,0,0,0,
0,0,0,0,0,0,0,0,0,0,0,0,0,0,0,0,
0,0,0,0,0,0,0,0,0,0,0,0,0,0,0,0,
0,0,0,0,0,0,0,0,0,0,0,17,17,17,0,0,
0,0,0,0,0,0,0,0,0,0,0,17,17,17,0,0,
0,0,0,0,0,0,0,0,0,0,0,17,17,17,17,17,
0,0,0,0,0,0,0,0,0,0,0,17,17,17,17,17,
0,0,0,0,0,0,0,0,0,0,0,0,0,0,0,0
</chunk>
   <chunk x="-64" y="-16" width="16" height="16">
0,0,0,17,17,17,17,17,17,17,17,17,17,17,17,17,
0,0,0,0,0,0,0,0,0,0,0,0,0,0,0,0,
0,0,0,0,0,0,0,0,0,0,0,0,0,0,0,0,
0,0,0,0,0,0,0,0,0,0,0,0,0,0,0,0,
0,0,0,0,0,0,0,0,0,0,0,0,0,0,0,0,
0,0,0,0,0,0,0,0,0,0,0,0,0,0,0,0,
0,0,0,0,0,0,0,0,0,0,0,0,0,0,0,0,
0,0,0,0,0,0,0,0,0,0,0,0,0,0,0,0,
0,0,0,0,0,0,0,0,0,0,0,0,0,0,0,0,
0,0,0,0,0,0,0,0,0,0,0,0,0,0,0,0,
0,0,0,0,0,0,0,0,0,0,0,0,0,0,0,0,
0,0,0,0,0,0,0,0,0,0,0,0,17,17,17,0,
0,0,0,0,0,0,0,0,0,0,0,0,17,17,17,0,
0,0,0,0,0,0,0,0,0,0,17,17,17,17,17,0,
0,0,0,0,0,0,0,0,0,0,17,17,17,17,17,0,
0,0,0,0,0,0,0,0,0,0,0,0,0,0,0,0
</chunk>
   <chunk x="-48" y="-16" width="16" height="16">
17,17,17,17,17,17,17,17,17,17,17,17,17,17,17,17,
0,0,0,0,0,0,0,0,0,17,17,17,17,17,17,17,
0,0,0,0,0,0,0,0,0,0,17,17,17,17,17,17,
0,0,0,0,0,0,0,0,0,0,0,17,17,17,17,17,
0,0,0,0,0,0,0,0,0,0,0,17,17,17,17,17,
0,0,0,0,0,0,0,0,0,0,0,17,17,17,17,17,
0,0,0,0,0,0,0,0,0,0,0,0,0,0,0,0,
0,0,0,0,0,0,0,0,0,0,0,0,0,0,0,0,
0,0,0,0,0,0,0,0,0,0,0,0,0,0,0,0,
0,0,0,0,0,0,0,0,0,0,0,0,0,0,0,0,
0,0,0,0,0,0,0,0,0,0,0,0,0,0,0,0,
0,0,0,0,0,0,0,0,0,0,0,0,0,0,0,0,
0,0,0,0,0,0,0,0,0,0,0,0,0,0,0,0,
0,0,0,0,0,0,0,0,0,0,0,0,0,0,0,0,
0,0,0,0,0,0,0,0,0,0,0,17,17,17,17,17,
0,0,0,0,0,0,0,0,0,0,0,17,17,17,17,17
</chunk>
   <chunk x="-32" y="-16" width="16" height="16">
17,17,17,17,17,17,17,17,17,17,17,17,17,17,17,17,
17,17,17,17,17,17,17,17,17,17,17,17,17,17,17,17,
17,17,17,17,17,17,17,17,17,17,17,17,17,17,17,17,
17,17,17,17,17,17,17,17,17,17,17,17,17,17,17,17,
17,17,17,17,17,17,17,17,17,17,17,17,17,17,17,17,
17,17,17,17,17,17,17,17,17,17,17,17,17,17,17,17,
0,0,0,0,0,0,0,0,0,0,0,0,0,0,0,0,
0,0,0,0,0,0,0,0,0,0,0,0,0,0,0,0,
0,0,0,0,0,0,0,0,0,0,0,0,0,0,0,0,
0,0,0,0,0,0,0,0,0,0,0,0,0,0,0,0,
0,0,0,0,0,0,0,0,0,0,0,0,0,0,0,0,
0,0,0,0,0,0,0,0,0,0,0,0,0,0,0,0,
0,0,0,0,0,0,0,0,0,0,0,0,0,0,0,0,
0,0,0,0,0,0,0,0,0,0,0,0,0,0,0,0,
17,17,17,17,17,17,17,17,17,17,17,17,17,17,17,17,
17,17,17,17,17,17,17,17,17,17,17,17,17,17,17,17
</chunk>
   <chunk x="-16" y="-16" width="16" height="16">
17,17,17,17,17,17,17,17,17,17,17,17,17,17,17,17,
17,17,17,17,17,17,17,17,17,17,17,17,17,17,17,17,
17,17,17,17,17,17,17,17,17,17,17,17,17,17,17,17,
17,17,17,17,17,17,17,17,17,17,17,17,17,17,17,17,
17,17,17,17,17,17,17,17,17,17,17,17,17,17,17,17,
17,17,17,17,17,17,17,17,17,17,17,17,17,17,17,17,
0,17,17,17,17,17,17,17,17,17,17,17,17,17,17,17,
0,17,17,17,17,17,17,17,17,17,17,17,17,17,17,17,
0,17,17,17,17,17,17,17,17,17,17,17,17,17,17,17,
0,17,17,17,17,17,17,17,17,17,17,17,17,17,17,17,
0,17,17,17,17,17,17,17,17,17,17,17,17,17,17,17,
0,17,17,17,17,17,17,17,17,17,17,17,17,17,17,17,
0,17,17,17,17,17,17,17,17,17,17,17,17,17,17,17,
0,17,17,17,17,17,17,17,17,17,17,17,17,17,17,17,
17,17,17,17,17,17,17,17,17,17,17,17,17,17,17,17,
17,17,17,17,17,17,17,17,17,17,17,17,17,17,17,17
</chunk>
   <chunk x="0" y="-16" width="16" height="16">
17,17,17,17,17,17,17,17,17,17,17,17,17,17,17,17,
17,17,17,17,17,17,17,17,17,17,17,17,17,17,17,17,
17,17,17,17,17,17,17,17,17,17,17,17,17,17,17,17,
17,17,17,17,17,17,17,17,17,17,17,17,17,17,17,17,
17,17,17,17,17,17,17,17,17,17,17,17,17,17,17,17,
17,17,17,17,17,17,17,17,17,17,17,17,17,17,17,17,
17,17,17,17,17,17,17,17,17,17,17,17,17,17,17,17,
17,17,17,17,17,17,17,17,17,17,17,17,17,17,17,17,
17,17,17,17,17,17,17,17,17,17,17,17,17,17,17,17,
17,17,17,17,17,17,17,17,17,17,17,17,17,17,17,17,
17,17,17,17,17,17,17,17,17,17,17,17,17,17,17,17,
17,17,17,17,17,17,17,17,17,17,17,17,17,17,17,17,
17,17,17,17,17,17,17,17,17,17,17,17,17,17,17,17,
17,17,17,17,17,17,17,17,17,17,17,17,17,17,17,17,
17,17,17,17,17,17,17,17,17,17,17,17,17,17,17,17,
17,17,17,17,17,17,17,17,17,17,17,17,17,17,17,17
</chunk>
   <chunk x="16" y="-16" width="16" height="16">
17,17,17,17,0,0,0,0,0,0,0,0,0,0,0,0,
17,17,17,17,0,0,0,0,0,0,0,0,0,0,0,0,
17,17,17,17,0,0,0,0,0,0,0,0,0,0,0,0,
17,17,17,17,0,0,0,0,0,0,0,0,0,0,0,0,
17,17,17,17,0,0,0,0,0,0,0,0,0,0,0,0,
17,17,17,17,0,0,0,0,0,0,0,0,0,0,0,0,
17,17,17,17,0,0,0,0,0,0,0,0,0,0,0,0,
17,17,17,17,0,0,0,0,0,0,0,0,0,0,0,0,
17,17,17,17,0,0,0,0,0,0,0,0,0,0,0,0,
17,17,17,17,0,0,0,0,0,0,0,0,0,0,0,0,
17,17,17,17,0,0,0,0,0,0,0,0,0,0,0,0,
17,17,17,17,0,0,0,0,0,0,0,0,0,0,0,0,
17,17,17,17,0,0,0,0,0,0,0,0,0,0,0,0,
17,17,17,17,0,0,0,0,0,0,0,0,0,0,0,0,
17,17,17,17,0,0,0,0,0,0,0,0,0,0,0,0,
17,17,17,17,0,0,0,0,0,0,0,0,0,0,0,0
</chunk>
   <chunk x="-160" y="0" width="16" height="16">
17,17,17,17,17,17,17,17,17,17,17,17,17,17,17,17,
17,17,17,17,17,17,17,17,17,17,17,17,17,17,17,17,
17,17,17,17,17,17,17,17,17,17,17,17,17,17,17,17,
17,17,17,17,17,17,17,17,17,17,17,17,17,17,17,17,
17,17,17,17,17,17,17,17,17,17,17,17,17,17,17,17,
17,17,17,17,17,17,17,17,17,17,17,17,17,17,17,17,
17,17,17,17,17,17,17,17,17,17,17,17,17,17,17,17,
17,17,17,17,17,17,17,17,17,17,17,17,17,17,17,17,
17,17,17,17,17,17,17,17,17,17,17,17,17,17,17,17,
17,17,17,17,17,17,17,17,17,17,17,17,17,17,17,17,
17,17,17,17,17,0,0,0,0,0,0,0,0,0,0,0,
17,17,17,17,17,0,0,0,0,0,0,0,0,0,0,0,
17,17,17,17,17,0,0,0,0,0,0,0,0,0,0,0,
17,17,17,17,17,0,0,0,0,0,0,0,0,0,0,0,
17,17,17,17,17,0,0,0,0,0,0,0,0,0,0,0,
17,17,17,17,17,0,0,0,0,0,0,0,0,0,0,0
</chunk>
   <chunk x="-144" y="0" width="16" height="16">
17,17,17,0,0,0,0,0,0,0,0,0,0,0,0,0,
17,17,17,0,0,0,0,0,0,0,0,0,0,0,0,0,
17,17,17,0,0,0,0,0,0,0,0,0,0,0,0,0,
17,17,17,0,0,0,0,0,0,0,0,0,0,0,0,0,
17,17,17,0,0,0,0,0,0,0,0,0,0,0,0,0,
17,17,17,0,0,0,0,0,0,0,0,0,0,0,0,0,
17,17,17,0,0,0,0,0,0,0,0,0,0,0,0,0,
17,17,17,0,0,0,0,0,0,0,0,0,0,0,0,0,
17,17,17,0,0,0,0,0,0,0,0,0,0,0,0,0,
17,17,17,0,0,0,0,0,0,0,0,0,0,0,0,0,
0,0,0,0,0,0,0,0,0,0,0,0,0,0,0,0,
0,0,0,0,0,0,0,0,0,0,0,0,0,0,0,0,
0,0,0,0,0,0,0,0,0,0,0,0,0,0,0,0,
0,0,0,0,0,0,0,0,0,0,0,0,0,0,0,0,
0,0,0,0,0,0,0,0,0,0,0,0,0,0,0,0,
0,0,0,0,0,0,0,0,0,0,0,0,0,0,0,0
</chunk>
   <chunk x="-128" y="0" width="16" height="16">
0,0,0,0,0,0,0,0,0,0,0,0,0,0,0,0,
0,0,0,0,0,0,0,0,0,0,0,0,0,0,0,0,
0,0,0,0,0,0,0,0,0,0,0,0,0,0,0,0,
0,0,0,0,0,0,0,0,0,0,0,0,0,0,0,0,
0,0,0,0,0,0,0,0,0,0,0,0,0,0,0,0,
0,0,0,0,0,0,0,0,0,0,0,0,0,0,0,0,
0,0,0,0,0,0,0,0,0,0,0,0,0,0,0,0,
0,0,0,0,0,0,0,0,0,0,0,0,0,0,0,0,
0,0,0,0,0,0,0,0,0,0,0,0,0,0,0,0,
0,0,0,0,0,0,0,0,0,0,0,0,0,0,0,0,
0,0,0,0,0,0,0,0,0,0,0,0,0,17,17,17,
0,0,0,0,0,0,0,0,0,0,0,0,0,17,17,17,
0,0,0,0,0,0,0,0,0,0,0,0,0,17,17,17,
0,0,0,0,0,0,0,0,0,0,0,0,0,0,0,0,
0,0,0,0,0,0,0,0,0,0,0,0,0,0,0,0,
0,0,0,0,0,0,0,0,0,0,0,0,0,0,0,0
</chunk>
   <chunk x="-112" y="0" width="16" height="16">
0,0,0,0,0,0,0,0,0,0,0,0,0,0,0,0,
0,0,0,0,0,0,0,0,0,0,0,0,0,0,0,0,
0,0,0,0,0,0,0,0,0,0,0,0,0,0,0,0,
0,0,0,0,0,0,0,0,0,0,0,0,0,0,0,0,
0,0,0,0,0,0,0,0,0,0,0,0,0,0,0,0,
0,0,0,0,0,0,0,0,0,0,0,0,0,0,0,0,
0,0,0,0,0,0,0,0,0,0,0,0,0,0,0,0,
0,0,0,0,0,0,0,0,0,0,0,0,0,0,0,0,
0,0,0,0,0,0,0,0,0,0,0,0,0,0,0,0,
0,0,0,0,0,0,0,0,0,0,0,0,0,0,0,0,
17,17,17,17,17,17,17,17,17,17,17,17,17,0,0,0,
17,17,17,17,17,17,17,17,17,17,17,17,17,0,0,0,
17,17,17,17,17,17,17,17,17,17,17,17,17,0,0,0,
0,0,0,0,0,0,0,0,17,17,17,17,17,0,0,0,
0,0,0,0,0,0,0,0,0,17,17,17,17,0,0,0,
0,0,0,0,0,0,0,0,0,0,17,17,17,0,0,0
</chunk>
   <chunk x="-80" y="0" width="16" height="16">
0,0,0,0,0,0,0,0,0,0,0,0,0,0,0,0,
0,0,0,0,0,0,0,0,0,0,0,0,0,0,0,0,
0,0,0,0,0,0,0,0,0,0,0,0,0,0,0,0,
0,0,0,0,0,0,0,0,0,0,0,0,0,0,0,0,
0,0,0,0,0,0,0,0,0,0,0,0,0,0,0,0,
0,0,0,0,0,0,0,0,0,0,0,0,0,0,0,0,
0,0,0,0,0,0,0,0,0,0,0,0,0,0,0,0,
0,0,0,0,0,0,0,0,0,0,0,0,0,0,0,0,
0,0,0,0,0,0,0,0,0,0,0,0,0,0,0,0,
0,0,0,0,0,0,0,0,0,0,0,0,0,0,0,0,
0,0,0,0,0,0,0,0,0,0,0,0,0,0,0,0,
0,0,0,0,0,0,0,0,0,0,0,0,0,0,0,17,
0,0,0,0,0,0,0,0,0,0,0,0,0,0,0,17,
0,0,0,0,0,0,0,0,0,0,0,0,0,0,0,17,
0,0,0,0,0,0,0,0,0,0,0,0,0,0,0,0,
0,0,0,0,0,0,0,0,0,0,0,0,0,0,0,0
</chunk>
   <chunk x="-64" y="0" width="16" height="16">
0,0,0,0,0,0,0,0,0,0,0,0,0,0,0,0,
0,0,0,0,0,0,0,0,0,0,0,0,0,0,0,0,
0,0,0,0,0,0,0,0,0,0,0,0,0,0,0,0,
0,0,0,0,0,0,0,0,0,0,0,0,0,0,0,0,
0,0,0,0,0,0,0,0,0,0,0,0,0,0,0,0,
0,0,0,0,0,0,0,0,0,0,0,0,0,0,0,0,
0,0,0,0,0,0,0,0,0,0,0,0,0,0,0,0,
0,0,0,0,0,0,0,0,0,0,0,0,0,0,0,0,
0,0,0,0,0,0,0,0,0,0,0,0,0,0,0,0,
0,0,0,0,0,0,0,0,0,0,0,0,0,0,0,0,
0,0,0,0,0,0,0,0,0,0,0,0,0,0,0,0,
17,17,0,0,0,0,0,0,0,0,0,0,0,0,0,17,
17,17,17,17,17,17,17,17,17,17,17,17,17,17,17,17,
17,17,17,17,17,17,17,17,17,17,17,17,17,17,17,17,
0,0,0,0,0,0,0,0,0,0,0,0,0,0,0,0,
0,0,0,0,0,0,0,0,0,0,0,0,0,0,0,0
</chunk>
   <chunk x="-48" y="0" width="16" height="16">
0,0,0,0,0,0,0,0,0,0,0,17,17,17,17,17,
0,0,0,0,0,0,0,0,0,0,0,17,17,17,17,17,
0,0,0,0,0,0,0,0,0,0,0,17,17,17,17,17,
0,0,0,0,0,0,0,0,0,0,0,17,17,17,17,17,
0,0,0,0,0,0,0,0,0,0,0,17,17,17,17,17,
0,0,0,0,0,0,0,0,0,0,0,17,17,17,17,17,
0,0,0,0,0,0,0,0,0,0,0,17,17,17,17,17,
0,0,0,0,0,0,0,0,0,0,0,17,17,17,17,17,
0,0,0,0,0,0,0,0,0,0,0,17,17,17,17,17,
0,0,0,0,0,0,0,0,0,0,0,17,17,17,17,17,
0,0,0,0,0,0,0,0,0,0,0,17,17,17,17,17,
17,17,0,0,0,0,0,0,0,0,0,17,17,17,17,17,
17,17,0,0,0,0,0,0,0,0,0,17,17,17,17,17,
17,17,0,0,0,0,0,0,0,0,0,17,17,17,17,17,
0,0,0,0,0,0,0,0,0,0,0,17,17,17,17,17,
0,0,0,0,0,0,0,0,0,0,0,17,17,17,17,17
</chunk>
   <chunk x="-32" y="0" width="16" height="16">
17,17,17,17,17,17,17,17,17,17,17,17,17,17,17,17,
17,17,17,17,17,17,17,0,0,0,0,0,0,0,0,0,
17,17,17,17,17,17,17,0,0,0,0,0,0,0,0,0,
17,17,17,17,17,17,17,0,0,0,0,0,0,0,0,0,
17,17,17,17,17,17,17,0,0,0,0,0,0,0,0,0,
17,17,17,17,17,17,17,0,0,0,0,0,0,0,0,0,
17,17,17,17,17,17,17,0,0,0,0,0,0,0,0,0,
17,17,17,17,17,17,17,0,0,0,0,0,0,0,0,0,
17,17,17,17,17,17,17,0,0,0,0,0,0,0,0,0,
17,17,17,17,17,17,17,0,0,0,0,0,0,0,0,0,
17,17,17,17,17,17,17,0,0,0,0,0,0,0,0,0,
17,17,17,17,17,17,17,0,0,0,0,0,0,0,0,0,
17,17,17,17,17,17,17,0,0,0,0,0,0,0,0,0,
17,17,17,17,17,17,17,0,0,0,0,0,0,0,0,0,
17,17,17,17,17,17,17,0,0,0,0,0,0,0,0,0,
17,17,17,17,17,17,17,0,0,0,0,0,0,0,0,0
</chunk>
   <chunk x="-16" y="0" width="16" height="16">
17,17,17,17,17,17,17,17,17,17,17,17,17,17,17,17,
0,0,0,0,0,0,0,0,0,0,0,0,0,0,0,0,
0,0,0,0,0,0,0,0,0,0,0,0,0,0,0,0,
0,0,0,0,0,0,0,0,0,0,0,0,0,0,0,0,
0,0,0,0,0,0,0,0,0,0,0,0,0,0,0,0,
0,0,0,0,0,0,0,0,0,0,0,0,0,0,0,0,
0,0,0,0,0,0,0,0,0,0,0,0,0,0,0,0,
0,0,0,0,0,0,0,0,0,0,0,0,0,0,0,0,
0,0,0,0,0,0,0,0,0,0,0,0,0,0,0,0,
0,0,0,0,0,0,0,0,0,0,0,0,0,0,0,0,
0,0,0,0,0,0,0,0,0,0,0,0,0,0,0,0,
0,0,0,0,0,0,0,0,0,0,0,0,0,0,0,0,
0,0,0,0,0,0,0,0,0,0,0,0,0,0,0,0,
0,0,0,0,0,0,0,0,0,0,0,0,0,0,0,0,
0,0,0,0,0,0,0,0,0,0,0,0,0,0,0,0,
0,0,0,0,0,0,0,0,0,0,0,0,0,0,0,0
</chunk>
   <chunk x="0" y="0" width="16" height="16">
17,17,17,17,17,17,17,17,17,17,17,17,17,17,17,17,
0,0,0,0,0,0,0,0,0,0,0,0,0,0,0,0,
0,0,0,0,0,0,0,0,0,0,0,0,0,0,0,0,
0,0,0,0,0,0,0,0,0,0,0,0,0,0,0,0,
0,0,0,0,0,0,0,0,0,0,0,0,0,0,0,0,
0,0,0,0,0,0,0,0,0,0,0,0,0,0,0,0,
0,0,0,0,0,0,0,0,0,0,0,0,0,0,0,0,
0,0,0,0,0,0,0,0,0,0,0,0,0,0,0,0,
0,0,0,0,0,0,0,0,0,0,0,0,0,0,0,0,
0,0,0,0,0,0,0,0,0,0,0,0,0,0,0,0,
0,0,0,0,0,0,0,0,0,0,0,0,0,0,0,0,
0,0,0,0,0,0,0,0,0,0,0,0,0,0,0,0,
0,0,0,0,0,0,0,0,0,0,0,0,0,0,0,0,
0,0,0,0,0,0,0,0,0,0,0,0,0,0,0,0,
0,0,0,0,0,0,0,0,0,0,0,0,0,0,0,0,
0,0,0,0,0,0,0,0,0,0,0,0,0,0,0,0
</chunk>
   <chunk x="16" y="0" width="16" height="16">
17,17,17,17,0,0,0,0,0,0,0,0,0,0,0,0,
0,0,0,0,0,0,0,0,0,0,0,0,0,0,0,0,
0,0,0,0,0,0,0,0,0,0,0,0,0,0,0,0,
0,0,0,0,0,0,0,0,0,0,0,0,0,0,0,0,
0,0,0,0,0,0,0,0,0,0,0,0,0,0,0,0,
0,0,0,0,0,0,0,0,0,0,0,0,0,0,0,0,
0,0,0,0,0,0,0,0,0,0,0,0,0,0,0,0,
0,0,0,0,0,0,0,0,0,0,0,0,0,0,0,0,
0,0,0,0,0,0,0,0,0,0,0,0,0,0,0,0,
0,0,0,0,0,0,0,0,0,0,0,0,0,0,0,0,
0,0,0,0,0,0,0,0,0,0,0,0,0,0,0,0,
0,0,0,0,0,0,0,0,0,0,0,0,0,0,0,0,
0,0,0,0,0,0,0,0,0,0,0,0,0,0,0,0,
0,0,0,0,0,0,0,0,0,0,0,0,0,0,0,0,
0,0,0,0,0,0,0,0,0,0,0,0,0,0,0,0,
0,0,0,0,0,0,0,0,0,0,0,0,0,0,0,0
</chunk>
   <chunk x="-160" y="16" width="16" height="16">
17,17,17,17,17,0,0,0,0,0,0,0,0,0,0,0,
17,17,17,17,17,0,0,0,0,0,0,0,0,0,0,0,
17,17,17,17,17,17,17,17,17,17,17,17,17,17,17,17,
17,17,17,17,17,17,17,17,17,17,17,17,17,17,17,17,
17,17,17,17,17,17,17,17,17,17,17,17,17,17,17,17,
17,17,17,17,17,17,17,17,17,17,17,17,17,17,17,17,
17,17,17,17,17,17,17,17,17,17,17,17,17,17,17,17,
17,17,17,17,17,17,17,17,17,17,17,17,17,17,17,17,
17,17,17,17,17,17,17,17,17,17,17,17,17,17,17,17,
17,17,17,17,17,17,17,17,17,17,17,17,17,17,17,17,
17,17,17,17,17,17,17,17,17,17,17,17,17,17,17,17,
17,17,17,17,17,17,17,17,17,17,17,17,17,17,17,17,
17,17,17,17,17,17,17,17,17,17,17,17,17,17,17,17,
17,17,17,17,17,17,17,17,17,17,17,17,17,17,17,17,
17,17,17,17,17,17,17,17,17,17,17,17,17,17,17,17,
17,17,17,17,17,17,17,17,17,17,17,17,17,17,17,17
</chunk>
   <chunk x="-144" y="16" width="16" height="16">
0,0,0,0,0,0,0,0,0,0,0,0,0,0,0,0,
0,0,0,0,0,0,0,0,0,0,0,0,0,0,0,0,
17,17,17,0,0,0,0,0,0,0,0,0,0,0,0,0,
17,17,17,0,0,0,0,0,0,0,0,0,0,0,0,0,
17,17,17,0,0,0,0,0,0,0,0,0,0,0,0,0,
17,17,17,0,0,0,0,0,0,0,0,0,0,0,0,0,
17,17,17,0,0,0,0,0,0,0,0,0,0,0,0,0,
17,17,17,0,0,0,0,0,0,0,0,0,0,0,0,0,
17,17,17,0,0,0,0,0,0,0,0,0,0,0,0,0,
17,17,17,0,0,0,0,0,0,0,0,0,0,0,0,0,
17,17,17,0,0,0,0,0,0,0,0,0,0,0,0,0,
17,17,17,0,0,0,0,0,0,0,0,0,0,0,0,0,
17,17,17,0,0,0,0,0,0,0,0,0,0,0,0,0,
17,17,17,0,0,0,0,0,0,0,0,0,0,0,0,0,
17,17,17,0,0,0,0,0,0,0,0,0,0,0,0,0,
17,17,17,0,0,0,0,0,0,0,0,0,0,0,0,0
</chunk>
   <chunk x="-112" y="16" width="16" height="16">
0,0,0,0,0,0,0,0,0,0,17,17,17,0,0,0,
0,0,0,0,0,0,0,0,0,0,17,17,17,0,0,0,
0,0,0,0,0,0,0,0,0,0,17,17,17,0,0,0,
0,0,0,0,0,0,0,0,0,0,17,17,17,0,0,0,
0,0,0,0,0,0,0,0,0,0,17,17,17,17,17,17,
0,0,0,0,0,0,0,0,0,0,17,17,17,17,17,17,
0,0,0,0,0,0,0,0,0,0,17,17,17,17,17,17,
0,0,0,0,0,0,0,0,0,0,0,0,0,0,0,0,
0,0,0,0,0,0,0,0,0,0,0,0,0,0,0,0,
0,0,0,0,0,0,0,0,0,0,0,0,0,0,0,0,
0,0,0,0,0,0,0,0,0,0,0,0,0,0,0,0,
0,0,0,0,0,0,0,0,0,0,0,0,0,0,0,0,
0,0,0,0,0,0,0,0,0,0,0,0,0,0,0,0,
0,0,0,0,0,0,0,0,0,0,0,0,0,0,0,0,
0,0,0,0,0,0,0,0,0,0,0,0,0,0,0,0,
0,0,0,0,0,0,0,0,0,0,0,0,0,0,0,0
</chunk>
   <chunk x="-96" y="16" width="16" height="16">
0,0,0,0,0,0,0,0,0,0,0,0,0,0,0,0,
0,0,0,0,0,0,0,0,0,0,0,0,0,0,0,0,
0,0,0,0,0,0,0,0,0,0,0,0,0,0,0,0,
0,0,0,0,0,0,0,0,0,0,0,0,0,0,0,0,
17,17,17,17,17,17,17,17,17,0,0,0,0,0,0,0,
17,17,17,17,17,17,17,17,17,0,0,0,0,0,0,0,
17,17,17,17,17,17,17,17,17,0,0,0,0,0,0,0,
0,0,0,0,0,0,0,0,0,0,0,0,0,0,0,0,
0,0,0,0,0,0,0,0,0,0,0,0,0,0,0,0,
0,0,0,0,0,0,0,0,0,0,0,0,0,0,0,0,
0,0,0,0,0,0,0,0,0,0,0,0,0,0,0,0,
0,0,0,0,0,0,0,0,0,0,0,0,0,0,0,0,
0,0,0,0,0,0,0,0,0,0,0,0,0,0,0,0,
0,0,0,0,0,0,0,0,0,0,0,0,0,0,0,0,
0,0,0,0,0,0,0,0,0,0,0,0,0,0,0,0,
0,0,0,0,0,0,0,0,0,0,0,0,0,0,0,0
</chunk>
   <chunk x="-80" y="16" width="16" height="16">
0,0,0,0,0,0,0,0,0,0,0,0,0,0,0,0,
0,0,0,0,0,0,0,0,0,0,0,0,0,0,0,0,
0,0,0,0,0,0,0,0,0,0,0,0,0,0,0,0,
0,0,0,0,0,0,0,0,0,0,0,0,0,0,0,0,
0,0,0,0,0,0,0,0,0,0,0,0,0,0,0,0,
0,0,0,0,0,0,0,0,0,0,0,0,0,0,0,0,
0,0,0,0,0,0,0,0,0,0,0,0,0,0,0,0,
0,0,0,0,0,0,0,0,0,0,0,0,0,0,0,0,
0,0,0,0,0,0,0,0,0,0,0,0,0,0,0,0,
0,0,0,0,0,0,0,0,0,0,0,0,0,0,0,0,
0,0,0,0,0,0,0,17,17,17,0,0,0,0,0,0,
0,0,0,0,0,0,0,17,17,17,17,17,0,0,0,0,
0,0,0,0,0,0,0,17,17,17,17,17,17,17,17,17,
0,0,0,0,0,0,0,17,17,17,17,17,17,17,17,17,
0,0,0,0,0,0,0,0,0,0,0,0,0,0,0,0,
0,0,0,0,0,0,0,0,0,0,0,0,0,0,0,0
</chunk>
   <chunk x="-64" y="16" width="16" height="16">
0,0,0,0,0,0,0,0,0,0,0,0,0,0,0,0,
0,0,0,0,0,0,0,0,0,0,0,0,0,0,0,0,
0,0,0,0,0,0,0,0,0,0,0,0,0,0,0,0,
0,0,0,0,0,0,0,0,0,0,0,0,0,0,0,0,
0,0,0,0,0,0,0,0,0,0,0,0,0,0,0,0,
0,0,0,0,0,0,0,0,0,0,0,0,0,0,0,0,
0,0,0,0,0,0,0,0,0,0,0,0,0,0,0,0,
0,0,0,0,0,0,0,0,0,0,0,0,0,0,0,0,
0,0,0,0,0,0,0,0,0,0,0,0,0,0,0,0,
0,0,0,0,0,0,0,0,0,0,0,0,0,0,0,0,
0,0,0,0,0,0,0,0,0,0,0,0,17,17,17,0,
0,0,0,0,0,0,0,0,0,0,0,0,17,17,17,0,
17,17,17,17,17,17,17,17,17,17,17,17,17,17,17,0,
17,17,17,17,17,17,17,17,17,17,17,17,17,17,17,0,
0,0,0,0,0,0,0,0,0,0,17,17,17,17,17,0,
0,0,0,0,0,0,0,0,0,0,0,17,17,17,17,0
</chunk>
   <chunk x="-48" y="16" width="16" height="16">
0,0,0,0,0,0,0,0,0,0,0,17,17,17,17,17,
0,0,0,0,0,0,0,0,0,0,0,17,17,17,17,17,
0,0,0,0,0,0,0,0,0,0,0,17,17,17,17,17,
0,0,0,0,0,0,0,0,0,0,0,17,17,17,17,17,
0,0,0,0,0,0,0,0,0,0,0,17,17,17,17,17,
0,0,0,0,0,0,0,0,0,0,0,17,17,17,17,17,
0,0,0,0,0,0,0,0,0,0,0,17,17,17,17,17,
0,0,0,0,0,0,0,0,0,0,0,17,17,17,17,17,
0,0,0,0,0,0,0,0,0,0,0,17,17,17,17,17,
0,0,0,0,0,0,0,0,0,0,0,17,17,17,17,17,
0,0,0,0,0,0,0,0,0,0,0,17,17,17,17,17,
0,0,0,0,0,0,0,0,0,0,0,17,17,17,17,17,
0,0,0,0,0,0,0,0,0,0,0,17,17,17,17,17,
0,0,0,0,0,0,0,0,0,0,0,17,17,17,17,17,
0,0,0,0,0,0,0,0,0,0,0,17,17,17,17,17,
0,0,0,0,0,0,0,0,0,0,0,0,0,0,0,0
</chunk>
   <chunk x="-32" y="16" width="16" height="16">
17,17,17,17,17,17,17,0,0,0,0,0,0,0,0,0,
17,17,17,17,17,17,17,0,0,0,0,0,0,0,0,0,
17,17,17,17,17,17,17,0,0,0,0,0,0,0,0,0,
17,17,17,17,17,17,17,0,0,0,0,0,0,0,0,0,
17,17,17,17,17,17,17,0,0,0,0,0,0,0,0,0,
17,17,17,17,17,17,17,0,0,0,0,0,0,0,0,0,
17,17,17,17,17,17,17,0,0,0,0,0,0,0,0,0,
17,17,17,17,17,17,17,0,0,0,0,0,0,0,0,0,
17,17,17,17,17,17,17,0,0,0,0,0,0,0,0,0,
17,17,17,17,17,17,17,0,0,0,0,0,0,0,0,0,
17,17,17,17,17,17,17,0,0,0,0,0,0,0,0,0,
17,17,17,17,17,17,17,0,0,0,0,0,0,0,0,0,
17,17,17,17,17,17,17,0,0,0,0,0,0,0,0,0,
17,17,17,17,17,17,17,0,0,0,0,0,0,0,0,0,
17,17,17,17,17,17,17,0,0,0,0,0,0,0,0,0,
0,0,0,0,0,0,0,0,0,0,0,0,0,0,0,0
</chunk>
   <chunk x="-160" y="32" width="16" height="16">
17,17,17,17,17,17,17,17,17,17,17,17,17,17,17,17,
17,17,17,17,17,17,17,17,17,17,17,17,17,17,17,17,
17,17,17,17,17,17,17,17,17,17,17,17,17,17,17,17,
17,17,17,17,17,17,17,17,17,17,17,17,17,17,17,17,
17,17,17,17,17,17,17,17,17,17,17,17,17,17,17,17,
17,17,17,17,17,17,17,17,17,17,17,17,17,17,17,17,
17,17,17,17,17,17,17,17,17,17,17,17,17,17,17,17,
17,17,17,17,17,17,17,17,17,17,17,17,17,17,17,17,
17,17,17,17,17,17,17,17,17,17,17,17,17,17,17,17,
17,17,17,17,17,17,17,17,17,17,17,17,17,17,17,17,
17,17,17,17,17,17,17,17,17,17,17,17,17,17,17,17,
17,17,17,17,17,17,17,17,17,17,17,17,17,17,17,17,
17,17,17,17,17,17,17,17,17,17,17,17,17,17,17,17,
17,17,17,17,17,17,17,17,17,17,17,17,17,17,17,17,
17,17,17,17,17,17,17,17,17,17,17,17,17,17,17,17,
17,17,17,17,17,17,17,17,17,17,17,17,17,17,17,17
</chunk>
   <chunk x="-144" y="32" width="16" height="16">
17,17,17,0,0,0,0,0,0,0,0,0,0,0,0,0,
17,17,17,0,0,0,0,0,0,0,0,0,0,0,0,0,
17,17,17,0,0,0,0,0,0,0,0,0,0,0,0,0,
17,17,17,0,0,0,0,0,0,0,0,0,0,0,0,0,
17,17,17,0,0,0,0,0,0,0,0,0,0,0,0,0,
17,17,17,0,0,0,0,0,0,0,0,0,0,0,0,0,
17,17,17,0,0,0,0,0,0,0,0,0,0,0,0,0,
17,17,17,0,0,0,0,0,0,0,0,0,0,0,0,0,
17,17,17,0,0,0,0,0,0,0,0,0,0,0,0,0,
17,17,17,0,0,0,0,0,0,0,0,0,0,0,0,0,
17,17,17,0,0,0,0,0,0,0,0,0,0,0,0,0,
17,17,17,0,0,0,0,0,0,0,0,0,0,0,0,0,
17,17,17,0,0,0,0,0,0,0,0,0,0,0,0,0,
17,17,17,0,0,0,0,0,0,0,0,0,0,0,0,0,
17,17,17,0,0,0,0,0,0,0,0,0,0,0,0,0,
17,17,17,0,0,0,0,0,0,0,0,0,0,0,0,0
</chunk>
   <chunk x="-80" y="32" width="16" height="16">
0,0,0,0,0,0,0,0,0,0,0,0,0,0,0,0,
0,0,0,0,0,0,0,0,0,0,0,0,0,0,0,0,
0,0,0,0,0,0,0,0,0,0,0,0,0,0,0,0,
0,0,0,0,0,0,0,0,0,0,0,0,0,0,0,0,
0,0,0,0,0,0,0,0,0,0,0,0,0,0,0,0,
0,0,0,0,0,0,0,0,0,0,0,0,0,0,0,0,
0,0,0,0,0,0,0,0,0,0,0,0,0,0,0,0,
0,0,0,0,0,0,0,0,0,0,0,0,0,0,0,0,
0,0,0,0,0,0,0,0,0,0,0,0,0,0,0,0,
0,0,0,0,0,0,0,0,17,17,17,17,17,0,0,0,
0,0,0,0,0,0,0,0,17,17,17,17,17,0,0,0,
0,0,0,0,0,0,0,0,17,17,17,17,17,0,0,0,
0,0,0,0,0,0,0,0,17,17,17,17,17,17,17,17,
0,0,0,0,0,0,0,0,17,17,17,17,17,17,17,17,
0,0,0,0,0,0,0,0,17,17,17,17,17,17,17,17,
0,0,0,0,0,0,0,0,17,17,17,17,17,17,17,17
</chunk>
   <chunk x="-64" y="32" width="16" height="16">
0,0,0,0,0,0,0,0,0,0,0,17,17,17,17,0,
0,0,0,0,0,0,0,0,0,0,0,17,17,17,17,0,
0,0,0,0,0,0,0,0,0,0,0,17,17,17,17,0,
0,0,0,0,0,0,0,0,0,0,0,17,17,17,17,0,
0,0,0,0,0,0,0,0,0,0,0,17,17,17,17,0,
0,0,0,0,0,0,0,0,0,0,0,17,17,17,17,0,
0,0,0,0,0,0,0,0,0,0,0,17,17,17,17,0,
0,0,0,0,0,0,0,0,0,0,0,17,17,17,17,0,
0,0,0,0,0,0,0,0,0,0,0,17,17,17,17,0,
0,0,0,0,0,17,17,17,17,17,17,17,17,17,17,0,
0,0,0,0,0,17,17,17,17,17,17,17,17,17,17,0,
0,0,0,0,0,17,17,17,17,17,17,17,17,17,17,0,
17,17,17,17,17,17,17,17,17,17,17,17,17,17,17,0,
17,17,17,17,17,17,17,17,17,17,17,17,17,17,17,0,
17,17,17,17,17,17,17,17,17,17,17,17,17,17,17,17,
17,17,17,17,17,17,17,17,17,17,17,17,17,17,17,17
</chunk>
   <chunk x="-48" y="32" width="16" height="16">
0,0,0,0,0,0,0,0,0,0,0,0,0,0,0,0,
0,0,0,0,0,0,0,0,0,0,0,0,0,0,0,0,
0,0,0,0,0,0,0,0,0,0,0,0,0,0,0,0,
0,0,0,0,0,0,0,0,0,0,0,0,0,0,0,0,
0,0,0,0,0,0,0,0,0,0,0,0,0,0,0,0,
0,0,0,0,0,0,0,0,0,0,0,0,0,0,0,0,
0,0,0,0,0,0,0,0,0,0,0,17,17,17,17,17,
0,0,0,0,0,0,0,0,0,0,0,17,17,17,17,17,
0,0,0,0,0,0,0,0,0,0,0,17,17,17,17,17,
0,0,0,0,0,0,0,0,0,0,0,17,17,17,17,17,
0,0,0,0,0,0,0,0,0,0,0,17,17,17,17,17,
0,0,0,0,0,0,0,0,0,0,0,17,17,17,17,17,
0,0,0,0,0,0,0,0,0,0,0,17,17,17,17,17,
0,0,0,0,0,0,0,0,0,0,0,17,17,17,17,17,
17,17,17,17,17,17,17,17,17,17,17,17,17,17,17,17,
17,17,17,17,17,17,17,17,17,17,17,17,17,17,17,17
</chunk>
   <chunk x="-32" y="32" width="16" height="16">
0,0,0,0,0,0,0,0,0,0,0,0,0,0,0,0,
0,0,0,0,0,0,0,0,0,0,0,0,0,0,0,0,
0,0,0,0,0,0,0,0,0,0,0,0,0,0,0,0,
0,0,0,0,0,0,0,0,0,0,0,0,0,0,0,0,
0,0,0,0,0,0,0,0,0,0,0,0,0,0,0,0,
0,0,0,0,0,0,0,0,0,0,0,0,0,0,0,0,
17,17,17,17,17,17,17,0,0,0,0,0,0,0,0,0,
17,17,17,17,17,17,17,0,0,0,0,0,0,0,0,0,
17,17,17,17,17,17,17,0,0,0,0,0,0,0,0,0,
17,17,17,17,17,17,17,0,0,0,0,0,0,0,0,0,
17,17,17,17,17,17,17,0,0,0,0,0,0,0,0,0,
17,17,17,17,17,17,17,0,0,0,0,0,0,0,0,0,
17,17,17,17,17,17,17,0,0,0,0,0,0,0,0,0,
17,17,17,17,17,17,17,0,0,0,0,0,0,0,0,0,
17,17,17,17,17,17,17,0,0,0,0,0,0,0,0,0,
17,17,17,17,17,17,17,0,0,0,0,0,0,0,0,0
</chunk>
   <chunk x="-192" y="48" width="16" height="16">
0,0,0,0,0,0,0,0,0,0,17,17,17,17,17,17,
0,0,0,0,0,0,0,0,0,0,17,17,17,17,17,17,
0,0,0,0,0,0,0,0,0,0,17,17,17,17,17,17,
0,0,0,0,0,0,0,0,0,0,17,17,17,17,17,17,
0,0,0,0,0,0,0,0,0,0,17,17,17,17,17,17,
0,0,0,0,0,0,0,0,0,0,17,17,17,17,17,17,
0,0,0,0,0,0,0,0,0,0,17,17,17,17,17,17,
0,0,0,0,0,0,0,0,0,0,17,17,17,17,17,17,
0,0,0,0,0,0,0,0,0,0,17,17,17,17,17,17,
0,0,0,0,0,0,0,0,0,0,17,17,17,17,17,17,
0,0,0,0,0,0,0,0,0,0,17,17,17,17,17,17,
0,0,0,0,0,0,0,0,0,0,17,17,17,17,17,17,
0,0,0,0,0,0,0,0,0,0,17,17,17,17,17,17,
0,0,0,0,0,0,0,0,0,0,17,17,17,17,17,17,
0,0,0,0,0,0,0,0,0,0,17,17,17,17,17,17,
0,0,0,0,0,0,0,0,0,0,17,17,17,17,17,17
</chunk>
   <chunk x="-176" y="48" width="16" height="16">
17,17,17,17,17,17,17,17,17,17,17,17,17,17,17,17,
17,17,17,17,17,17,17,17,17,17,17,17,17,17,17,17,
17,17,17,17,17,17,17,17,17,17,17,17,17,17,17,17,
17,17,17,17,17,17,17,17,17,17,17,17,17,17,17,17,
17,17,17,17,17,17,17,17,17,17,17,17,17,17,17,17,
17,17,17,17,17,17,17,17,17,17,17,17,17,17,17,17,
17,17,17,17,17,17,17,17,17,17,17,17,17,17,17,17,
17,17,17,17,17,17,17,17,17,17,17,17,17,17,17,17,
17,17,17,17,17,17,17,17,17,17,17,17,17,17,17,17,
17,17,17,17,17,17,17,17,17,17,17,17,17,17,17,17,
17,17,17,17,17,17,17,17,17,17,17,17,17,17,17,17,
17,17,17,17,17,17,17,17,17,17,17,17,17,17,17,17,
17,17,17,17,17,17,17,17,17,17,17,17,17,17,17,17,
17,17,17,17,17,17,17,17,17,17,17,17,17,17,17,17,
17,17,17,17,17,17,17,17,17,17,17,17,17,17,17,17,
17,17,17,17,17,17,17,17,17,17,17,17,17,17,17,17
</chunk>
   <chunk x="-160" y="48" width="16" height="16">
17,17,17,17,17,17,17,17,17,17,17,17,17,17,17,17,
17,17,17,17,17,17,17,17,17,17,17,17,17,17,17,17,
17,17,17,17,17,17,17,17,17,17,17,17,17,17,17,17,
17,17,17,17,17,17,17,17,17,17,17,17,17,17,17,17,
17,17,17,17,17,17,17,17,17,17,17,17,17,17,17,17,
17,17,17,17,17,17,17,17,17,17,17,17,17,17,17,17,
17,17,17,17,17,17,17,17,17,17,17,17,17,17,17,17,
17,17,17,17,17,17,17,17,17,17,17,17,17,17,17,17,
17,17,17,17,17,17,17,17,17,17,17,17,17,17,17,17,
17,17,17,17,17,17,17,17,17,17,17,17,17,17,17,17,
17,17,17,17,17,17,17,17,17,17,17,17,17,17,17,17,
17,17,17,17,17,17,17,17,17,17,17,17,17,17,17,17,
17,17,17,17,17,17,17,17,17,17,17,17,17,17,17,17,
17,17,17,17,17,17,17,17,17,17,17,17,17,17,17,17,
17,17,17,17,17,17,17,17,17,17,17,17,17,17,17,17,
17,17,17,17,17,17,17,17,17,17,17,17,17,17,17,17
</chunk>
   <chunk x="-144" y="48" width="16" height="16">
17,17,17,17,0,0,0,0,0,0,0,0,0,0,0,0,
17,17,17,17,0,0,0,0,0,0,0,0,0,0,0,0,
17,17,17,17,17,0,0,0,0,0,0,0,0,0,0,0,
17,17,17,17,17,17,0,0,0,0,0,0,0,0,0,0,
17,17,17,17,17,17,17,0,0,0,0,0,0,0,0,0,
17,17,17,17,17,17,17,17,0,0,0,0,0,0,0,0,
17,17,17,17,17,17,17,17,17,0,0,0,0,0,0,0,
17,17,17,17,17,17,17,17,17,0,0,0,0,0,0,0,
17,17,17,17,17,17,17,17,17,0,0,0,0,0,0,0,
17,17,17,17,17,17,17,17,17,0,0,0,0,0,0,0,
17,17,17,17,17,17,17,17,17,0,0,0,0,0,0,0,
17,17,17,17,17,17,17,17,17,0,0,0,0,0,0,0,
17,17,17,17,17,17,17,17,17,0,0,0,0,0,0,0,
17,17,17,17,17,17,17,17,17,17,17,0,0,0,0,0,
17,17,17,17,17,17,17,17,17,17,17,0,0,0,0,0,
17,17,17,17,17,17,17,17,17,17,0,0,0,0,0,0
</chunk>
   <chunk x="-112" y="48" width="16" height="16">
0,0,0,0,0,0,0,0,17,17,17,17,17,17,17,17,
0,0,0,0,0,0,0,0,17,17,17,17,17,17,17,17,
0,0,0,0,0,0,0,0,17,17,17,17,17,17,17,17,
0,0,0,0,0,0,0,0,17,17,17,17,17,17,17,17,
0,0,0,0,0,0,0,0,17,17,17,17,17,17,17,17,
0,0,0,0,0,0,0,0,17,17,17,17,17,17,17,17,
0,0,0,0,0,0,0,0,0,17,17,17,17,17,17,17,
0,0,0,0,0,0,0,0,0,17,17,17,17,17,17,17,
0,0,0,0,0,0,0,0,0,17,17,17,17,17,17,17,
0,0,0,0,0,0,0,0,0,17,17,17,17,17,17,17,
0,0,0,0,0,0,0,0,0,17,17,17,17,17,17,17,
0,0,0,0,0,0,0,0,0,0,0,0,0,0,17,17,
0,0,0,0,0,0,0,0,0,0,0,0,0,0,0,17,
0,0,0,0,0,0,0,0,0,0,0,0,0,0,0,0,
0,0,0,0,0,0,0,0,0,0,0,0,0,0,0,0,
0,0,0,0,0,0,0,0,0,0,0,0,0,0,0,0
</chunk>
   <chunk x="-96" y="48" width="16" height="16">
17,17,17,17,17,17,17,17,17,17,17,17,17,17,17,17,
17,17,17,17,17,17,17,17,17,17,17,17,17,17,17,17,
17,17,17,17,17,17,17,17,17,17,17,17,17,17,17,17,
17,17,17,17,17,17,17,17,17,17,17,17,17,17,17,17,
17,17,17,17,17,17,17,17,17,17,17,17,17,17,17,17,
17,17,17,17,17,17,17,17,17,17,17,17,17,17,17,17,
17,17,17,17,17,17,17,17,17,17,17,17,17,17,17,17,
17,17,17,17,17,17,17,17,17,17,17,17,17,17,17,17,
17,17,17,17,17,17,17,17,17,17,17,17,17,17,17,17,
17,17,17,17,17,17,17,17,17,17,17,17,17,17,17,17,
17,17,17,17,17,17,17,17,17,17,17,17,17,17,17,17,
17,17,17,17,17,17,17,17,17,17,17,17,17,17,17,17,
17,17,17,17,17,17,17,17,17,17,17,17,17,17,17,17,
17,17,17,17,17,17,17,17,17,17,17,17,17,17,17,17,
17,17,17,17,17,17,17,17,17,17,17,17,17,17,17,17,
17,17,17,17,17,17,17,17,17,17,17,17,17,17,17,17
</chunk>
   <chunk x="-80" y="48" width="16" height="16">
17,17,17,17,17,17,17,17,17,17,17,17,17,17,17,17,
17,17,17,17,17,17,17,17,17,17,17,17,17,17,17,17,
17,17,17,17,17,17,17,17,17,17,17,17,17,17,17,17,
17,17,17,17,17,17,17,17,17,17,17,17,17,17,17,17,
17,17,17,17,17,17,17,17,17,17,17,17,17,17,17,17,
17,17,17,17,17,17,17,17,17,17,17,17,17,17,17,17,
17,17,17,17,17,17,17,17,17,17,17,17,17,17,17,17,
17,17,17,17,17,17,17,17,17,17,17,17,17,17,17,17,
17,17,17,17,17,17,17,17,17,17,17,17,17,17,17,17,
17,17,17,17,17,17,17,17,17,17,17,17,17,17,17,17,
17,17,17,17,17,17,17,17,17,17,17,17,17,17,17,17,
17,17,17,17,17,17,17,17,17,17,17,17,17,17,17,17,
17,17,17,17,17,17,17,17,17,17,17,17,17,17,17,17,
17,17,17,17,17,17,17,17,17,17,17,17,17,17,17,17,
17,17,17,17,17,17,17,17,17,17,17,17,17,17,17,17,
17,17,17,17,17,17,17,17,17,17,17,17,17,17,17,17
</chunk>
   <chunk x="-64" y="48" width="16" height="16">
17,17,17,17,17,17,17,17,17,17,17,17,17,17,17,17,
17,17,17,17,17,17,17,17,17,17,17,17,17,17,17,17,
17,17,17,17,17,17,17,17,17,17,17,17,17,17,17,17,
17,17,17,17,17,17,17,17,17,17,17,17,17,17,17,17,
17,17,17,17,17,17,17,17,17,17,17,17,17,17,17,17,
17,17,17,17,17,17,17,17,17,17,17,17,17,17,17,17,
17,17,17,17,17,17,17,17,17,17,17,17,17,17,17,17,
17,17,17,17,17,17,17,17,17,17,17,17,17,17,17,17,
17,17,17,17,17,17,17,17,17,17,17,17,17,17,17,17,
17,17,17,17,17,17,17,17,17,17,17,17,17,17,17,17,
17,17,17,17,17,17,17,17,17,17,17,17,17,17,17,17,
17,17,17,17,17,17,17,17,17,17,17,17,17,17,17,17,
17,17,17,17,17,17,17,17,17,17,17,17,17,17,17,17,
17,17,17,17,17,17,17,17,17,17,17,17,17,17,17,17,
17,17,17,17,17,17,17,17,17,17,17,17,17,17,17,17,
17,17,17,17,17,17,17,17,17,17,17,17,17,17,17,17
</chunk>
   <chunk x="-48" y="48" width="16" height="16">
17,17,17,17,17,17,17,17,17,17,17,17,17,17,17,17,
17,17,17,17,17,17,17,17,17,17,17,17,17,17,17,17,
17,17,17,17,17,17,17,17,17,17,17,17,17,17,17,17,
17,17,17,17,17,17,17,17,17,17,17,17,17,17,17,17,
17,17,17,17,17,17,17,17,17,17,17,17,17,17,17,17,
17,17,17,17,17,17,17,17,17,17,17,17,17,17,17,17,
17,17,17,17,17,17,17,17,17,17,17,17,17,17,17,17,
17,17,17,17,17,17,17,17,17,17,17,17,17,17,17,17,
17,17,17,17,17,17,17,17,17,17,17,17,17,17,17,17,
17,17,17,17,17,17,17,17,17,17,17,17,17,17,17,17,
17,17,17,17,17,17,17,17,17,17,17,17,17,17,17,17,
17,17,17,17,17,17,17,17,17,17,17,17,17,17,17,17,
17,17,17,17,17,17,17,17,17,17,17,17,17,17,17,17,
17,17,17,17,17,17,17,17,17,17,17,17,17,17,17,17,
17,17,17,17,17,17,17,17,17,17,17,17,17,17,17,17,
17,17,17,17,17,17,17,17,17,17,17,17,17,17,17,17
</chunk>
   <chunk x="-32" y="48" width="16" height="16">
17,17,17,17,17,17,17,17,17,17,17,17,17,17,17,17,
17,17,17,17,17,17,17,17,17,17,17,17,17,17,17,17,
17,17,17,17,17,17,17,17,17,17,17,17,17,17,17,17,
17,17,17,17,17,17,17,17,17,17,17,17,17,17,17,17,
17,17,17,17,17,17,17,17,17,17,17,17,17,17,17,17,
17,17,17,17,17,17,17,17,17,17,17,17,17,17,17,17,
17,17,17,17,17,17,17,17,17,17,17,17,17,17,17,17,
17,17,17,17,17,17,17,17,17,17,17,17,17,17,17,17,
17,17,17,17,17,17,17,17,17,17,17,17,17,17,17,17,
17,17,17,17,17,17,17,17,17,17,17,17,17,17,17,17,
17,17,17,17,17,17,17,17,17,17,17,17,17,17,17,17,
17,17,17,17,17,17,17,17,17,17,17,17,17,17,17,17,
17,17,17,17,17,17,17,17,17,17,17,17,17,17,17,17,
17,17,17,17,17,17,17,17,17,17,17,17,17,17,17,17,
17,17,17,17,17,17,17,17,17,17,17,17,17,17,17,17,
17,17,17,17,17,17,17,17,17,17,17,17,17,17,17,17
</chunk>
   <chunk x="-16" y="48" width="16" height="16">
17,17,17,17,17,17,17,17,17,17,17,17,17,17,17,17,
17,17,17,17,17,17,17,17,17,17,17,17,17,17,17,17,
17,17,17,17,17,17,17,17,17,17,17,17,17,17,17,17,
17,17,17,17,17,17,17,17,17,17,17,17,17,17,17,17,
17,17,17,17,17,17,17,17,17,17,17,17,17,17,17,17,
17,17,17,17,17,17,17,17,17,17,17,17,17,17,17,17,
17,17,17,17,17,17,17,17,17,17,17,17,17,17,17,17,
17,17,17,17,17,17,17,17,17,17,17,17,17,17,17,17,
17,17,17,17,17,17,17,17,17,17,17,17,17,17,17,17,
17,17,17,17,17,17,17,17,17,17,17,17,17,17,17,17,
17,17,17,17,17,17,17,17,17,17,17,17,17,17,17,17,
17,17,17,17,17,17,17,17,17,17,17,17,17,17,17,17,
17,17,17,17,17,17,17,17,17,17,17,17,17,17,17,17,
17,17,17,17,17,17,17,17,17,17,17,17,17,17,17,17,
17,17,17,17,17,17,17,17,17,17,17,17,17,17,17,17,
17,17,17,17,17,17,17,17,17,17,17,17,17,17,17,17
</chunk>
   <chunk x="0" y="48" width="16" height="16">
17,17,17,17,17,17,17,17,17,17,17,17,17,17,17,17,
17,17,17,17,17,17,17,17,17,17,17,17,17,17,17,17,
17,17,17,17,17,17,17,17,17,17,17,17,17,17,17,17,
17,17,17,17,17,17,17,17,17,17,17,17,17,17,17,17,
17,17,17,17,17,17,17,17,17,17,17,17,17,17,17,17,
17,17,17,17,17,17,17,17,17,17,17,17,17,17,17,17,
17,17,17,17,17,17,17,17,17,17,17,17,17,17,17,17,
17,17,17,17,17,17,17,17,17,17,17,17,17,17,17,17,
17,17,17,17,17,17,17,17,17,17,17,17,17,17,17,17,
17,17,17,17,17,17,17,17,17,17,17,17,17,17,17,17,
17,17,17,17,17,17,17,17,17,17,17,17,17,17,17,17,
17,17,17,17,17,17,17,17,17,17,17,17,17,17,17,17,
17,17,17,17,17,17,17,17,17,17,17,17,17,17,17,17,
17,17,17,17,17,17,17,17,17,17,17,17,17,17,17,17,
17,17,17,17,17,17,17,17,17,17,17,17,17,17,17,17,
17,17,17,17,17,17,17,17,17,17,17,17,17,17,17,17
</chunk>
   <chunk x="16" y="48" width="16" height="16">
17,17,17,17,17,17,17,17,17,17,17,17,17,17,17,17,
17,17,17,17,17,17,17,17,17,17,17,17,17,17,17,17,
17,17,17,17,17,17,17,17,17,17,17,17,17,17,17,17,
17,17,17,17,17,17,17,17,17,17,17,17,17,17,17,17,
17,17,17,17,17,17,17,17,17,17,17,17,17,17,17,17,
17,17,17,17,17,17,17,17,17,17,17,17,17,17,17,17,
17,17,17,17,17,17,17,17,17,17,17,17,17,17,17,17,
17,17,17,17,17,17,17,17,17,17,17,17,17,17,17,17,
17,17,17,17,17,17,17,17,17,17,17,17,17,17,17,17,
17,17,17,17,17,17,17,17,17,17,17,17,17,17,17,17,
17,17,17,17,17,17,17,17,17,17,17,17,17,17,17,17,
17,17,17,17,17,17,17,17,17,17,17,17,17,17,17,17,
17,17,17,17,17,17,17,17,17,17,17,17,17,17,17,17,
17,17,17,17,17,17,17,17,17,17,17,17,17,17,17,17,
17,17,17,17,17,17,17,17,17,17,17,17,17,17,17,17,
17,17,17,17,17,17,17,17,17,17,17,17,17,17,17,17
</chunk>
   <chunk x="32" y="48" width="16" height="16">
17,17,17,17,17,17,17,17,17,17,17,17,17,17,17,17,
17,17,17,17,17,17,17,17,17,17,17,17,17,17,17,17,
17,17,17,17,17,17,17,17,17,17,17,17,17,17,17,17,
17,17,17,17,17,17,17,17,17,17,17,17,17,17,17,17,
17,17,17,17,17,17,17,17,17,17,17,17,17,17,17,17,
17,17,17,17,17,17,17,17,17,17,17,17,17,17,17,17,
17,17,17,17,17,17,17,17,17,17,17,17,17,17,17,17,
17,17,17,17,17,17,17,17,17,17,17,17,17,17,17,17,
17,17,17,17,17,17,17,17,17,17,17,17,17,17,17,17,
17,17,17,17,17,17,17,17,17,17,17,17,17,17,17,17,
17,17,17,17,17,17,17,17,17,17,17,17,17,17,17,17,
17,17,17,17,17,17,17,17,17,17,17,17,17,17,17,17,
17,17,17,17,17,17,17,17,17,17,17,17,17,17,0,0,
17,17,17,17,17,17,17,17,17,17,17,17,17,17,0,0,
17,17,17,17,17,17,17,17,17,17,17,17,17,17,0,0,
17,17,17,17,17,17,17,17,17,17,17,17,17,17,0,0
</chunk>
   <chunk x="48" y="48" width="16" height="16">
17,17,17,17,17,17,17,17,17,17,0,0,0,0,0,0,
17,17,17,17,17,17,17,17,17,17,0,0,0,0,0,0,
17,17,17,17,17,17,17,17,17,17,0,0,0,0,0,0,
17,17,17,17,17,17,17,17,17,17,0,0,0,0,0,0,
17,17,17,17,17,17,17,17,17,17,0,0,0,0,0,0,
17,17,17,17,17,17,17,17,17,17,0,0,0,0,0,0,
17,17,17,17,17,17,17,17,17,17,0,0,0,0,0,0,
17,17,17,17,17,17,17,17,17,17,0,0,0,0,0,0,
17,17,17,17,17,17,17,17,17,17,0,0,0,0,0,0,
17,17,17,17,17,17,17,17,17,17,0,0,0,0,0,0,
17,17,17,17,17,17,17,17,17,17,0,0,0,0,0,0,
17,17,17,17,17,17,17,17,17,17,0,0,0,0,0,0,
0,0,0,0,0,0,0,0,0,0,0,0,0,0,0,0,
0,0,0,0,0,0,0,0,0,0,0,0,0,0,0,0,
0,0,0,0,0,0,0,0,0,0,0,0,0,0,0,0,
0,0,0,0,0,0,0,0,0,0,0,0,0,0,0,0
</chunk>
   <chunk x="-192" y="64" width="16" height="16">
0,0,0,0,0,0,0,0,0,0,17,17,17,17,17,17,
0,0,0,0,0,0,0,0,0,0,17,17,17,17,17,17,
0,0,0,0,0,0,0,0,0,0,17,17,17,17,17,17,
0,0,0,0,0,0,0,0,0,0,17,17,17,17,17,17,
0,0,0,0,0,0,0,0,0,0,17,17,17,17,17,17,
0,0,0,0,0,0,0,0,0,0,17,17,17,17,17,17,
0,0,0,0,0,0,0,0,0,0,17,17,17,17,17,17,
0,0,0,0,0,0,0,0,0,0,17,17,17,17,17,17,
0,0,0,0,0,0,0,0,0,0,17,17,17,17,17,17,
0,0,0,0,0,0,0,0,0,0,17,17,17,17,17,17,
0,0,0,0,0,0,0,0,0,0,17,17,17,17,17,17,
0,0,0,0,0,0,0,0,0,0,17,17,17,17,17,17,
0,0,0,0,0,0,0,0,0,0,17,17,17,17,17,17,
0,0,0,0,0,0,0,0,0,0,17,17,17,17,17,17,
0,0,0,0,0,0,0,0,0,0,17,17,17,17,17,17,
0,0,0,0,0,0,0,0,0,0,17,17,17,17,17,17
</chunk>
   <chunk x="-176" y="64" width="16" height="16">
17,17,17,17,17,17,17,17,17,17,17,17,17,17,17,17,
17,17,17,17,17,17,17,17,17,17,17,17,17,17,17,17,
17,17,17,17,17,17,17,17,17,17,17,17,17,17,17,17,
17,17,17,17,17,17,17,17,17,17,17,17,17,17,17,17,
17,17,17,17,17,17,17,17,17,17,17,17,17,17,17,17,
17,17,17,17,17,17,17,17,17,0,0,0,0,0,0,0,
17,17,17,17,17,17,17,17,17,0,0,0,0,0,0,0,
17,17,17,17,17,17,17,17,17,0,0,0,0,0,0,0,
17,17,17,17,17,17,17,17,17,0,0,0,0,0,0,0,
17,17,17,17,17,17,17,17,17,0,0,0,0,0,0,0,
17,17,17,17,17,17,17,17,17,0,0,0,0,0,0,0,
17,17,17,17,17,17,17,17,17,0,0,0,0,0,0,0,
17,17,17,17,17,17,17,17,17,0,0,0,0,0,0,0,
17,17,17,17,17,17,17,17,17,0,0,0,0,0,0,0,
17,17,17,17,17,17,17,17,17,0,0,0,0,0,0,0,
17,17,17,17,17,17,17,17,17,0,0,0,0,0,0,0
</chunk>
   <chunk x="-160" y="64" width="16" height="16">
17,17,17,17,17,17,17,17,17,17,17,17,17,17,17,17,
17,17,17,17,17,17,17,17,17,17,17,17,17,17,17,17,
17,17,17,17,17,17,17,17,17,17,17,17,17,17,17,17,
17,17,17,17,17,17,17,17,17,17,17,17,17,17,17,17,
17,17,17,17,17,17,17,17,17,17,17,17,17,17,17,17,
17,17,17,17,17,17,17,17,17,17,17,17,17,17,17,17,
17,17,17,17,17,17,17,17,17,17,17,17,17,17,17,17,
17,17,17,17,17,17,17,17,17,17,17,17,17,17,17,17,
17,17,17,17,17,17,17,17,17,17,17,17,17,17,17,17,
17,17,17,17,17,17,17,17,17,17,17,17,17,17,17,17,
17,17,17,17,17,17,17,17,17,17,17,17,17,17,17,17,
17,17,17,17,17,17,17,17,17,17,17,17,17,17,17,17,
17,17,17,17,17,17,17,17,17,17,17,17,17,17,17,17,
17,17,17,17,17,17,17,17,17,17,17,17,17,17,17,17,
17,17,17,17,17,17,17,17,17,17,17,17,17,17,17,17,
17,17,17,17,17,17,17,17,17,17,17,17,17,17,17,17
</chunk>
   <chunk x="-144" y="64" width="16" height="16">
17,17,17,17,17,17,17,17,17,0,0,0,0,0,0,0,
17,17,0,0,0,0,0,0,0,0,0,0,0,0,0,0,
17,17,0,0,0,0,0,0,0,0,0,0,0,0,0,0,
17,17,0,0,0,0,0,0,0,0,0,0,0,0,0,0,
17,17,0,0,0,0,0,0,0,0,0,0,0,0,0,0,
17,17,0,0,0,0,0,0,0,0,0,0,0,0,0,0,
17,17,17,17,17,17,17,17,17,17,0,0,0,0,0,0,
17,17,17,17,17,17,17,17,17,17,0,0,0,0,0,0,
17,17,17,17,17,17,17,17,17,17,0,0,0,0,0,0,
17,17,17,17,17,17,17,17,17,0,0,0,0,0,0,0,
17,17,17,17,17,17,0,0,0,0,0,0,0,0,0,0,
17,17,17,17,17,17,0,0,0,0,0,0,0,0,0,0,
17,17,17,17,17,17,0,0,0,0,0,0,0,0,0,0,
17,17,17,17,17,17,0,0,0,0,0,0,0,0,0,0,
17,17,17,17,17,0,0,0,0,0,0,0,0,0,0,0,
17,17,17,17,0,0,0,0,0,0,0,0,0,0,0,0
</chunk>
   <chunk x="-128" y="64" width="16" height="16">
0,0,0,0,0,0,0,0,0,0,0,0,0,0,0,0,
0,0,0,0,0,0,0,0,0,0,0,0,0,0,0,0,
0,0,0,0,0,0,0,0,0,0,0,0,0,0,0,0,
0,0,0,0,0,0,0,0,0,0,0,0,0,0,0,0,
0,0,0,0,0,0,0,0,0,0,0,0,0,0,0,0,
0,0,0,0,0,0,0,0,0,0,0,17,17,17,17,17,
0,0,0,0,0,0,0,0,0,0,17,17,17,17,17,17,
0,0,0,0,0,0,0,0,0,0,17,17,17,17,17,17,
0,0,0,0,0,0,0,0,0,17,17,17,17,17,17,17,
0,0,0,0,0,0,0,17,17,17,17,17,17,17,17,17,
0,0,0,0,0,17,17,17,17,17,17,17,17,17,17,17,
0,0,0,17,17,17,17,17,17,17,17,17,17,17,17,17,
17,0,17,17,17,17,17,17,17,17,17,17,17,17,17,17,
17,17,17,17,17,17,17,17,17,17,17,17,17,17,17,17,
17,17,17,17,17,17,17,17,17,17,17,17,17,17,17,17,
17,17,17,17,17,17,17,17,17,17,17,17,17,17,17,17
</chunk>
   <chunk x="-112" y="64" width="16" height="16">
0,0,0,0,0,0,0,0,0,0,0,0,0,0,0,0,
0,0,0,0,0,0,0,0,0,0,0,0,0,0,0,0,
0,0,0,0,0,0,0,0,0,0,0,0,0,0,0,0,
0,0,0,0,0,0,0,0,0,0,0,0,0,0,0,0,
0,0,0,0,0,0,0,0,0,0,0,0,0,0,0,0,
17,17,17,17,17,17,17,17,17,17,17,17,17,17,17,17,
17,17,17,17,17,17,17,17,17,17,17,17,17,17,17,17,
17,17,17,17,17,17,17,17,17,17,17,17,17,17,17,17,
17,17,17,17,17,17,17,17,17,17,17,17,17,17,17,17,
17,17,17,17,17,17,17,17,17,17,17,17,17,17,17,17,
17,17,17,17,17,17,17,17,17,17,17,17,17,17,17,17,
17,17,17,17,17,17,17,17,17,17,17,17,17,17,17,17,
17,17,17,17,17,17,17,17,17,17,17,17,17,17,17,17,
17,17,17,17,17,17,17,17,17,17,17,17,17,17,17,17,
17,17,17,17,17,17,17,17,17,17,17,17,17,17,17,17,
17,17,17,17,17,17,17,17,17,17,17,17,17,17,17,17
</chunk>
   <chunk x="-96" y="64" width="16" height="16">
17,17,17,17,17,17,17,17,17,17,17,17,17,17,17,17,
17,17,17,17,17,17,17,17,17,17,17,17,17,17,17,17,
17,17,17,17,17,17,17,17,17,17,17,17,17,17,17,17,
17,17,17,17,17,17,17,17,17,17,17,17,17,17,17,17,
17,17,17,17,17,17,17,17,17,17,17,17,17,17,17,17,
17,17,17,17,17,17,17,17,17,17,17,17,17,17,17,17,
17,17,17,17,17,17,17,17,17,17,17,17,17,17,17,17,
17,17,17,17,17,17,17,17,17,17,17,17,17,17,17,17,
17,17,17,17,17,17,17,17,17,17,17,17,17,17,17,17,
17,17,17,17,17,17,17,17,17,17,17,17,17,0,0,0,
17,17,17,17,17,17,17,17,17,17,17,17,17,0,0,0,
17,17,17,17,17,17,17,17,17,17,17,17,17,0,0,0,
17,17,17,17,17,17,17,17,17,17,17,17,17,0,0,0,
17,17,17,17,17,17,17,17,17,17,17,17,17,0,0,0,
17,17,17,17,17,17,17,17,17,17,17,17,17,0,0,0,
17,17,17,17,17,17,17,17,17,17,17,17,17,0,0,0
</chunk>
   <chunk x="-80" y="64" width="16" height="16">
17,17,17,17,17,17,17,17,17,17,17,17,17,17,17,17,
17,17,17,17,17,17,17,17,17,17,17,17,17,17,17,17,
17,17,17,17,17,17,17,17,17,17,17,17,17,17,17,17,
17,17,17,17,17,17,17,17,17,17,17,17,17,17,17,17,
17,17,17,17,17,17,17,17,17,17,17,17,17,17,17,17,
17,17,17,17,17,17,17,17,17,17,17,17,17,17,17,17,
17,17,17,17,17,17,17,17,17,17,17,17,17,17,17,17,
17,17,17,17,17,17,17,17,17,17,17,17,17,17,17,17,
17,17,17,17,17,17,17,17,17,17,17,17,17,17,17,17,
0,0,0,0,0,0,0,0,0,0,0,0,0,0,0,0,
0,0,0,0,0,0,0,0,0,0,0,0,0,0,0,0,
0,0,0,0,0,0,0,0,0,0,0,0,0,0,0,0,
0,0,0,0,0,0,0,0,0,0,0,0,0,0,0,0,
0,0,0,0,0,0,0,0,0,0,0,0,0,0,0,0,
0,0,0,0,0,0,0,0,0,0,0,0,0,0,0,0,
0,0,0,0,0,0,0,0,0,0,0,0,0,0,0,0
</chunk>
   <chunk x="-64" y="64" width="16" height="16">
17,17,17,17,17,17,17,17,17,17,17,17,17,17,17,17,
17,17,17,17,17,17,17,17,17,17,17,17,17,17,17,17,
17,17,17,17,17,17,17,17,17,17,17,17,17,17,17,17,
17,17,17,17,17,17,17,17,17,17,17,17,17,17,17,17,
17,17,17,17,17,17,17,17,17,17,17,17,17,17,17,17,
17,17,17,17,17,17,17,17,17,17,17,17,17,17,17,17,
17,17,17,17,17,17,17,17,17,17,17,17,17,17,17,17,
17,17,17,17,17,17,17,17,17,17,17,17,17,17,17,17,
17,17,17,17,17,17,17,17,17,17,17,17,17,17,17,17,
0,0,0,0,0,0,0,0,0,0,0,0,0,0,0,0,
0,0,0,0,0,0,0,0,0,0,0,0,0,0,0,0,
0,0,0,0,0,0,0,0,0,0,0,0,0,0,0,0,
0,0,0,0,0,0,0,0,0,0,0,0,0,0,0,0,
0,0,0,0,0,0,0,0,0,0,0,0,0,0,0,0,
0,0,0,0,0,0,0,0,0,0,0,0,0,0,0,0,
0,0,0,0,0,0,0,0,0,0,0,0,0,0,0,0
</chunk>
   <chunk x="-48" y="64" width="16" height="16">
17,17,17,17,17,17,17,17,17,17,17,17,17,17,17,17,
17,17,17,17,17,17,17,17,17,17,17,17,17,17,17,17,
17,17,17,17,17,17,17,17,17,17,17,17,17,17,17,17,
17,17,17,17,17,17,17,17,17,17,17,17,17,17,17,17,
17,17,17,17,17,17,17,17,17,17,17,17,17,17,17,17,
17,17,17,17,17,17,17,17,17,17,17,17,17,17,17,17,
17,17,17,17,17,17,17,17,17,17,17,17,17,17,17,17,
17,17,17,17,17,17,17,17,17,17,17,17,17,17,17,17,
17,17,17,17,17,17,17,17,17,17,17,17,17,17,17,17,
0,0,0,0,0,0,0,0,0,0,0,0,0,0,0,0,
0,0,0,0,0,0,0,0,0,0,0,0,0,0,0,0,
0,0,0,0,0,0,0,0,0,0,0,0,0,0,0,0,
0,0,0,0,0,0,0,0,0,0,0,0,0,0,0,0,
0,0,0,0,0,0,0,0,0,0,0,0,0,0,0,0,
0,0,0,0,0,0,0,0,0,0,0,0,0,0,0,0,
0,0,0,0,0,0,0,0,0,0,0,0,0,0,0,0
</chunk>
   <chunk x="-32" y="64" width="16" height="16">
17,17,17,17,17,17,17,17,17,17,17,17,17,17,17,17,
17,17,17,17,17,17,17,17,17,17,17,17,17,17,17,17,
17,17,17,17,17,17,17,17,17,17,17,17,17,17,17,17,
17,17,17,17,17,17,17,17,17,17,17,17,17,17,17,17,
17,17,17,17,17,17,17,17,17,17,17,17,17,17,17,17,
17,17,17,17,17,17,17,17,17,17,17,17,17,17,17,17,
17,17,17,17,17,17,17,17,17,17,17,17,17,17,17,17,
17,17,17,17,17,17,17,17,17,17,17,17,17,17,17,17,
17,17,17,17,17,17,17,17,17,17,17,17,17,17,17,17,
0,0,0,0,0,0,0,0,0,0,0,0,0,0,0,0,
0,0,0,0,0,0,0,0,0,0,0,0,0,0,0,0,
0,0,0,0,0,0,0,0,0,0,0,0,0,0,0,0,
0,0,0,0,0,0,0,0,0,0,0,0,0,0,0,0,
0,0,0,0,0,0,0,0,0,0,0,0,0,0,0,0,
0,0,0,0,0,0,0,0,0,0,0,0,0,0,0,0,
0,0,0,0,0,0,0,0,0,0,0,0,0,0,0,0
</chunk>
   <chunk x="-16" y="64" width="16" height="16">
17,17,17,17,17,17,17,17,17,17,17,17,17,17,17,17,
17,17,17,17,17,17,17,17,17,17,17,17,17,17,17,17,
17,17,17,17,17,17,17,17,17,17,17,17,17,17,17,17,
17,17,17,17,17,17,17,17,17,17,17,17,17,17,17,17,
17,17,17,17,17,17,17,17,17,17,17,17,17,17,17,17,
17,17,17,17,17,17,17,17,17,17,17,17,17,17,17,17,
17,17,17,17,17,17,17,17,17,17,17,17,17,17,17,17,
17,17,17,17,17,17,17,17,17,17,17,17,17,17,17,17,
17,17,17,17,17,17,17,17,17,17,17,17,17,17,17,17,
0,0,0,0,0,0,0,0,0,0,0,0,0,0,0,0,
0,0,0,0,0,0,0,0,0,0,0,0,0,0,0,0,
0,0,0,0,0,0,0,0,0,0,0,0,0,0,0,0,
0,0,0,0,0,0,0,0,0,0,0,0,0,0,0,0,
0,0,0,0,0,0,0,0,0,0,0,0,0,0,0,0,
0,0,0,0,0,0,0,0,0,0,0,0,0,0,0,0,
0,0,0,0,0,0,0,0,0,0,0,0,0,0,0,0
</chunk>
   <chunk x="0" y="64" width="16" height="16">
17,17,17,17,17,17,17,17,17,17,17,17,17,17,17,17,
17,17,17,17,17,17,17,17,17,17,17,17,17,17,17,17,
17,17,17,17,17,17,17,17,17,17,17,17,17,17,17,17,
17,17,17,17,17,17,17,17,17,17,17,17,17,17,17,17,
17,17,17,17,17,17,17,17,17,17,17,17,17,17,17,17,
17,17,17,17,17,17,17,17,17,17,17,17,17,17,17,17,
17,17,17,17,17,17,17,17,17,17,17,17,17,17,17,17,
17,17,17,17,17,17,17,17,17,17,17,17,17,17,17,17,
17,17,17,17,17,17,17,17,17,17,17,17,17,17,17,17,
0,0,0,0,0,0,0,0,0,0,0,0,0,0,0,0,
0,0,0,0,0,0,0,0,0,0,0,0,0,0,0,0,
0,0,0,0,0,0,0,0,0,0,0,0,0,0,0,0,
0,0,0,0,0,0,0,0,0,0,0,0,0,0,0,0,
0,0,0,0,0,0,0,0,0,0,0,0,0,0,0,0,
0,0,0,0,0,0,0,0,0,0,0,0,0,0,0,0,
0,0,0,0,0,0,0,0,0,0,0,0,0,0,0,0
</chunk>
   <chunk x="16" y="64" width="16" height="16">
17,17,17,17,17,17,17,17,17,17,17,17,17,17,17,17,
17,17,17,17,17,17,17,17,17,17,17,17,17,17,17,17,
17,17,17,17,17,17,17,17,17,17,17,17,17,17,17,17,
17,17,17,17,17,17,17,17,17,17,17,17,17,17,17,17,
17,17,17,17,17,17,17,17,17,17,17,17,17,17,17,17,
17,17,17,17,17,17,17,17,17,17,17,17,17,17,17,17,
17,17,17,17,17,17,17,17,17,17,17,17,17,17,17,17,
17,17,17,17,17,17,17,17,17,17,17,17,17,17,17,17,
17,17,17,17,17,17,17,17,17,17,17,17,17,17,17,17,
0,0,0,0,0,0,0,0,0,0,0,0,0,0,0,0,
0,0,0,0,0,0,0,0,0,0,0,0,0,0,0,0,
0,0,0,0,0,0,0,0,0,0,0,0,0,0,0,0,
0,0,0,0,0,0,0,0,0,0,0,0,0,0,0,0,
0,0,0,0,0,0,0,0,0,0,0,0,0,0,0,0,
0,0,0,0,0,0,0,0,0,0,0,0,0,0,0,0,
0,0,0,0,0,0,0,0,0,0,0,0,0,0,0,0
</chunk>
   <chunk x="32" y="64" width="16" height="16">
17,17,17,17,17,17,17,17,17,17,17,17,17,17,0,0,
17,17,17,17,17,17,17,17,17,17,17,17,17,17,0,0,
17,17,17,17,17,17,17,17,17,17,17,17,17,17,0,0,
17,17,17,17,17,17,17,17,17,17,17,17,17,17,0,0,
17,17,17,17,17,17,17,17,17,17,17,17,17,17,0,0,
17,17,17,17,17,17,17,17,17,17,17,17,17,17,0,0,
17,17,17,17,17,17,17,17,17,17,17,17,17,17,0,0,
17,17,17,17,17,17,17,17,17,17,17,17,17,17,0,0,
17,17,17,17,17,17,17,17,17,17,17,17,17,17,0,0,
0,0,0,17,17,17,17,17,17,17,17,17,17,17,0,0,
0,0,0,17,17,17,17,17,17,17,17,17,17,17,0,0,
0,0,0,17,17,17,17,17,17,17,17,17,17,17,0,0,
0,0,0,17,17,17,17,17,17,17,17,17,17,17,0,0,
0,0,0,17,17,17,17,17,17,17,17,17,17,17,0,0,
0,0,0,17,17,17,17,17,17,17,17,17,17,17,0,0,
0,0,0,17,17,17,17,17,17,17,17,17,17,17,0,0
</chunk>
   <chunk x="-192" y="80" width="16" height="16">
0,0,0,0,0,0,0,0,0,0,17,17,17,17,17,17,
0,0,0,0,0,0,0,0,0,0,17,17,17,17,17,17,
0,0,0,0,0,0,0,0,0,0,17,17,17,17,17,17,
0,0,0,0,0,0,0,0,0,0,17,17,17,17,17,17,
0,0,0,0,0,0,0,0,0,0,17,17,17,17,17,17,
0,0,0,0,0,0,0,0,0,0,17,17,17,17,17,17,
0,0,0,0,0,0,0,0,0,0,17,17,17,17,17,17,
0,0,0,0,0,0,0,0,0,0,17,17,17,17,17,17,
0,0,0,0,0,0,0,0,0,0,17,17,17,17,17,17,
0,0,0,0,0,0,0,0,0,0,17,17,17,17,17,17,
0,0,0,0,0,0,0,0,0,0,17,17,17,17,17,17,
0,0,0,0,0,0,0,0,0,0,17,17,17,17,17,17,
0,0,0,0,0,0,0,0,0,0,17,17,17,17,17,17,
0,0,0,0,0,0,0,0,0,0,17,17,17,17,17,17,
0,0,0,0,0,0,0,0,0,0,17,17,17,17,17,17,
0,0,0,0,0,0,0,0,0,0,17,17,17,17,17,17
</chunk>
   <chunk x="-176" y="80" width="16" height="16">
17,17,17,17,17,17,17,17,17,0,0,0,0,0,0,0,
17,17,17,17,17,17,17,17,17,0,0,0,0,0,0,0,
17,17,17,17,17,17,17,17,17,0,0,0,0,0,0,0,
17,17,17,17,17,17,17,17,17,0,0,0,0,0,0,0,
17,17,17,17,17,17,17,17,17,0,0,0,0,0,0,0,
17,17,17,17,17,17,17,17,0,0,0,0,0,0,0,0,
17,17,17,17,17,17,17,17,0,0,0,0,0,0,0,0,
17,17,17,17,17,17,17,17,17,0,0,0,0,0,0,0,
17,17,17,17,17,17,17,17,17,0,0,0,0,0,0,0,
17,17,17,17,17,17,17,17,17,0,0,0,0,0,0,0,
17,17,17,17,17,17,17,17,17,0,0,0,0,0,0,0,
17,17,17,17,17,17,17,17,17,0,0,0,0,0,0,0,
17,17,17,17,17,17,17,17,17,0,0,0,0,0,0,0,
17,17,17,17,17,17,17,17,17,0,0,0,0,0,0,0,
17,17,17,17,17,17,17,17,17,0,0,0,0,0,0,0,
17,17,17,17,17,17,17,17,17,0,0,0,0,0,0,0
</chunk>
   <chunk x="-160" y="80" width="16" height="16">
17,17,17,17,17,17,17,17,17,17,17,17,17,17,17,17,
17,17,17,17,17,17,17,17,17,17,17,17,17,17,17,17,
0,17,17,17,17,17,17,17,17,17,17,17,17,17,17,17,
0,0,0,17,17,17,17,17,17,17,17,17,17,17,17,17,
0,0,0,0,17,17,17,17,17,17,17,17,17,17,17,17,
0,0,0,0,0,0,0,0,0,0,0,0,0,0,0,0,
0,0,0,0,0,0,0,0,0,0,0,0,0,0,0,0,
0,0,0,0,0,0,0,0,0,0,0,0,0,0,0,0,
0,0,0,0,0,0,0,0,0,0,0,0,0,0,0,0,
0,0,0,0,0,0,0,0,0,0,0,0,0,0,0,0,
0,0,0,0,0,0,0,0,0,0,0,0,0,0,0,0,
0,0,0,0,0,0,0,0,0,0,0,0,0,0,0,0,
0,0,0,0,0,0,0,0,0,0,0,0,0,0,0,0,
0,0,0,0,0,0,0,0,0,0,0,0,0,0,0,0,
0,0,0,0,0,0,0,0,0,0,0,0,0,0,0,0,
0,0,0,0,0,0,0,0,0,0,0,0,0,0,0,0
</chunk>
   <chunk x="-144" y="80" width="16" height="16">
17,17,17,17,0,0,0,0,0,0,0,0,0,0,0,0,
17,17,17,0,0,0,0,0,0,0,0,0,0,0,0,0,
17,17,17,0,0,0,0,0,0,0,0,0,0,0,0,0,
17,17,0,0,0,0,0,0,0,0,0,0,0,0,0,0,
0,0,0,0,0,0,0,0,0,0,0,0,0,0,0,0,
0,0,0,0,0,0,0,0,0,0,0,0,0,0,0,0,
0,0,0,0,0,0,0,0,0,0,0,0,0,0,0,0,
0,0,0,0,0,0,0,0,0,0,0,0,0,0,0,0,
0,0,0,0,0,0,0,0,0,0,0,0,0,0,0,0,
0,0,0,0,0,0,0,0,0,0,0,0,0,0,0,0,
0,0,0,0,0,0,0,0,0,0,0,0,0,0,0,0,
0,0,0,0,0,0,0,0,0,0,0,0,0,0,0,0,
0,0,0,0,0,0,0,0,0,0,0,0,0,0,0,0,
0,0,0,0,0,0,0,0,0,0,0,0,0,0,0,0,
0,0,0,0,0,0,0,0,0,0,0,0,0,0,0,0,
0,0,0,0,0,0,0,0,0,0,0,0,17,17,17,17
</chunk>
   <chunk x="-128" y="80" width="16" height="16">
17,17,17,17,17,17,17,17,17,17,17,17,17,17,17,17,
17,17,17,17,17,17,17,17,17,17,17,17,17,17,17,17,
17,17,17,17,17,17,17,17,17,17,17,17,17,17,17,17,
17,17,17,17,17,17,17,17,17,17,17,17,17,17,17,17,
17,17,17,17,17,17,17,17,17,17,17,17,17,17,17,17,
17,17,17,17,17,17,17,17,17,17,17,17,17,17,17,17,
17,17,17,17,17,17,17,17,17,17,17,17,17,17,17,17,
17,17,17,17,17,17,17,17,17,17,17,17,17,17,17,17,
17,17,17,17,17,17,17,17,17,17,17,17,17,17,17,17,
17,17,17,17,17,17,17,17,17,17,17,17,17,17,17,17,
17,17,17,17,17,17,17,17,17,17,17,17,17,17,17,17,
17,17,17,17,17,17,17,17,17,17,17,17,17,17,17,17,
17,17,17,17,17,17,17,17,17,17,17,17,17,17,17,17,
17,17,17,17,17,17,17,17,17,17,17,17,17,17,17,17,
17,17,17,17,17,17,17,17,17,17,17,17,17,17,17,17,
17,17,17,17,17,17,17,17,17,17,17,17,17,17,17,17
</chunk>
   <chunk x="-112" y="80" width="16" height="16">
17,17,17,17,17,17,17,17,17,17,17,17,17,17,17,17,
17,17,17,17,17,17,17,17,17,17,17,17,17,17,17,17,
17,17,17,17,17,17,17,17,17,17,17,17,17,17,17,17,
17,17,17,17,17,17,17,17,17,17,17,17,17,17,17,17,
17,17,17,17,17,17,17,17,17,17,17,17,17,17,17,17,
17,17,17,17,17,17,17,17,17,17,17,17,17,17,17,17,
17,17,17,17,17,17,17,17,17,17,17,17,17,17,17,17,
17,17,17,17,17,17,17,17,17,17,17,17,17,17,17,17,
17,17,17,17,17,17,17,17,17,17,17,17,17,17,17,17,
17,17,17,17,17,17,17,17,17,17,17,17,17,17,17,17,
17,17,17,17,17,17,17,17,17,17,17,17,17,17,17,17,
17,17,17,17,17,17,17,17,17,17,17,17,17,17,17,17,
17,17,17,17,17,17,17,17,17,17,17,17,17,17,17,17,
17,17,17,17,17,17,17,17,17,17,17,17,17,17,17,17,
17,17,17,17,17,17,17,17,17,17,17,17,17,17,17,17,
17,17,17,17,17,17,17,17,17,17,17,17,17,17,17,17
</chunk>
   <chunk x="-96" y="80" width="16" height="16">
17,17,17,17,17,17,17,17,17,17,17,17,17,0,0,0,
17,17,17,17,17,17,17,17,17,17,17,17,17,0,0,0,
17,17,17,17,17,17,17,17,17,17,17,17,17,0,0,0,
17,17,17,17,17,17,17,17,17,17,17,17,17,0,0,0,
17,17,17,17,17,17,17,17,17,17,17,17,17,0,0,0,
17,17,17,17,17,17,17,17,17,17,17,17,17,0,0,0,
17,17,17,17,17,17,17,17,17,17,17,17,17,0,0,0,
17,17,17,17,17,17,17,17,17,17,17,17,17,0,0,0,
17,17,17,17,17,17,17,17,17,17,17,17,17,0,0,0,
17,17,17,17,17,17,17,17,17,17,17,17,17,0,0,0,
17,17,17,17,17,17,17,17,17,17,17,17,17,0,0,0,
17,17,17,17,17,17,17,17,17,17,17,17,17,0,0,0,
17,17,17,17,17,17,17,17,17,17,17,17,0,0,0,0,
17,0,0,0,0,0,0,0,0,0,0,0,0,0,0,0,
17,0,0,0,0,0,0,0,0,0,0,0,0,0,0,0,
17,0,0,0,0,0,0,0,0,0,0,0,0,0,0,0
</chunk>
   <chunk x="-16" y="80" width="16" height="16">
0,0,0,0,0,0,0,0,0,0,0,0,0,0,0,0,
0,0,0,0,0,0,0,0,0,0,0,0,0,0,0,0,
0,0,0,0,0,0,0,0,0,0,0,0,0,0,0,0,
0,0,0,0,0,0,0,0,0,0,0,0,0,0,0,0,
0,0,0,0,0,0,0,0,0,0,0,0,0,0,0,0,
0,0,0,0,0,0,0,0,0,0,0,0,0,0,0,0,
0,0,0,0,0,0,0,0,0,0,0,0,0,0,0,0,
0,0,0,0,0,0,0,0,0,0,0,0,0,0,0,0,
0,0,0,0,0,0,0,0,0,0,0,17,17,17,17,17,
0,0,0,0,0,0,0,0,0,0,0,17,17,17,17,17,
0,0,0,0,0,0,0,0,0,0,0,0,0,0,0,0,
0,0,0,0,0,0,0,0,0,0,0,0,0,0,0,0,
0,0,0,0,0,0,0,0,0,0,0,0,0,0,0,0,
0,0,0,0,0,0,0,0,0,0,0,0,0,0,0,0,
0,0,0,0,0,0,0,0,0,0,0,0,0,0,0,0,
0,0,0,0,0,0,0,0,0,0,0,0,0,0,0,0
</chunk>
   <chunk x="0" y="80" width="16" height="16">
0,0,0,0,0,0,0,0,0,0,0,0,0,0,0,0,
0,0,0,0,0,0,0,0,0,0,0,0,0,0,0,0,
0,0,0,0,0,0,0,0,0,0,0,0,0,0,0,0,
0,0,0,0,0,0,0,0,0,0,0,0,0,0,0,0,
0,0,0,0,0,0,0,0,0,0,0,0,0,0,0,0,
0,0,0,0,0,0,0,0,0,0,0,0,0,0,0,0,
0,0,0,0,0,0,0,0,0,0,0,0,0,0,0,0,
0,0,0,0,0,0,0,0,0,0,0,0,0,0,0,0,
17,17,17,17,17,17,17,17,17,17,17,17,17,17,17,17,
17,17,17,17,17,17,17,17,17,17,17,17,17,17,17,17,
0,0,0,0,0,0,0,0,0,0,0,0,0,0,0,0,
0,0,0,0,0,0,0,0,0,0,0,0,0,0,0,0,
0,0,0,0,0,0,0,0,0,0,0,0,0,0,0,0,
0,0,0,0,0,0,0,0,0,0,0,0,0,0,0,0,
0,0,0,0,0,0,0,0,0,0,0,0,0,0,0,0,
0,0,0,0,0,0,0,0,0,0,0,0,0,0,0,0
</chunk>
   <chunk x="16" y="80" width="16" height="16">
0,0,0,0,0,0,0,0,0,0,0,0,0,0,0,0,
0,0,0,0,0,0,0,0,0,0,0,0,0,0,0,0,
0,0,0,0,0,0,0,0,0,0,0,0,0,0,0,0,
0,0,0,0,0,0,0,0,0,0,0,0,0,0,0,0,
0,0,0,0,0,0,0,0,0,0,0,0,0,0,0,0,
0,0,0,0,0,0,0,0,0,0,0,0,0,0,0,0,
0,0,0,0,0,0,0,0,0,0,0,0,0,0,0,0,
0,0,0,0,0,0,0,0,0,0,0,0,0,0,0,0,
17,17,17,17,17,17,17,17,17,17,17,17,17,17,17,17,
17,17,17,17,17,17,17,17,17,17,17,17,17,17,17,17,
0,0,0,0,0,0,0,0,0,0,0,0,0,0,0,0,
0,0,0,0,0,0,0,0,0,0,0,0,0,0,0,0,
0,0,0,0,0,0,0,0,0,0,0,0,0,0,0,0,
0,0,0,0,0,0,0,0,0,0,0,0,0,0,0,0,
0,0,0,0,0,0,0,0,0,0,0,0,0,0,0,0,
0,0,0,0,0,0,0,0,0,0,0,0,0,0,0,0
</chunk>
   <chunk x="32" y="80" width="16" height="16">
0,0,0,17,17,17,17,17,17,17,17,17,17,17,0,0,
0,0,0,17,17,17,17,17,17,17,17,17,17,17,0,0,
0,0,0,17,17,17,17,17,17,17,17,17,17,17,17,17,
0,0,0,17,17,17,17,17,17,17,17,17,17,17,17,17,
0,0,0,17,17,17,17,17,17,17,17,17,17,17,17,17,
0,0,0,17,17,17,17,17,17,17,17,17,17,17,17,17,
0,0,0,17,17,17,17,17,17,17,17,17,17,17,17,17,
0,0,0,17,17,17,17,17,17,17,17,17,17,17,17,17,
17,17,17,17,17,17,17,17,17,17,17,17,17,17,17,17,
17,17,17,17,17,17,17,17,17,17,17,17,17,17,17,17,
0,0,0,0,0,0,0,0,0,0,0,0,0,0,0,0,
0,0,0,0,0,0,0,0,0,0,0,0,0,0,0,0,
0,0,0,0,0,0,0,0,0,0,0,0,0,0,0,0,
0,0,0,0,0,0,0,0,0,0,0,0,0,0,0,0,
0,0,0,0,0,0,0,0,0,0,0,0,0,0,0,0,
0,0,0,0,0,0,0,0,0,0,0,0,0,0,0,0
</chunk>
   <chunk x="48" y="80" width="16" height="16">
0,0,0,0,0,0,0,0,0,0,0,0,0,0,0,0,
0,0,0,0,0,0,0,0,0,0,0,0,0,0,0,0,
17,17,17,17,0,0,0,0,0,0,0,0,0,0,0,0,
17,17,17,17,0,0,0,0,0,0,0,0,0,0,0,0,
17,17,17,17,0,0,0,0,0,0,0,0,0,0,0,0,
17,17,17,17,0,0,0,0,0,0,0,0,0,0,0,0,
17,17,17,17,0,0,0,0,0,0,0,0,0,0,0,0,
17,17,17,17,0,0,0,0,0,0,0,0,0,0,0,0,
17,17,17,17,0,0,0,0,0,0,0,0,0,0,0,0,
17,17,17,17,0,0,0,0,0,0,0,0,0,0,0,0,
0,0,0,0,0,0,0,0,0,0,0,0,0,0,0,0,
0,0,0,0,0,0,0,0,0,0,0,0,0,0,0,0,
0,0,0,0,0,0,0,0,0,0,0,0,0,0,0,0,
0,0,0,0,0,0,0,0,0,0,0,0,0,0,0,0,
0,0,0,0,0,0,0,0,0,0,0,0,0,0,0,0,
0,0,0,0,0,0,0,0,0,0,0,0,0,0,0,0
</chunk>
   <chunk x="-192" y="96" width="16" height="16">
0,0,0,0,0,0,0,0,0,0,17,17,17,17,17,17,
0,0,0,0,0,0,0,0,0,0,17,17,17,17,17,17,
0,0,0,0,0,0,0,0,0,0,17,17,17,17,17,17,
0,0,0,0,0,0,0,0,0,0,17,17,17,17,17,17,
0,0,0,0,0,0,0,0,0,0,17,17,17,17,17,17,
0,0,0,0,0,0,0,0,0,0,17,17,17,17,17,17,
0,0,0,0,0,0,0,0,0,0,17,17,17,17,17,17,
0,0,0,0,0,0,0,0,0,0,17,17,17,17,17,17,
0,0,0,0,0,0,0,0,0,0,17,17,17,17,17,17,
0,0,0,0,0,0,0,0,0,0,17,17,17,17,17,17,
0,0,0,0,0,0,0,0,0,0,17,17,17,17,17,17,
0,0,0,0,0,0,0,0,0,0,17,17,17,17,17,17,
0,0,0,0,0,0,0,0,0,0,17,17,17,17,17,17,
0,0,0,0,0,0,0,0,0,0,17,17,17,17,17,17,
0,0,0,0,0,0,0,0,0,0,17,17,17,17,17,17,
0,0,0,0,0,0,0,0,0,0,17,17,17,17,17,17
</chunk>
   <chunk x="-176" y="96" width="16" height="16">
17,17,17,17,17,17,17,17,17,17,17,17,17,17,17,17,
17,17,17,17,17,17,17,17,17,17,17,17,17,17,17,17,
17,17,17,17,17,17,17,17,17,17,17,17,17,17,17,17,
17,17,17,17,17,17,17,17,17,17,17,17,17,17,17,17,
17,17,17,17,17,17,17,17,17,17,17,17,17,17,17,17,
17,17,17,17,17,17,17,17,17,17,17,17,17,17,17,17,
17,17,17,17,17,17,17,17,17,17,17,17,17,17,17,17,
17,17,17,17,17,17,17,17,17,17,17,17,17,17,17,17,
17,17,17,17,17,17,17,17,17,17,17,17,17,17,17,17,
17,17,17,17,17,17,17,17,17,17,17,17,17,17,17,17,
17,17,17,17,17,17,17,17,17,17,17,17,17,17,17,17,
17,17,17,17,17,17,17,17,17,17,17,17,17,17,17,0,
17,17,17,17,17,17,17,17,17,17,17,17,17,17,0,0,
17,17,17,17,17,17,17,17,17,17,17,17,17,0,0,0,
17,17,17,17,17,17,17,17,17,17,17,17,0,0,0,0,
17,17,17,17,17,17,17,17,17,17,17,0,0,0,0,0
</chunk>
   <chunk x="-160" y="96" width="16" height="16">
17,17,17,17,17,17,17,0,0,0,0,0,0,0,0,0,
17,17,17,17,17,17,17,0,0,0,0,0,0,0,0,0,
17,17,17,17,17,17,17,0,0,0,0,0,0,0,0,0,
17,17,17,17,17,17,17,0,0,0,0,0,0,0,0,0,
17,17,17,17,17,17,17,0,0,0,0,0,0,0,0,0,
17,17,17,17,17,17,17,0,0,0,0,0,0,0,0,0,
17,17,17,17,17,17,0,0,0,0,0,0,0,0,0,0,
17,17,17,17,17,0,0,0,0,0,0,0,0,0,0,0,
17,17,17,0,0,0,0,0,0,0,0,0,0,0,0,0,
17,17,0,0,0,0,0,0,0,0,0,0,0,0,0,0,
0,0,0,0,0,0,0,0,0,0,0,0,0,0,0,0,
0,0,0,0,0,0,0,0,0,0,0,0,0,0,0,0,
0,0,0,0,0,0,0,0,0,0,0,0,0,0,0,0,
0,0,0,0,0,0,0,0,0,0,0,0,0,0,0,0,
0,0,0,0,0,0,0,0,0,0,0,0,0,0,0,0,
0,0,0,0,0,0,0,0,0,0,0,0,0,0,0,0
</chunk>
   <chunk x="-144" y="96" width="16" height="16">
0,0,0,0,0,0,0,0,0,0,0,0,17,17,17,17,
0,0,0,0,0,0,0,0,0,0,0,0,17,17,17,17,
0,0,0,0,0,0,0,0,0,0,0,0,17,17,17,17,
0,0,0,0,0,0,0,0,0,0,0,0,0,0,0,17,
0,0,0,0,0,0,0,0,0,0,0,0,0,0,0,17,
0,0,0,0,0,0,0,0,0,0,0,0,0,0,0,17,
0,0,0,0,0,0,0,0,0,0,0,0,0,0,17,17,
0,0,0,0,0,0,0,0,0,0,0,0,0,17,17,17,
0,0,0,0,0,0,0,0,0,0,0,0,17,17,17,17,
0,0,0,0,0,0,0,0,0,0,0,17,17,17,17,17,
0,0,0,17,17,17,17,17,17,17,17,17,17,17,17,17,
0,0,17,17,17,17,17,17,17,17,17,17,17,17,17,17,
0,0,17,17,17,17,17,17,17,17,17,17,17,17,17,17,
0,0,0,0,0,0,0,0,0,17,17,17,17,17,17,17,
0,0,0,0,0,0,0,0,0,17,17,17,17,17,17,17,
0,0,0,0,0,0,0,0,0,17,17,17,17,17,17,17
</chunk>
   <chunk x="-128" y="96" width="16" height="16">
17,17,17,17,17,17,17,17,17,17,17,17,17,17,17,17,
17,17,17,17,17,17,17,17,17,17,17,17,17,17,17,17,
17,17,17,17,17,17,17,17,17,17,17,17,17,17,17,17,
17,17,17,17,17,17,17,17,17,17,17,17,17,17,17,17,
17,17,17,17,17,17,17,17,17,17,17,17,17,17,17,17,
17,17,17,17,17,17,17,17,17,17,17,17,17,17,17,17,
17,17,17,17,17,17,17,17,17,17,17,17,17,17,17,17,
17,17,17,17,17,17,17,17,17,17,17,17,17,17,17,17,
17,17,17,17,17,17,17,17,17,17,17,17,17,17,17,17,
17,17,17,17,17,17,17,17,17,17,17,17,17,17,17,17,
17,17,17,17,17,17,17,17,17,17,17,17,17,17,17,17,
17,17,17,17,17,17,17,17,17,17,17,17,17,17,17,17,
17,0,0,0,0,0,0,0,0,0,0,0,0,0,0,0,
0,0,0,0,0,0,0,0,0,0,0,0,0,0,0,0,
0,0,0,0,0,0,0,0,0,0,0,0,0,0,0,0,
0,0,0,0,0,0,0,0,0,0,0,0,0,0,0,0
</chunk>
   <chunk x="-112" y="96" width="16" height="16">
17,17,17,17,17,17,17,17,17,17,17,17,17,17,17,17,
17,17,17,17,17,17,17,17,17,17,17,17,17,17,17,17,
17,17,17,17,17,17,17,17,17,17,17,17,17,17,17,17,
17,17,17,17,17,17,17,17,17,17,17,17,17,17,17,17,
17,17,17,17,17,17,17,17,17,17,17,17,17,17,17,17,
17,17,17,17,17,17,17,17,17,17,17,17,17,17,17,17,
17,17,17,17,17,17,17,17,17,17,17,17,17,17,17,17,
17,17,17,17,17,17,17,17,17,17,17,17,17,17,17,17,
17,17,17,17,17,17,17,17,17,17,17,17,17,17,17,17,
17,17,17,17,17,17,17,17,17,17,17,17,17,17,17,17,
17,17,17,17,17,17,17,17,17,17,17,17,17,17,17,17,
17,17,17,17,17,17,17,17,17,17,17,17,17,17,17,17,
0,0,0,0,0,0,17,17,17,17,17,17,17,17,17,17,
0,0,0,0,0,0,0,0,0,0,0,0,0,0,17,17,
0,0,0,0,0,0,0,0,0,0,0,0,0,0,17,17,
0,0,0,0,0,0,0,0,0,0,0,0,0,0,17,17
</chunk>
   <chunk x="-96" y="96" width="16" height="16">
17,0,0,0,0,0,0,0,0,0,0,0,0,0,0,0,
17,0,0,0,0,0,0,0,0,0,0,0,0,0,0,0,
17,0,0,0,0,0,0,0,0,0,0,0,0,0,0,0,
17,0,0,0,0,0,0,0,0,0,0,0,0,0,0,0,
17,0,0,0,0,0,0,0,0,0,0,0,0,0,0,0,
17,0,0,0,0,0,0,0,0,0,0,0,0,0,0,0,
17,0,0,0,0,0,0,0,0,0,0,0,0,0,0,0,
17,17,17,17,17,17,17,0,0,0,0,0,0,0,0,0,
17,17,17,17,17,17,17,0,0,0,0,0,0,0,0,0,
17,17,17,17,17,17,17,17,17,17,17,0,0,0,0,0,
17,17,17,17,17,17,17,17,17,17,17,0,0,0,0,0,
17,17,17,17,17,17,17,17,17,17,17,0,0,0,0,0,
17,17,17,17,17,17,17,17,17,17,17,0,0,0,0,0,
17,17,17,17,17,17,17,17,17,17,17,0,0,0,0,0,
17,17,17,17,17,17,17,17,17,17,0,0,0,0,0,0,
17,17,17,17,17,17,17,0,0,0,0,0,0,0,0,0
</chunk>
   <chunk x="-192" y="112" width="16" height="16">
0,0,0,0,0,0,0,0,0,0,17,17,17,17,17,17,
0,0,0,0,0,0,0,0,0,0,17,17,17,17,17,17,
0,0,0,0,0,0,0,0,0,0,17,17,17,17,17,17,
0,0,0,0,0,0,0,0,0,0,17,17,17,17,17,17,
0,0,0,0,0,0,0,0,0,0,17,17,17,17,17,17,
0,0,0,0,0,0,0,0,0,0,17,17,17,17,17,17,
0,0,0,0,0,0,0,0,0,0,17,17,17,17,17,17,
0,0,0,0,0,0,0,0,0,0,17,17,17,17,17,17,
0,0,0,0,0,0,0,0,0,0,17,17,17,17,17,17,
0,0,0,0,0,0,0,0,0,0,17,17,17,17,17,17,
0,0,0,0,0,0,0,0,0,0,17,17,17,17,17,17,
0,0,0,0,0,0,0,0,0,0,17,17,17,17,17,17,
0,0,0,0,0,0,0,0,0,0,17,17,17,17,17,17,
0,0,0,0,0,0,0,0,0,0,17,17,17,17,17,17,
0,0,0,0,0,0,0,0,0,0,17,17,17,17,17,17,
0,0,0,0,0,0,0,0,0,0,17,17,17,17,17,17
</chunk>
   <chunk x="-176" y="112" width="16" height="16">
17,17,17,17,17,17,17,17,17,17,0,0,0,0,0,0,
17,17,17,17,17,17,17,17,17,17,0,0,0,0,0,0,
17,17,17,17,17,17,17,17,17,17,0,0,0,0,0,0,
17,17,17,17,17,17,17,17,17,17,0,0,0,0,0,0,
17,17,17,17,17,17,17,17,17,17,0,0,0,0,0,0,
17,17,17,17,17,17,17,17,17,17,0,0,0,0,0,0,
17,17,17,17,17,17,17,17,17,17,0,0,0,0,0,0,
17,17,17,17,17,17,17,17,17,17,0,0,0,0,0,0,
17,17,17,17,17,17,17,17,17,17,0,0,0,0,0,0,
17,17,17,17,17,17,17,17,17,17,0,0,0,0,0,0,
17,17,17,17,17,17,17,17,17,17,17,17,17,17,17,17,
17,17,17,17,17,17,17,17,17,17,17,17,17,17,17,17,
17,17,17,17,17,17,17,17,17,17,17,17,17,17,17,17,
17,17,17,17,17,17,17,17,17,17,17,17,17,17,17,17,
17,17,17,17,17,17,17,17,17,17,17,17,17,17,17,17,
17,17,17,17,17,17,17,17,17,17,17,17,17,17,17,17
</chunk>
   <chunk x="-160" y="112" width="16" height="16">
0,0,0,0,0,0,0,0,0,0,0,0,0,0,0,0,
0,0,0,0,0,0,0,0,0,0,0,0,0,0,0,0,
0,0,0,0,0,0,0,0,0,0,17,17,17,17,17,17,
0,0,0,0,0,0,0,0,0,17,17,17,17,17,17,17,
0,0,0,0,0,0,0,0,0,0,17,17,17,17,17,17,
0,0,0,0,0,0,0,0,0,0,0,17,17,17,17,17,
0,0,0,0,0,0,0,0,0,0,0,0,0,0,0,0,
0,0,0,0,0,0,0,0,0,0,0,0,0,0,0,0,
0,0,0,0,0,0,0,0,0,0,0,0,0,0,0,0,
0,0,0,0,0,0,0,0,0,0,0,0,0,0,0,0,
17,17,0,0,0,0,0,0,0,0,0,0,0,0,0,0,
17,17,17,0,0,0,0,0,0,0,0,0,0,0,0,0,
17,17,17,17,0,0,0,0,0,0,0,0,0,0,0,0,
17,17,17,17,17,17,17,17,17,17,17,17,17,17,17,17,
17,17,17,17,17,17,17,17,17,17,17,17,17,17,17,17,
17,17,17,17,17,17,17,17,17,17,17,17,17,17,17,17
</chunk>
   <chunk x="-144" y="112" width="16" height="16">
0,0,0,0,0,0,0,17,17,17,17,17,17,17,17,17,
0,0,0,0,0,0,17,17,17,17,17,17,17,17,17,17,
17,17,17,17,17,17,17,17,17,17,17,17,17,17,17,17,
17,17,17,17,17,17,17,17,17,17,17,17,17,17,17,17,
17,17,17,17,17,17,17,17,17,17,17,17,17,17,17,0,
17,17,17,17,17,17,17,17,17,17,17,17,17,17,0,0,
0,0,0,0,0,0,0,0,0,0,0,0,0,0,0,0,
0,0,0,0,0,0,0,0,0,0,0,0,0,0,0,0,
0,0,0,0,0,0,0,0,0,0,0,0,0,0,0,0,
0,0,0,0,0,0,0,0,0,0,0,0,0,0,0,0,
0,0,0,0,0,0,0,0,0,0,0,0,0,0,0,0,
0,0,0,0,0,0,0,0,0,0,0,0,0,0,0,0,
0,0,0,0,0,0,0,0,0,0,0,0,0,0,0,0,
17,17,0,0,0,0,0,0,0,0,0,0,0,0,0,0,
17,17,17,17,17,0,0,0,0,0,0,0,0,0,0,0,
17,17,17,17,17,17,0,0,0,0,0,0,0,0,0,0
</chunk>
   <chunk x="-112" y="112" width="16" height="16">
0,0,0,0,0,0,0,0,0,0,0,0,0,0,17,17,
0,0,0,0,0,0,0,0,0,0,0,0,0,0,17,17,
0,0,0,0,0,0,0,0,0,0,0,0,0,0,17,17,
0,0,0,0,0,0,0,0,0,0,0,0,0,0,0,0,
0,0,0,0,0,0,0,0,0,0,0,0,0,0,0,0,
0,0,0,0,0,0,0,0,0,0,0,0,0,0,0,0,
0,0,0,0,0,0,0,0,0,0,0,0,0,0,0,0,
0,0,0,0,0,0,0,0,0,0,0,0,0,0,0,0,
0,0,0,0,0,0,0,0,0,0,0,0,0,0,0,0,
0,0,0,0,0,0,0,0,0,0,0,0,0,0,0,0,
0,0,0,0,0,0,0,0,0,0,0,0,0,0,0,0,
0,0,0,0,0,0,0,0,0,0,0,0,0,0,0,0,
0,0,0,0,0,0,0,0,0,0,0,0,0,0,0,0,
0,0,0,0,0,0,0,0,0,0,0,0,0,0,0,0,
0,0,0,0,0,0,0,0,0,0,0,0,0,0,0,0,
0,0,0,0,0,0,0,0,0,0,0,0,0,0,0,0
</chunk>
   <chunk x="-96" y="112" width="16" height="16">
17,17,17,17,17,17,17,0,0,0,0,0,0,0,0,0,
17,17,17,17,17,17,17,0,0,0,0,0,0,0,0,0,
17,17,17,17,17,17,17,0,0,0,0,0,0,0,0,0,
0,0,0,0,0,0,0,0,0,0,0,0,0,0,0,0,
0,0,0,0,0,0,0,0,0,0,0,0,0,0,0,0,
0,0,0,0,0,0,0,0,0,0,0,0,0,0,0,0,
0,0,0,0,0,0,0,0,0,0,0,0,0,0,0,0,
0,0,0,0,0,0,0,0,0,0,0,0,0,0,0,0,
0,0,0,0,0,0,0,0,0,0,0,0,0,0,0,0,
0,0,0,0,0,0,0,0,0,0,0,0,0,0,0,0,
0,0,0,0,0,0,0,0,0,0,0,0,0,0,0,0,
0,0,0,0,0,0,0,0,0,0,0,0,0,0,0,0,
0,0,0,0,0,0,0,0,0,0,0,0,0,0,0,0,
0,0,0,0,0,0,0,0,0,0,0,0,0,0,0,0,
0,0,0,0,0,0,0,0,0,0,0,0,0,0,0,0,
0,0,0,0,0,0,0,0,0,0,0,0,0,0,0,0
</chunk>
   <chunk x="-16" y="112" width="16" height="16">
0,0,0,0,0,0,0,0,0,0,0,0,0,0,0,0,
0,17,17,17,17,17,17,17,17,17,17,17,17,17,0,0,
0,17,17,17,17,17,17,17,17,17,17,17,17,17,0,0,
0,17,17,17,17,17,17,17,17,17,17,17,17,17,0,0,
0,17,17,17,17,17,17,17,17,17,17,17,17,17,0,0,
0,0,0,0,0,0,0,0,0,0,0,0,0,0,0,0,
0,0,0,0,0,0,0,0,0,0,0,0,0,0,0,0,
0,0,0,0,0,0,0,0,0,0,0,0,0,0,0,0,
0,0,0,0,0,0,0,0,0,0,0,0,0,0,0,0,
0,0,0,0,0,0,17,17,17,17,17,17,17,17,17,17,
0,0,0,0,0,0,17,17,17,17,17,17,17,17,17,17,
0,0,0,0,0,0,17,17,17,17,17,17,17,17,17,17,
0,0,0,0,0,0,0,0,0,0,0,0,0,0,0,0,
0,0,0,0,0,0,0,0,0,0,0,0,0,0,0,0,
0,0,0,0,0,0,0,0,0,0,0,0,0,0,0,0,
0,0,0,0,0,0,0,0,0,0,0,0,0,0,0,0
</chunk>
   <chunk x="0" y="112" width="16" height="16">
0,0,0,0,0,0,0,0,0,0,0,0,0,0,0,0,
0,0,0,0,0,0,0,0,0,0,0,0,0,0,0,0,
0,0,0,0,0,0,0,0,0,0,0,0,0,0,0,0,
0,0,0,0,0,0,0,0,0,0,0,0,0,0,0,0,
0,0,0,0,0,0,0,0,0,0,0,0,0,0,0,0,
0,0,0,0,0,0,0,0,0,0,0,0,0,0,0,0,
0,0,0,0,0,0,0,0,0,0,0,0,0,0,0,0,
0,0,0,0,0,0,0,0,0,0,0,0,0,0,0,0,
0,0,0,0,0,0,0,0,0,0,0,0,0,0,0,0,
17,17,17,17,17,17,17,17,17,17,17,17,17,17,17,17,
17,17,17,17,17,17,17,17,17,17,17,17,17,17,17,17,
17,17,17,17,17,17,17,17,17,17,17,17,17,17,17,17,
0,0,0,0,0,0,0,0,0,0,0,0,0,0,0,0,
0,0,0,0,0,0,0,0,0,0,0,0,0,0,0,0,
0,0,0,0,0,0,0,0,0,0,0,0,0,0,0,0,
0,0,0,0,0,0,0,0,0,0,0,0,0,0,0,0
</chunk>
   <chunk x="-192" y="128" width="16" height="16">
0,0,0,0,0,0,0,0,0,0,17,17,17,17,17,17,
0,0,0,0,0,0,0,0,0,0,17,17,17,17,17,17,
0,0,0,0,0,0,0,0,0,0,17,17,17,17,17,17,
0,0,0,0,0,0,0,0,0,0,17,17,17,17,17,17,
0,0,0,0,0,0,0,0,0,0,17,17,17,17,17,17,
0,0,0,0,0,0,0,0,0,0,17,17,17,17,17,17,
0,0,0,0,0,0,0,0,0,0,17,17,17,17,17,17,
0,0,0,0,0,0,0,0,0,0,17,17,17,17,17,17,
0,0,0,0,0,0,0,0,0,0,17,17,17,17,17,17,
0,0,0,0,0,0,0,0,0,0,17,17,17,17,17,17,
0,0,0,0,0,0,0,0,0,0,17,17,17,17,17,17,
0,0,0,0,0,0,0,0,0,0,17,17,17,17,17,17,
0,0,0,0,0,0,0,0,0,0,17,17,17,17,17,17,
0,0,0,0,0,0,0,0,0,0,17,17,17,17,17,17,
0,0,0,0,0,0,0,0,0,0,17,17,17,17,17,17,
0,0,0,0,0,0,0,0,0,0,17,17,17,17,17,17
</chunk>
   <chunk x="-176" y="128" width="16" height="16">
17,17,17,17,17,17,17,17,17,17,17,17,17,17,17,17,
17,17,17,17,17,17,17,17,17,17,17,17,17,17,17,17,
17,17,17,17,17,17,17,17,17,17,17,17,17,17,17,17,
17,17,17,17,17,17,17,17,17,17,17,17,17,17,17,17,
17,17,17,17,17,17,17,17,17,17,17,17,17,17,17,17,
17,17,17,17,17,17,17,17,17,17,17,17,17,17,17,17,
17,17,17,17,17,17,17,17,17,17,17,17,17,17,17,17,
17,17,17,17,17,17,17,17,17,17,17,17,17,17,17,17,
17,17,17,17,17,17,17,17,17,17,17,17,17,17,17,17,
17,17,17,17,17,17,17,17,17,17,17,17,17,17,17,17,
17,17,17,17,17,17,17,17,17,17,17,17,17,17,17,17,
17,17,17,17,17,17,17,17,17,17,17,17,17,17,17,17,
17,17,17,17,17,17,17,17,17,17,17,17,17,17,17,17,
17,17,17,17,17,17,17,17,17,17,17,17,17,17,17,17,
17,17,17,17,17,17,17,17,17,17,17,17,17,17,17,17,
17,17,17,17,17,17,17,17,17,17,17,17,17,17,17,17
</chunk>
   <chunk x="-160" y="128" width="16" height="16">
17,17,17,17,17,17,17,17,17,17,17,17,17,17,17,17,
17,17,17,17,17,17,17,17,17,17,17,17,17,17,17,17,
17,17,17,17,17,17,17,17,17,17,17,17,17,17,17,17,
17,17,17,17,17,17,17,17,17,17,17,17,17,17,17,17,
17,17,17,17,17,17,17,17,17,17,17,17,17,17,17,17,
17,17,17,17,17,17,17,17,17,17,17,17,17,17,17,17,
17,17,17,17,17,17,17,17,17,17,17,17,17,17,17,17,
17,17,17,17,17,17,17,17,17,17,17,17,17,17,17,17,
17,17,17,17,17,17,17,17,17,17,17,17,17,17,17,17,
17,17,17,17,17,17,17,17,17,17,17,17,17,17,17,17,
17,17,17,17,17,17,17,17,17,17,17,17,17,17,17,17,
17,17,17,17,17,17,17,17,17,17,17,17,17,17,17,17,
17,17,17,17,17,17,17,17,17,17,17,17,17,17,17,17,
17,17,17,17,17,17,17,17,17,17,17,17,17,17,17,17,
17,17,17,17,17,17,17,17,17,17,17,17,17,17,17,17,
17,17,17,17,17,17,17,17,17,17,17,17,17,17,17,17
</chunk>
   <chunk x="-144" y="128" width="16" height="16">
17,17,17,17,17,17,17,17,17,17,17,17,17,17,17,17,
17,17,17,17,17,17,17,17,17,17,17,17,17,17,17,17,
17,17,17,17,17,17,17,17,17,17,17,17,17,17,17,17,
17,17,17,17,17,17,17,17,17,17,17,17,17,17,17,17,
17,17,17,17,17,17,17,17,17,17,17,17,17,17,17,17,
17,17,17,17,17,17,17,17,17,17,17,17,17,17,17,17,
17,17,17,17,17,17,17,17,17,17,17,17,17,17,17,17,
17,17,17,17,17,17,17,17,17,17,17,17,17,17,17,17,
17,17,17,17,17,17,17,17,17,17,17,17,17,17,17,17,
17,17,17,17,17,17,17,17,17,17,17,17,17,17,17,17,
17,17,17,17,17,17,17,17,17,17,17,17,17,17,17,17,
17,17,17,17,17,17,17,17,17,17,17,17,17,17,17,17,
17,17,17,17,17,17,17,17,17,17,17,17,17,17,17,17,
17,17,17,17,17,17,17,17,17,17,17,17,17,17,17,17,
17,17,17,17,17,17,17,17,17,17,17,17,17,17,17,17,
17,17,17,17,17,17,17,17,17,17,17,17,17,17,17,17
</chunk>
   <chunk x="-128" y="128" width="16" height="16">
17,17,17,17,17,17,17,17,17,17,17,17,17,17,17,17,
17,17,17,17,17,17,17,17,17,17,17,17,17,17,17,17,
17,17,17,17,17,17,17,17,17,17,17,17,17,17,17,17,
17,17,17,17,17,17,17,17,17,17,17,17,17,17,17,17,
17,17,17,17,17,17,17,17,17,17,17,17,17,17,17,17,
17,17,17,17,17,17,17,17,17,17,17,17,17,17,17,17,
17,17,17,17,17,17,17,17,17,17,17,17,17,17,17,17,
17,17,17,17,17,17,17,17,17,17,17,17,17,17,17,17,
17,17,17,17,17,17,17,17,17,17,17,17,17,17,17,17,
17,17,17,17,17,17,17,17,17,17,17,17,17,17,17,17,
17,17,17,17,17,17,17,17,17,17,17,17,17,17,17,17,
17,17,17,17,17,17,17,17,17,17,17,17,17,17,17,17,
17,17,17,17,17,17,17,17,17,17,17,17,17,17,17,17,
17,17,17,17,17,17,17,17,17,17,17,17,17,17,17,17,
17,17,17,17,17,17,17,17,17,17,17,17,17,17,17,17,
17,17,17,17,17,17,17,17,17,17,17,17,17,17,17,17
</chunk>
   <chunk x="-112" y="128" width="16" height="16">
17,17,17,17,17,17,17,17,17,17,17,17,17,17,17,17,
17,17,17,17,17,17,17,17,17,17,17,17,17,17,17,17,
17,17,17,17,17,17,17,17,17,17,17,17,17,17,17,17,
17,17,17,17,17,17,17,17,17,17,17,17,17,17,17,17,
17,17,17,17,17,17,17,17,17,17,17,17,17,17,17,17,
17,17,17,17,17,17,17,17,17,17,17,17,17,17,17,17,
17,17,17,17,17,17,17,17,17,17,17,17,17,17,17,17,
17,17,17,17,17,17,17,17,17,17,17,17,17,17,17,17,
17,17,17,17,17,17,17,17,17,17,17,17,17,17,17,17,
17,17,17,17,17,17,17,17,17,17,17,17,17,17,17,17,
17,17,17,17,17,17,17,17,17,17,17,17,17,17,17,17,
17,17,17,17,17,17,17,17,17,17,17,17,17,17,17,17,
17,17,17,17,17,17,17,17,17,17,17,17,17,17,17,17,
17,17,17,17,17,17,17,17,17,17,17,17,17,17,17,17,
17,17,17,17,17,17,17,17,17,17,17,17,17,17,17,17,
17,17,17,17,17,17,17,17,17,17,17,17,17,17,17,17
</chunk>
   <chunk x="-96" y="128" width="16" height="16">
17,17,17,17,17,17,17,17,17,17,17,17,17,17,17,17,
17,17,17,17,17,17,17,17,17,17,17,17,17,17,17,17,
17,17,17,17,17,17,17,17,17,17,17,17,17,17,17,17,
17,17,17,17,17,17,17,17,17,17,17,17,17,17,17,17,
17,17,17,17,17,17,17,17,17,17,17,17,17,17,17,17,
17,17,17,17,17,17,17,17,17,17,17,17,17,17,17,17,
17,17,17,17,17,17,17,17,17,17,17,17,17,17,17,17,
17,17,17,17,17,17,17,17,17,17,17,17,17,17,17,17,
17,17,17,17,17,17,17,17,17,17,17,17,17,17,17,17,
17,17,17,17,17,17,17,17,17,17,17,17,17,17,17,17,
17,17,17,17,17,17,17,17,17,17,17,17,17,17,17,17,
17,17,17,17,17,17,17,17,17,17,17,17,17,17,17,17,
17,17,17,17,17,17,17,17,17,17,17,17,17,17,17,17,
17,17,17,17,17,17,17,17,17,17,17,17,17,17,17,17,
17,17,17,17,17,17,17,17,17,17,17,17,17,17,17,17,
17,17,17,17,17,17,17,17,17,17,17,17,17,17,17,17
</chunk>
   <chunk x="-80" y="128" width="16" height="16">
17,17,17,17,17,17,17,17,17,17,17,17,17,0,0,0,
17,17,17,17,17,17,17,17,17,17,17,17,17,0,0,0,
17,17,17,17,17,17,17,17,17,17,17,17,17,0,0,0,
17,17,17,17,17,17,17,17,17,17,17,17,17,0,0,0,
17,17,17,17,17,17,17,17,17,17,17,17,17,0,0,0,
17,17,17,17,17,17,17,17,17,17,17,17,17,0,0,0,
17,17,17,17,17,17,17,17,17,17,17,17,17,0,0,0,
17,17,17,17,17,17,17,17,17,17,17,17,17,0,0,0,
17,17,17,17,17,17,17,17,17,17,17,17,17,0,0,0,
17,17,17,17,17,17,17,17,17,17,17,17,17,0,0,0,
17,17,17,17,17,17,17,17,17,17,17,17,17,0,0,0,
17,17,17,17,17,17,17,17,17,17,17,17,17,0,0,0,
17,17,17,17,17,17,17,17,17,17,17,17,17,0,0,0,
17,17,17,17,17,17,17,17,17,17,17,17,17,0,0,0,
17,17,17,17,17,17,17,17,17,17,17,17,17,0,0,0,
17,17,17,17,17,17,17,17,17,17,17,17,17,0,0,0
</chunk>
   <chunk x="-32" y="128" width="16" height="16">
0,0,0,0,17,17,0,0,0,0,0,0,0,0,0,0,
0,0,0,0,17,17,17,0,0,0,0,0,0,0,0,0,
0,0,0,0,17,17,17,17,17,0,0,0,0,0,0,0,
0,0,0,0,17,17,17,17,17,17,0,0,0,0,0,0,
0,0,0,0,17,17,17,17,17,17,17,17,17,17,17,17,
0,0,0,0,17,17,17,17,17,17,17,17,17,17,17,17,
0,0,0,0,17,17,17,17,17,17,17,17,17,17,17,17,
0,0,0,0,17,17,17,17,17,17,17,17,17,17,17,17,
0,0,0,0,17,17,17,17,17,17,17,17,17,17,17,17,
0,0,0,0,17,17,17,17,17,17,17,17,17,17,17,17,
0,0,0,0,17,17,17,17,17,17,17,17,17,17,17,17,
0,0,0,0,17,17,17,17,17,17,17,17,17,17,17,17,
0,0,0,0,17,17,17,17,17,17,17,17,17,17,17,17,
0,0,0,0,17,17,17,17,17,17,17,17,17,17,17,17,
0,0,0,0,17,17,17,17,17,17,17,17,17,17,17,17,
0,0,0,0,17,17,17,17,17,17,17,17,17,17,17,17
</chunk>
   <chunk x="-16" y="128" width="16" height="16">
0,0,0,0,0,0,0,0,0,0,0,0,0,0,0,0,
0,0,0,0,0,0,0,0,0,0,0,0,0,0,0,0,
0,0,0,0,0,0,0,0,0,0,0,0,0,0,0,0,
0,0,0,0,0,0,0,0,0,0,0,0,0,0,0,0,
17,17,17,17,17,17,17,17,17,17,17,17,17,17,17,17,
17,17,17,17,17,17,17,17,17,17,17,17,17,17,17,17,
17,17,17,17,17,17,17,17,17,17,17,17,17,17,17,17,
17,17,17,17,17,17,17,17,17,17,17,17,17,17,17,17,
17,17,17,17,17,17,17,17,17,17,17,17,17,17,17,17,
17,17,17,17,17,17,17,17,17,17,17,17,17,17,17,17,
17,17,17,17,17,17,17,17,17,17,17,17,17,17,17,17,
17,17,17,17,17,17,17,17,17,17,17,17,17,17,17,17,
17,17,17,17,17,17,17,17,17,17,17,17,17,17,17,17,
17,17,17,17,17,17,17,17,17,17,17,17,17,17,17,17,
17,17,17,17,17,17,17,17,17,17,17,17,17,17,17,17,
17,17,17,17,17,17,17,17,17,17,17,17,17,17,17,17
</chunk>
   <chunk x="0" y="128" width="16" height="16">
0,0,0,0,0,0,0,0,0,0,0,0,0,0,0,0,
0,0,0,0,0,0,0,0,0,0,0,0,0,0,0,0,
0,0,0,0,0,0,0,0,0,0,0,0,0,0,0,0,
0,0,0,0,0,0,0,0,0,0,0,0,0,0,0,0,
17,17,17,0,0,0,0,0,0,0,0,0,0,0,0,0,
17,17,17,0,0,0,0,0,0,0,0,0,0,0,0,0,
17,17,17,0,0,0,0,0,0,0,0,0,0,0,0,0,
17,17,17,17,17,17,17,17,17,17,17,17,17,0,0,0,
17,17,17,17,17,17,17,17,17,17,17,17,17,0,0,0,
17,17,17,17,17,17,17,17,17,17,17,17,17,0,0,0,
17,17,17,17,17,17,17,17,17,17,17,17,17,17,17,17,
17,17,17,17,17,17,17,17,17,17,17,17,17,17,17,17,
17,17,17,17,17,17,17,17,17,17,17,17,17,17,17,17,
17,17,17,17,17,17,17,17,17,17,17,17,17,17,17,17,
17,17,17,17,17,17,17,17,17,17,17,17,17,17,17,17,
17,17,17,17,17,17,17,17,17,17,17,17,17,17,17,17
</chunk>
   <chunk x="16" y="128" width="16" height="16">
0,0,0,0,0,0,0,0,0,0,0,0,0,0,0,0,
0,0,0,0,0,0,0,0,0,0,0,0,0,0,0,0,
0,0,0,0,0,0,0,0,0,0,0,0,0,0,0,0,
0,0,0,0,0,0,0,0,0,0,0,0,0,0,0,0,
0,0,0,0,0,0,0,0,0,0,0,0,0,0,0,0,
0,0,0,0,0,0,0,0,0,0,0,0,0,0,0,0,
0,0,0,0,0,0,0,0,0,0,0,0,0,0,0,0,
0,0,0,0,0,0,0,0,0,0,0,0,0,0,0,0,
0,0,0,0,0,0,0,0,0,0,0,0,0,0,0,0,
0,0,0,0,0,0,0,0,0,0,0,0,0,0,0,0,
17,17,17,17,17,17,17,17,17,17,17,17,17,17,17,17,
17,17,17,17,17,17,17,17,17,17,17,17,17,17,17,17,
17,17,17,17,17,17,17,17,17,17,17,17,17,17,17,17,
17,17,17,17,17,17,17,17,17,17,17,17,17,17,17,17,
17,17,17,17,17,17,17,17,17,17,17,17,17,17,17,17,
17,17,17,17,17,17,17,17,17,17,17,17,17,17,17,17
</chunk>
   <chunk x="32" y="128" width="16" height="16">
0,0,0,0,0,0,0,0,0,0,0,0,0,0,0,0,
0,0,0,0,0,0,0,0,0,0,0,0,0,0,0,0,
0,0,0,0,0,0,0,0,0,0,0,0,0,0,0,0,
0,0,0,0,0,0,0,0,0,0,0,0,0,0,0,0,
0,0,0,0,0,0,0,0,0,0,0,0,0,0,0,0,
0,0,0,0,0,0,0,0,0,0,0,0,0,0,0,0,
0,17,17,17,17,17,17,17,17,17,17,17,17,17,17,0,
0,17,17,17,17,17,17,17,17,17,17,17,17,17,17,0,
0,17,17,17,17,17,17,17,17,17,17,17,17,17,17,0,
0,17,17,17,17,17,17,17,17,17,17,17,17,17,17,0,
17,17,17,17,17,17,17,17,17,17,17,17,17,17,17,17,
17,17,17,17,17,17,17,17,17,17,17,17,17,17,17,17,
17,17,17,17,17,17,17,17,17,17,17,17,17,17,17,17,
17,17,17,17,17,17,17,17,17,17,17,17,17,17,17,17,
17,17,17,17,17,17,17,17,17,17,17,17,17,17,17,17,
17,17,17,17,17,17,17,17,17,17,17,17,17,17,17,17
</chunk>
   <chunk x="48" y="128" width="16" height="16">
0,0,0,0,0,0,0,0,0,0,0,0,0,0,0,0,
0,0,0,0,0,0,0,0,0,0,0,0,0,0,0,0,
0,0,0,0,0,0,0,0,0,0,0,0,0,0,0,0,
0,0,0,0,0,0,0,0,0,0,0,0,0,0,0,0,
0,0,0,0,0,0,0,0,0,0,0,0,0,0,0,0,
0,0,0,0,0,0,0,0,0,0,0,0,0,0,0,0,
0,0,0,0,0,0,0,0,0,0,0,0,0,0,0,0,
0,0,0,0,0,0,0,0,0,0,0,0,0,0,0,0,
0,0,0,0,0,0,0,0,0,0,0,0,0,0,0,0,
0,0,0,0,0,0,0,0,0,0,0,0,0,0,0,0,
17,17,17,17,17,17,17,17,17,17,0,0,0,0,0,0,
17,17,17,17,17,17,17,17,17,17,0,0,0,0,0,0,
17,17,17,17,17,17,17,17,17,17,0,0,0,0,0,0,
17,17,17,17,17,17,17,17,17,17,0,0,0,0,0,0,
17,17,17,17,17,17,17,17,17,17,0,0,0,0,0,0,
17,17,17,17,17,17,17,17,17,17,0,0,0,0,0,0
</chunk>
   <chunk x="-192" y="144" width="16" height="16">
0,0,0,0,0,0,0,0,0,0,17,17,17,17,17,17,
0,0,0,0,0,0,0,0,0,0,17,17,17,17,17,17,
0,0,0,0,0,0,0,0,0,0,17,17,17,17,17,17,
0,0,0,0,0,0,0,0,0,0,17,17,17,17,17,17,
0,0,0,0,0,0,0,0,0,0,17,17,17,17,17,17,
0,0,0,0,0,0,0,0,0,0,17,17,17,17,17,17,
0,0,0,0,0,0,0,0,0,0,17,17,17,17,17,17,
0,0,0,0,0,0,0,0,0,0,17,17,17,17,17,17,
0,0,0,0,0,0,0,0,0,0,17,17,17,17,17,17,
0,0,0,0,0,0,0,0,0,0,17,17,17,17,17,17,
0,0,0,0,0,0,0,0,0,0,17,17,17,17,17,17,
0,0,0,0,0,0,0,0,0,0,17,17,17,17,17,17,
0,0,0,0,0,0,0,0,0,0,17,17,17,17,17,17,
0,0,0,0,0,0,0,0,0,0,17,17,17,17,17,17,
0,0,0,0,0,0,0,0,0,0,17,17,17,17,17,17,
0,0,0,0,0,0,0,0,0,0,17,17,17,17,17,17
</chunk>
   <chunk x="-176" y="144" width="16" height="16">
17,17,17,17,17,17,17,17,17,17,17,17,17,17,17,17,
17,17,17,17,17,17,17,17,17,17,17,17,17,17,17,17,
17,17,17,17,17,17,17,17,17,17,17,17,17,17,17,17,
17,17,17,17,17,17,17,17,17,17,17,17,17,17,17,17,
17,17,17,17,17,17,17,17,17,17,17,17,17,17,17,17,
17,17,17,17,17,17,17,17,17,17,17,17,17,17,17,17,
17,17,17,17,17,17,17,17,17,17,17,17,17,17,17,17,
17,17,17,17,17,17,17,17,17,17,17,17,17,17,17,17,
17,17,17,17,17,17,17,17,17,17,17,17,17,17,17,17,
17,17,17,17,17,17,17,17,17,17,17,17,17,17,17,17,
17,17,17,17,17,17,17,17,17,17,17,17,17,17,17,17,
17,17,17,17,17,17,17,17,17,17,17,17,17,17,17,17,
17,17,17,17,17,17,17,17,17,17,17,17,17,17,17,17,
17,17,17,17,17,17,17,17,17,17,17,17,17,17,17,17,
17,17,17,17,17,17,17,17,17,17,17,17,17,17,17,17,
17,17,17,17,17,17,17,17,17,17,17,17,17,17,17,17
</chunk>
   <chunk x="-160" y="144" width="16" height="16">
17,17,17,17,17,17,17,17,17,17,17,17,17,17,17,17,
17,17,17,17,17,17,17,17,17,17,17,17,17,17,17,17,
17,17,17,17,17,17,17,17,17,17,17,17,17,17,17,17,
17,17,17,17,17,17,17,17,17,17,17,17,17,17,17,17,
17,17,17,17,17,17,17,17,17,17,17,17,17,17,17,17,
17,17,17,17,17,17,17,17,17,17,17,17,17,17,17,17,
17,17,17,17,17,17,17,17,17,17,17,17,17,17,17,17,
17,17,17,17,17,17,17,17,17,17,17,17,17,17,17,17,
17,17,17,17,17,17,17,17,17,17,17,17,17,17,17,17,
17,17,17,17,17,17,17,17,17,17,17,17,17,17,17,17,
17,17,17,17,17,17,17,17,17,17,17,17,17,17,17,17,
17,17,17,17,17,17,17,17,17,17,17,17,17,17,17,17,
17,17,17,17,17,17,17,17,17,17,17,17,17,17,17,17,
17,17,17,17,17,17,17,17,17,17,17,17,17,17,17,17,
17,17,17,17,17,17,17,17,17,17,17,17,17,17,17,17,
17,17,17,17,17,17,17,17,17,17,17,17,17,17,17,17
</chunk>
   <chunk x="-144" y="144" width="16" height="16">
17,17,17,17,17,17,17,17,17,17,17,17,17,17,17,17,
17,17,17,17,17,17,17,17,17,17,17,17,17,17,17,17,
17,17,17,17,17,17,17,17,17,17,17,17,17,17,17,17,
17,17,17,17,17,17,17,17,17,17,17,17,17,17,17,17,
17,17,17,17,17,17,17,17,17,17,17,17,17,17,17,17,
17,17,17,17,17,17,17,17,17,17,17,17,17,17,17,17,
17,17,17,17,17,17,17,17,17,17,17,17,17,17,17,17,
17,17,17,17,17,17,17,17,17,17,17,17,17,17,17,17,
17,17,17,17,17,17,17,17,17,17,17,17,17,17,17,17,
17,17,17,17,17,17,17,17,17,17,17,17,17,17,17,17,
17,17,17,17,17,17,17,17,17,17,17,17,17,17,17,17,
17,17,17,17,17,17,17,17,17,17,17,17,17,17,17,17,
17,17,17,17,17,17,17,17,17,17,17,17,17,17,17,17,
17,17,17,17,17,17,17,17,17,17,17,17,17,17,17,17,
17,17,17,17,17,17,17,17,17,17,17,17,17,17,17,17,
17,17,17,17,17,17,17,17,17,17,17,17,17,17,17,17
</chunk>
   <chunk x="-128" y="144" width="16" height="16">
17,17,17,17,17,17,17,17,17,17,17,17,17,17,17,17,
17,17,17,17,17,17,17,17,17,17,17,17,17,17,17,17,
17,17,17,17,17,17,17,17,17,17,17,17,17,17,17,17,
17,17,17,17,17,17,17,17,17,17,17,17,17,17,17,17,
17,17,17,17,17,17,17,17,17,17,17,17,17,17,17,17,
17,17,17,17,17,17,17,17,17,17,17,17,17,17,17,17,
17,17,17,17,17,17,17,17,17,17,17,17,17,17,17,17,
17,17,17,17,17,17,17,17,17,17,17,17,17,17,17,17,
17,17,17,17,17,17,17,17,17,17,17,17,17,17,17,17,
17,17,17,17,17,17,17,17,17,17,17,17,17,17,17,17,
17,17,17,17,17,17,17,17,17,17,17,17,17,17,17,17,
17,17,17,17,17,17,17,17,17,17,17,17,17,17,17,17,
17,17,17,17,17,17,17,17,17,17,17,17,17,17,17,17,
17,17,17,17,17,17,17,17,17,17,17,17,17,17,17,17,
17,17,17,17,17,17,17,17,17,17,17,17,17,17,17,17,
17,17,17,17,17,17,17,17,17,17,17,17,17,17,17,17
</chunk>
   <chunk x="-112" y="144" width="16" height="16">
17,17,17,17,17,17,17,17,17,17,17,17,17,17,17,17,
17,17,17,17,17,17,17,17,17,17,17,17,17,17,17,17,
17,17,17,17,17,17,17,17,17,17,17,17,17,17,17,17,
17,17,17,17,17,17,17,17,17,17,17,17,17,17,17,17,
17,17,17,17,17,17,17,17,17,17,17,17,17,17,17,17,
17,17,17,17,17,17,17,17,17,17,17,17,17,17,17,17,
17,17,17,17,17,17,17,17,17,17,17,17,17,17,17,17,
17,17,17,17,17,17,17,17,17,17,17,17,17,17,17,17,
17,17,17,17,17,17,17,17,17,17,17,17,17,17,17,17,
17,17,17,17,17,17,17,17,17,17,17,17,17,17,17,17,
17,17,17,17,17,17,17,17,17,17,17,17,17,17,17,17,
17,17,17,17,17,17,17,17,17,17,17,17,17,17,17,17,
17,17,17,17,17,17,17,17,17,17,17,17,17,17,17,17,
17,17,17,17,17,17,17,17,17,17,17,17,17,17,17,17,
17,17,17,17,17,17,17,17,17,17,17,17,17,17,17,17,
17,17,17,17,17,17,17,17,17,17,17,17,17,17,17,17
</chunk>
   <chunk x="-96" y="144" width="16" height="16">
17,17,17,17,17,17,17,17,17,17,17,17,17,17,17,17,
17,17,17,17,17,17,17,17,17,17,17,17,17,17,17,17,
17,17,17,17,17,17,17,17,17,17,17,17,17,17,17,17,
17,17,17,17,17,17,17,17,17,17,17,17,17,17,17,17,
17,17,17,17,17,17,17,17,17,17,17,17,17,17,17,17,
17,17,17,17,17,17,17,17,17,17,17,17,17,17,17,17,
17,17,17,17,17,17,17,17,17,17,17,17,17,17,17,17,
17,17,17,17,17,17,17,17,17,17,17,17,17,17,17,17,
17,17,17,17,17,17,17,17,17,17,17,17,17,17,17,17,
17,17,17,17,17,17,17,17,17,17,17,17,17,17,17,17,
17,17,17,17,17,17,17,17,17,17,17,17,17,17,17,17,
17,17,17,17,17,17,17,17,17,17,17,17,17,17,17,17,
17,17,17,17,17,17,17,17,17,17,17,17,17,17,17,17,
17,17,17,17,17,17,17,17,17,17,17,17,17,17,17,17,
17,17,17,17,17,17,17,17,17,17,17,17,17,17,17,17,
17,17,17,17,17,17,17,17,17,17,17,17,17,17,17,17
</chunk>
   <chunk x="-80" y="144" width="16" height="16">
17,17,17,17,17,17,17,17,17,17,17,17,17,0,0,0,
17,17,17,17,17,17,17,17,17,17,17,17,17,0,0,0,
17,17,17,17,17,17,17,17,17,17,17,17,17,0,0,0,
17,17,17,17,17,17,17,17,17,17,17,17,17,17,17,17,
17,17,17,17,17,17,17,17,17,17,17,17,17,17,17,17,
17,17,17,17,17,17,17,17,17,17,17,17,17,17,17,17,
17,17,17,17,17,17,17,17,17,17,17,17,17,17,17,17,
17,17,17,17,17,17,17,17,17,17,17,17,17,17,17,17,
17,17,17,17,17,17,17,17,17,17,17,17,17,17,17,17,
17,17,17,17,17,17,17,17,17,17,17,17,17,17,17,17,
17,17,17,17,17,17,17,17,17,17,17,17,17,17,17,17,
17,17,17,17,17,17,17,17,17,17,17,17,17,17,17,17,
17,17,17,17,17,17,17,17,17,17,17,17,17,17,17,17,
17,17,17,17,17,17,17,17,17,17,17,17,17,17,17,17,
17,17,17,17,17,17,17,17,17,17,17,17,17,17,17,17,
17,17,17,17,17,17,17,17,17,17,17,17,17,17,17,17
</chunk>
   <chunk x="-64" y="144" width="16" height="16">
0,0,0,0,0,0,0,0,0,0,0,0,0,0,0,0,
0,0,0,0,0,0,0,0,0,0,0,0,0,0,0,0,
0,0,0,0,0,0,0,0,0,0,0,0,0,0,0,0,
17,17,17,17,17,17,17,17,17,17,17,17,17,17,17,17,
17,17,17,17,17,17,17,17,17,17,17,17,17,17,17,17,
17,17,17,17,17,17,17,17,17,17,17,17,17,17,17,17,
17,17,17,17,17,17,17,17,17,17,17,17,17,17,17,17,
17,17,17,17,17,17,17,17,17,17,17,17,17,17,17,17,
17,17,17,17,17,17,17,17,17,17,17,17,17,17,17,17,
17,17,17,17,17,17,17,17,17,17,17,17,17,17,17,17,
17,17,17,17,17,17,17,17,17,17,17,17,17,17,17,17,
17,17,17,17,17,17,17,17,17,17,17,17,17,17,17,17,
17,17,17,17,17,17,17,17,17,17,17,17,17,17,17,17,
17,17,17,17,17,17,17,17,17,17,17,17,17,17,17,17,
17,17,17,17,17,17,17,17,17,17,17,17,17,17,17,17,
17,17,17,17,17,17,17,17,17,17,17,17,17,17,17,17
</chunk>
   <chunk x="-48" y="144" width="16" height="16">
0,0,0,0,0,0,0,0,0,0,0,0,0,0,0,0,
0,0,0,0,0,0,0,0,0,0,0,0,0,0,0,0,
0,0,0,0,0,0,0,0,0,0,0,0,0,0,0,0,
17,17,17,17,17,17,17,17,17,17,17,17,17,17,17,17,
17,17,17,17,17,17,17,17,17,17,17,17,17,17,17,17,
17,17,17,17,17,17,17,17,17,17,17,17,17,17,17,17,
17,17,17,17,17,17,17,17,17,17,17,17,17,17,17,17,
17,17,17,17,17,17,17,17,17,17,17,17,17,17,17,17,
17,17,17,17,17,17,17,17,17,17,17,17,17,17,17,17,
17,17,17,17,17,17,17,17,17,17,17,17,17,17,17,17,
17,17,17,17,17,17,17,17,17,17,17,17,17,17,17,17,
17,17,17,17,17,17,17,17,17,17,17,17,17,17,17,17,
17,17,17,17,17,17,17,17,17,17,17,17,17,17,17,17,
17,17,17,17,17,17,17,17,17,17,17,17,17,17,17,17,
17,17,17,17,17,17,17,17,17,17,17,17,17,17,17,17,
17,17,17,17,17,17,17,17,17,17,17,17,17,17,17,17
</chunk>
   <chunk x="-32" y="144" width="16" height="16">
0,0,0,0,17,17,17,17,17,17,17,17,17,17,17,17,
0,0,0,0,17,17,17,17,17,17,17,17,17,17,17,17,
0,0,0,0,17,17,17,17,17,17,17,17,17,17,17,17,
17,17,17,17,17,17,17,17,17,17,17,17,17,17,17,17,
17,17,17,17,17,17,17,17,17,17,17,17,17,17,17,17,
17,17,17,17,17,17,17,17,17,17,17,17,17,17,17,17,
17,17,17,17,17,17,17,17,17,17,17,17,17,17,17,17,
17,17,17,17,17,17,17,17,17,17,17,17,17,17,17,17,
17,17,17,17,17,17,17,17,17,17,17,17,17,17,17,17,
17,17,17,17,17,17,17,17,17,17,17,17,17,17,17,17,
17,17,17,17,17,17,17,17,17,17,17,17,17,17,17,17,
17,17,17,17,17,17,17,17,17,17,17,17,17,17,17,17,
17,17,17,17,17,17,17,17,17,17,17,17,17,17,17,17,
17,17,17,17,17,17,17,17,17,17,17,17,17,17,17,17,
17,17,17,17,17,17,17,17,17,17,17,17,17,17,17,17,
17,17,17,17,17,17,17,17,17,17,17,17,17,17,17,17
</chunk>
   <chunk x="-16" y="144" width="16" height="16">
17,17,17,17,17,17,17,17,17,17,17,17,17,17,17,17,
17,17,17,17,17,17,17,17,17,17,17,17,17,17,17,17,
17,17,17,17,17,17,17,17,17,17,17,17,17,17,17,17,
17,17,17,17,17,17,17,17,17,17,17,17,17,17,17,17,
17,17,17,17,17,17,17,17,17,17,17,17,17,17,17,17,
17,17,17,17,17,17,17,17,17,17,17,17,17,17,17,17,
17,17,17,17,17,17,17,17,17,17,17,17,17,17,17,17,
17,17,17,17,17,17,17,17,17,17,17,17,17,17,17,17,
17,17,17,17,17,17,17,17,17,17,17,17,17,17,17,17,
17,17,17,17,17,17,17,17,17,17,17,17,17,17,17,17,
17,17,17,17,17,17,17,17,17,17,17,17,17,17,17,17,
17,17,17,17,17,17,17,17,17,17,17,17,17,17,17,17,
17,17,17,17,17,17,17,17,17,17,17,17,17,17,17,17,
17,17,17,17,17,17,17,17,17,17,17,17,17,17,17,17,
17,17,17,17,17,17,17,17,17,17,17,17,17,17,17,17,
17,17,17,17,17,17,17,17,17,17,17,17,17,17,17,17
</chunk>
   <chunk x="0" y="144" width="16" height="16">
17,17,17,17,17,17,17,17,17,17,17,17,17,17,17,17,
17,17,17,17,17,17,17,17,17,17,17,17,17,17,17,17,
17,17,17,17,17,17,17,17,17,17,17,17,17,17,17,17,
17,17,17,17,17,17,17,17,17,17,17,17,17,17,17,17,
17,17,17,17,17,17,17,17,17,17,17,17,17,17,17,17,
17,17,17,17,17,17,17,17,17,17,17,17,17,17,17,17,
17,17,17,17,17,17,17,17,17,17,17,17,17,17,17,17,
17,17,17,17,17,17,17,17,17,17,17,17,17,17,17,17,
17,17,17,17,17,17,17,17,17,17,17,17,17,17,17,17,
17,17,17,17,17,17,17,17,17,17,17,17,17,17,17,17,
17,17,17,17,17,17,17,17,17,17,17,17,17,17,17,17,
17,17,17,17,17,17,17,17,17,17,17,17,17,17,17,17,
17,17,17,17,17,17,17,17,17,17,17,17,17,17,17,17,
17,17,17,17,17,17,17,17,17,17,17,17,17,17,17,17,
17,17,17,17,17,17,17,17,17,17,17,17,17,17,17,17,
17,17,17,17,17,17,17,17,17,17,17,17,17,17,17,17
</chunk>
   <chunk x="16" y="144" width="16" height="16">
17,17,17,17,17,17,17,17,17,17,17,17,17,17,17,17,
17,17,17,17,17,17,17,17,17,17,17,17,17,17,17,17,
17,17,17,17,17,17,17,17,17,17,17,17,17,17,17,17,
17,17,17,17,17,17,17,17,17,17,17,17,17,17,17,17,
17,17,17,17,17,17,17,17,17,17,17,17,17,17,17,17,
17,17,17,17,17,17,17,17,17,17,17,17,17,17,17,17,
17,17,17,17,17,17,17,17,17,17,17,17,17,17,17,17,
17,17,17,17,17,17,17,17,17,17,17,17,17,17,17,17,
17,17,17,17,17,17,17,17,17,17,17,17,17,17,17,17,
17,17,17,17,17,17,17,17,17,17,17,17,17,17,17,17,
17,17,17,17,17,17,17,17,17,17,17,17,17,17,17,17,
17,17,17,17,17,17,17,17,17,17,17,17,17,17,17,17,
17,17,17,17,17,17,17,17,17,17,17,17,17,17,17,17,
17,17,17,17,17,17,17,17,17,17,17,17,17,17,17,17,
17,17,17,17,17,17,17,17,17,17,17,17,17,17,17,17,
17,17,17,17,17,17,17,17,17,17,17,17,17,17,17,17
</chunk>
   <chunk x="32" y="144" width="16" height="16">
17,17,17,17,17,17,17,17,17,17,17,17,17,17,17,17,
17,17,17,17,17,17,17,17,17,17,17,17,17,17,17,17,
17,17,17,17,17,17,17,17,17,17,17,17,17,17,17,17,
17,17,17,17,17,17,17,17,17,17,17,17,17,17,17,17,
17,17,17,17,17,17,17,17,17,17,17,17,17,17,17,17,
17,17,17,17,17,17,17,17,17,17,17,17,17,17,17,17,
17,17,17,17,17,17,17,17,17,17,17,17,17,17,17,17,
17,17,17,17,17,17,17,17,17,17,17,17,17,17,17,17,
17,17,17,17,17,17,17,17,17,17,17,17,17,17,17,17,
17,17,17,17,17,17,17,17,17,17,17,17,17,17,17,17,
17,17,17,17,17,17,17,17,17,17,17,17,17,17,17,17,
17,17,17,17,17,17,17,17,17,17,17,17,17,17,17,17,
17,17,17,17,17,17,17,17,17,17,17,17,17,17,17,17,
17,17,17,17,17,17,17,17,17,17,17,17,17,17,17,17,
17,17,17,17,17,17,17,17,17,17,17,17,17,17,17,17,
17,17,17,17,17,17,17,17,17,17,17,17,17,17,17,17
</chunk>
   <chunk x="48" y="144" width="16" height="16">
17,17,17,17,17,17,17,17,17,17,0,0,0,0,0,0,
17,17,17,17,17,17,17,17,17,17,0,0,0,0,0,0,
17,17,17,17,17,17,17,17,17,17,0,0,0,0,0,0,
17,17,17,17,17,17,17,17,17,17,0,0,0,0,0,0,
17,17,17,17,17,17,17,17,17,17,0,0,0,0,0,0,
17,17,17,17,17,17,17,17,17,17,0,0,0,0,0,0,
17,17,17,17,17,17,17,17,17,17,0,0,0,0,0,0,
17,17,17,17,17,17,17,17,17,17,0,0,0,0,0,0,
17,17,17,17,17,17,17,17,17,17,0,0,0,0,0,0,
17,17,17,17,17,17,17,17,17,17,0,0,0,0,0,0,
17,17,17,17,17,17,17,17,17,17,0,0,0,0,0,0,
17,17,17,17,17,17,17,17,17,17,0,0,0,0,0,0,
17,17,17,17,17,17,17,17,17,17,0,0,0,0,0,0,
17,17,17,17,17,17,17,17,17,17,0,0,0,0,0,0,
17,17,17,17,17,17,17,17,17,17,0,0,0,0,0,0,
17,17,17,17,17,17,17,17,17,17,0,0,0,0,0,0
</chunk>
  </data>
 </layer>
 <layer id="5" name="TreetopWalkTiles" width="30" height="20">
  <data encoding="csv">
   <chunk x="-160" y="-80" width="16" height="16">
45,45,45,45,45,45,45,45,45,45,45,45,45,45,45,45,
45,45,45,45,45,45,45,45,45,45,45,45,45,45,45,45,
45,45,45,45,45,45,45,45,45,45,45,45,45,45,45,45,
45,45,45,45,45,45,45,45,45,45,45,45,45,45,45,45,
45,45,45,45,45,45,45,45,45,45,45,45,45,45,45,45,
45,45,45,45,45,45,45,45,45,45,45,45,45,45,45,45,
45,45,45,45,45,45,45,45,45,45,45,45,45,45,45,45,
45,45,45,45,45,45,45,45,45,45,45,45,45,45,45,45,
45,45,45,45,45,45,45,45,45,45,45,45,45,45,45,45,
45,45,45,45,45,45,45,45,45,45,45,45,45,45,45,45,
45,45,45,45,45,45,45,45,45,45,45,45,45,45,45,45,
45,45,45,45,45,45,45,45,45,45,45,45,45,45,86,61,
45,45,45,45,45,45,45,45,45,45,45,45,45,45,47,0,
45,45,45,45,45,45,45,45,45,45,45,45,45,45,55,0,
45,45,45,45,45,45,45,45,45,45,45,45,45,45,47,0,
45,45,45,45,45,45,45,45,45,45,45,45,45,45,55,0
</chunk>
   <chunk x="-144" y="-80" width="16" height="16">
45,45,45,45,45,45,45,45,45,45,45,45,45,45,45,45,
45,45,45,45,45,45,45,45,45,45,45,45,45,45,45,45,
45,45,45,45,45,45,45,45,45,45,45,45,45,45,45,45,
45,45,45,45,45,45,45,45,45,45,45,45,45,45,45,45,
45,45,45,45,45,45,45,45,45,45,45,45,45,45,45,45,
45,45,45,45,45,45,45,45,45,45,45,45,45,45,45,45,
45,45,45,45,45,45,45,45,45,45,45,45,45,45,45,45,
45,45,45,45,45,45,45,45,45,45,45,45,45,45,45,45,
45,45,45,45,45,45,45,45,45,45,45,45,45,45,45,45,
45,45,45,45,45,45,45,45,45,45,45,45,45,45,45,45,
45,45,45,45,45,45,45,45,45,45,45,45,45,45,45,45,
62,61,62,61,62,61,62,61,62,61,62,61,62,61,62,61,
0,0,0,0,0,0,0,0,0,0,0,0,0,0,0,0,
0,0,0,0,0,0,0,0,0,0,0,0,0,0,0,0,
0,0,0,0,0,0,0,0,0,0,0,0,0,0,0,0,
0,0,0,0,0,0,0,0,0,0,0,0,0,0,0,0
</chunk>
   <chunk x="-128" y="-80" width="16" height="16">
45,45,45,45,45,45,45,45,45,45,45,45,45,45,45,45,
45,45,45,45,45,45,45,45,45,45,45,45,45,45,45,45,
45,45,45,45,45,45,45,45,45,45,45,45,45,45,45,45,
45,45,45,45,45,45,45,45,45,45,45,45,45,45,45,45,
45,45,45,45,45,45,45,45,45,45,45,45,45,45,45,45,
45,45,45,45,45,45,45,45,45,45,45,45,45,45,45,45,
45,45,45,45,45,45,45,45,45,45,45,45,45,45,45,45,
45,45,45,45,45,45,45,45,45,45,45,45,45,45,45,45,
45,45,45,45,45,45,45,45,45,45,45,45,45,45,45,45,
45,45,45,45,45,45,45,45,45,45,45,45,45,45,45,45,
45,45,45,45,45,45,45,45,45,45,45,45,45,45,45,45,
62,61,62,61,62,61,62,61,62,61,62,61,62,61,62,61,
0,0,0,0,0,0,0,0,0,0,0,0,0,0,0,0,
0,0,0,0,0,0,0,0,0,0,0,0,0,0,0,0,
0,0,0,0,0,0,0,0,0,0,0,0,0,0,0,0,
0,0,0,0,0,0,0,0,0,0,0,0,0,0,0,0
</chunk>
   <chunk x="-112" y="-80" width="16" height="16">
45,45,45,45,45,45,45,45,45,45,45,45,45,45,45,45,
45,45,45,45,45,45,45,45,45,45,45,45,45,45,45,45,
45,45,45,45,45,45,45,45,45,45,45,45,45,45,45,45,
45,45,45,45,45,45,45,45,45,45,45,45,45,45,45,45,
45,45,45,45,45,45,45,45,45,45,45,45,45,45,45,45,
45,45,45,45,45,45,45,45,45,45,45,45,45,45,45,45,
45,45,45,45,45,45,45,45,45,45,45,45,45,45,45,45,
45,45,45,45,45,45,45,45,45,45,45,45,45,45,45,45,
45,45,45,45,45,45,45,45,45,45,45,45,45,45,45,45,
45,45,45,45,45,45,45,45,45,45,45,45,45,45,45,45,
45,45,45,45,45,45,45,45,45,45,45,45,45,45,45,45,
62,61,62,61,62,61,62,61,62,61,62,61,62,61,62,61,
0,0,0,0,0,0,0,0,0,0,0,0,0,0,0,0,
0,0,0,0,0,0,0,0,0,0,0,0,0,0,0,0,
0,0,0,0,0,0,0,0,0,0,0,0,0,0,0,0,
0,0,0,0,0,0,0,0,0,0,0,0,0,0,0,0
</chunk>
   <chunk x="-96" y="-80" width="16" height="16">
45,45,45,45,45,45,45,45,45,45,45,45,45,45,45,45,
45,45,45,45,45,45,45,45,45,45,45,45,45,45,45,45,
45,45,45,45,45,45,45,45,45,45,45,45,45,45,45,45,
45,45,45,45,45,45,45,45,45,45,45,45,45,45,45,45,
45,45,45,45,45,45,45,45,45,45,45,45,45,45,45,45,
45,45,45,45,45,45,45,45,45,45,45,45,45,45,45,45,
45,45,45,45,45,45,45,45,45,45,45,45,45,45,45,45,
45,45,45,45,45,45,45,45,45,45,45,45,45,45,45,45,
45,45,45,45,45,45,45,45,45,45,45,45,45,45,45,45,
45,45,45,45,45,45,45,45,45,45,45,45,45,45,45,45,
45,45,45,45,45,45,45,45,45,45,45,45,45,45,45,45,
62,61,62,61,62,61,62,61,62,61,62,61,62,61,62,61,
0,0,0,0,0,0,0,0,0,0,0,0,0,0,0,0,
0,0,0,0,0,0,0,0,0,0,0,0,0,0,0,0,
0,0,0,0,0,0,0,0,0,0,0,0,0,0,0,0,
0,0,0,0,0,0,0,0,0,0,0,0,0,0,0,0
</chunk>
   <chunk x="-80" y="-80" width="16" height="16">
45,45,45,45,45,45,45,45,45,45,45,45,45,45,45,45,
45,45,45,45,45,45,45,45,45,45,45,45,45,45,45,45,
45,45,45,45,45,45,45,45,45,45,45,45,45,45,45,45,
45,45,45,45,45,45,45,45,45,45,45,45,45,45,45,45,
45,45,45,45,45,45,45,45,45,45,45,45,45,45,45,45,
45,45,45,45,45,45,45,45,45,45,45,45,45,45,45,45,
45,45,45,45,45,45,45,45,45,45,45,45,45,45,45,45,
45,45,45,45,45,45,45,45,45,45,45,45,45,45,45,45,
45,45,45,45,45,45,45,45,45,45,45,45,45,45,45,45,
45,45,45,45,45,45,45,45,45,45,45,45,45,45,45,45,
45,45,45,45,45,45,45,45,45,45,45,45,45,45,45,45,
62,61,62,61,62,61,62,61,61,62,61,62,61,62,61,62,
0,0,0,0,0,0,0,0,0,0,0,0,0,0,0,0,
0,0,0,0,0,0,0,0,0,0,0,0,0,0,0,0,
0,0,0,0,0,0,0,0,0,0,0,0,0,0,0,0,
0,0,0,0,0,0,0,0,0,0,0,0,0,0,0,0
</chunk>
   <chunk x="-64" y="-80" width="16" height="16">
45,45,45,45,45,45,45,45,45,45,45,45,45,45,45,45,
45,45,45,45,45,45,45,45,45,45,45,45,45,45,45,45,
45,45,45,45,45,45,45,45,45,45,45,45,45,45,45,45,
45,45,45,45,45,45,45,45,45,45,45,45,45,45,45,45,
45,45,45,45,45,45,45,45,45,45,45,45,45,45,45,45,
45,45,45,45,45,45,45,45,45,45,45,45,45,45,45,45,
45,45,45,45,45,45,45,45,45,45,45,45,45,45,45,45,
45,45,45,45,45,45,45,45,45,45,45,45,45,45,45,45,
45,45,45,45,45,45,45,45,45,45,45,45,45,45,45,45,
45,45,45,45,45,45,45,45,45,45,45,45,45,45,45,45,
45,45,45,45,45,45,45,45,45,45,45,45,45,45,45,45,
61,62,61,62,61,62,61,62,61,62,61,62,61,62,61,62,
0,0,0,0,0,0,0,0,0,0,0,0,0,0,0,0,
0,0,0,0,0,0,0,0,0,0,0,0,0,0,0,0,
0,0,0,0,0,0,0,0,0,0,0,0,0,0,0,0,
0,0,0,0,0,0,0,0,0,0,0,0,0,0,0,0
</chunk>
   <chunk x="-48" y="-80" width="16" height="16">
45,45,45,45,45,45,45,45,45,45,45,45,45,45,45,45,
45,45,45,45,45,45,45,45,45,45,45,45,45,45,45,45,
45,45,45,45,45,45,45,45,45,45,45,45,45,45,45,45,
45,45,45,45,45,45,45,45,45,45,45,45,45,45,45,45,
45,45,45,45,45,45,45,45,45,45,45,45,45,45,45,45,
45,45,45,45,45,45,45,45,45,45,45,45,45,45,45,45,
45,45,45,45,45,45,45,45,45,45,45,45,45,45,45,45,
45,45,45,45,45,45,45,45,45,45,45,45,45,45,45,45,
45,45,45,45,45,45,45,45,45,45,45,45,45,45,45,45,
45,45,45,45,45,45,45,45,45,45,45,45,45,45,45,45,
45,45,45,45,45,45,45,45,45,45,45,45,45,45,45,45,
61,62,61,62,61,62,61,62,61,62,61,62,61,62,61,62,
0,0,0,0,0,0,0,0,0,0,0,0,0,0,0,0,
0,0,0,0,0,0,0,0,0,0,0,0,0,0,0,0,
0,0,0,0,0,0,0,0,0,0,0,0,0,0,0,0,
0,0,0,0,0,0,0,0,0,0,0,0,0,0,0,0
</chunk>
   <chunk x="-32" y="-80" width="16" height="16">
45,45,45,45,45,45,45,45,45,45,45,45,45,45,45,45,
45,45,45,45,45,45,45,45,45,45,45,45,45,45,45,45,
45,45,45,45,45,45,45,45,45,45,45,45,45,45,45,45,
45,45,45,45,45,45,45,45,45,45,45,45,45,45,45,45,
45,45,45,45,45,45,45,45,45,45,45,45,45,45,45,45,
45,45,45,45,45,45,45,45,45,45,45,45,45,45,45,45,
45,45,45,45,45,45,45,45,45,45,45,45,45,45,45,45,
45,45,45,45,45,45,45,45,45,45,45,45,45,45,45,45,
45,45,45,45,45,45,45,45,45,45,45,45,45,45,45,45,
45,45,45,45,45,45,45,45,45,45,45,45,45,45,45,45,
45,45,45,45,45,45,45,45,45,45,45,45,45,45,45,45,
61,62,61,62,61,62,61,62,61,62,61,62,61,62,61,62,
0,0,0,0,0,0,0,0,0,0,0,0,0,0,0,0,
0,0,0,0,0,0,0,0,0,0,0,0,0,0,0,0,
0,0,0,0,0,0,0,0,0,0,0,0,0,0,0,0,
0,0,0,0,0,0,0,0,0,0,0,0,0,0,0,0
</chunk>
   <chunk x="-16" y="-80" width="16" height="16">
45,45,45,45,45,45,45,45,45,45,45,45,45,45,45,45,
45,45,45,45,45,45,45,45,45,45,45,45,45,45,45,45,
45,45,45,45,45,45,45,45,45,45,45,45,45,45,45,45,
45,45,45,45,45,45,45,45,45,45,45,45,45,45,45,45,
45,45,45,45,45,45,45,45,45,45,45,45,45,45,45,45,
45,45,45,45,45,45,45,45,45,45,45,45,45,45,45,45,
45,45,45,45,45,45,45,45,45,45,45,45,45,45,45,45,
45,45,45,45,45,45,45,45,45,45,45,45,45,45,45,45,
45,45,45,45,45,45,45,45,45,45,45,45,45,45,45,45,
45,45,45,45,45,45,45,45,45,45,45,45,45,45,45,45,
45,45,45,45,45,45,45,45,45,45,45,45,45,45,45,45,
61,62,61,62,61,62,61,62,61,62,61,62,61,62,61,62,
0,0,0,0,0,0,0,0,0,0,0,0,0,0,0,0,
0,0,0,0,0,0,0,0,0,0,0,0,0,0,0,0,
0,0,0,0,0,0,0,0,0,0,0,0,0,0,0,0,
0,0,0,0,0,0,0,0,0,0,0,0,0,0,0,0
</chunk>
   <chunk x="0" y="-80" width="16" height="16">
45,45,45,45,45,45,45,45,45,45,45,45,45,45,45,45,
45,45,45,45,45,45,45,45,45,45,45,45,45,45,45,45,
45,45,45,45,45,45,45,45,45,45,45,45,45,45,45,45,
45,45,45,45,45,45,45,45,45,45,45,45,45,45,45,45,
45,45,45,45,45,45,45,45,45,45,45,45,45,45,45,45,
45,45,45,45,45,45,45,45,45,45,45,45,45,45,45,45,
45,45,45,45,45,45,45,45,45,45,45,45,45,45,45,45,
45,45,45,45,45,45,45,45,45,45,45,45,45,45,45,45,
45,45,45,45,45,45,45,45,45,45,45,45,45,45,45,45,
45,45,45,45,45,45,45,45,45,45,45,45,45,45,45,45,
45,45,45,45,45,45,45,45,45,45,45,45,45,45,45,45,
61,62,61,62,61,62,61,62,61,62,61,62,61,62,61,62,
0,0,0,0,0,0,0,0,0,0,0,0,0,0,0,0,
0,0,0,0,0,0,0,0,0,0,0,0,0,0,0,0,
0,0,0,0,0,0,0,0,0,0,0,0,0,0,0,0,
0,0,0,0,0,0,0,0,0,0,0,0,0,0,0,0
</chunk>
   <chunk x="16" y="-80" width="16" height="16">
45,45,45,45,45,45,45,45,45,45,45,45,45,45,45,45,
45,45,45,45,45,45,45,45,45,45,45,45,45,45,45,45,
45,45,45,45,45,45,45,45,45,45,45,45,45,45,45,45,
45,45,45,45,45,45,45,45,45,45,45,45,45,45,45,45,
45,45,45,45,45,45,45,45,45,45,45,45,45,45,45,45,
45,45,45,45,45,45,45,45,45,45,45,45,45,45,45,45,
45,45,45,45,45,45,45,45,45,45,45,45,45,45,45,45,
45,45,45,45,45,45,45,45,45,45,45,45,45,45,45,45,
45,45,45,45,45,45,45,45,45,45,45,45,45,45,45,45,
45,45,45,45,45,45,45,45,45,45,45,45,45,45,45,45,
45,45,45,45,45,45,45,45,45,45,45,45,45,45,45,45,
61,62,61,62,61,62,61,62,61,62,61,62,61,62,61,62,
0,0,0,0,0,0,0,0,0,0,0,0,0,0,0,0,
0,0,0,0,0,0,0,0,0,0,0,0,0,0,0,0,
0,0,0,0,0,0,0,0,0,0,0,0,0,0,0,0,
0,0,0,0,0,0,0,0,0,0,0,0,0,0,0,0
</chunk>
   <chunk x="32" y="-80" width="16" height="16">
45,45,45,45,45,45,45,45,45,45,45,45,45,45,45,45,
45,45,45,45,45,45,45,45,45,45,45,45,45,45,45,45,
45,45,45,45,45,45,45,45,45,45,45,45,45,45,45,45,
45,45,45,45,45,45,45,45,45,45,45,45,45,45,45,45,
45,45,45,45,45,45,45,45,45,45,45,45,45,45,45,45,
45,45,45,45,45,45,45,45,45,45,45,45,45,45,45,45,
45,45,45,45,45,45,45,45,45,45,45,45,45,45,45,45,
45,45,45,45,45,45,45,45,45,45,45,45,45,45,45,45,
45,45,45,45,45,45,45,45,45,45,45,45,45,45,45,45,
45,45,45,45,45,45,45,45,45,45,45,45,45,45,45,45,
45,45,45,45,45,45,45,45,45,45,45,45,45,45,45,45,
61,62,61,62,61,62,61,62,61,62,61,62,61,62,61,62,
0,0,0,0,0,0,0,0,0,0,0,0,0,0,0,0,
0,0,0,0,0,0,0,0,0,0,0,0,0,0,0,0,
0,0,0,0,0,0,0,0,0,0,0,0,0,0,0,0,
0,0,0,0,0,0,0,0,0,0,0,0,0,0,0,0
</chunk>
   <chunk x="48" y="-80" width="16" height="16">
45,45,45,45,45,45,45,45,45,45,45,45,45,45,45,45,
45,45,45,45,45,45,45,45,45,45,45,45,45,45,45,45,
45,45,45,45,45,45,45,45,45,45,45,45,45,45,45,45,
45,45,45,45,45,45,45,45,45,45,45,45,45,45,45,45,
45,45,45,45,45,45,45,45,45,45,45,45,45,45,45,45,
45,45,45,45,45,45,45,45,45,45,45,45,45,45,45,45,
45,45,45,45,45,45,45,45,45,45,45,45,45,45,45,45,
45,45,45,45,45,45,45,45,45,45,45,45,45,45,45,45,
45,45,45,45,45,45,45,45,45,45,45,45,45,45,45,45,
45,45,45,45,45,45,45,45,45,45,45,45,45,45,45,45,
45,45,45,45,45,45,45,45,45,45,45,45,45,45,45,45,
61,62,61,62,61,62,61,62,61,62,85,45,45,45,45,45,
0,0,0,0,0,0,0,0,0,0,44,45,45,45,45,45,
0,0,0,0,0,0,0,0,0,0,52,45,45,45,45,45,
0,0,0,0,0,0,0,0,0,0,44,45,45,45,45,45,
0,0,0,0,0,0,0,0,0,0,52,45,45,45,45,45
</chunk>
   <chunk x="64" y="-80" width="16" height="16">
45,45,45,45,45,45,45,45,0,0,0,0,0,0,0,0,
45,45,45,45,45,45,45,45,0,0,0,0,0,0,0,0,
45,45,45,45,45,45,45,45,0,0,0,0,0,0,0,0,
45,45,45,45,45,45,45,45,0,0,0,0,0,0,0,0,
45,45,45,45,45,45,45,45,0,0,0,0,0,0,0,0,
45,45,45,45,45,45,45,45,0,0,0,0,0,0,0,0,
45,45,45,45,45,45,45,45,0,0,0,0,0,0,0,0,
45,45,45,45,45,45,45,45,0,0,0,0,0,0,0,0,
45,45,45,45,45,45,45,45,0,0,0,0,0,0,0,0,
45,45,45,45,45,45,45,45,0,0,0,0,0,0,0,0,
45,45,45,45,45,45,45,45,0,0,0,0,0,0,0,0,
45,45,45,45,45,45,45,45,0,0,0,0,0,0,0,0,
45,45,45,45,45,45,45,45,0,0,0,0,0,0,0,0,
45,45,45,45,45,45,45,45,0,0,0,0,0,0,0,0,
45,45,45,45,45,45,45,45,0,0,0,0,0,0,0,0,
45,45,45,45,45,45,45,45,0,0,0,0,0,0,0,0
</chunk>
   <chunk x="-160" y="-64" width="16" height="16">
45,45,45,45,45,45,45,45,45,45,45,45,45,45,47,0,
45,45,45,45,45,45,45,45,45,45,45,45,45,45,55,0,
45,45,45,45,45,45,45,45,45,45,45,45,45,45,47,0,
45,45,45,45,45,45,45,45,45,45,45,45,45,45,55,0,
45,45,45,45,45,45,45,45,45,45,45,45,45,45,47,0,
45,45,45,45,45,45,45,45,45,45,45,45,45,45,55,0,
45,45,45,45,45,45,45,45,45,45,45,45,45,45,47,0,
45,45,45,45,45,45,45,45,45,45,45,45,45,45,55,0,
45,45,45,45,45,45,45,45,45,45,45,45,45,45,47,0,
45,45,45,45,45,45,45,45,45,45,45,45,45,45,55,0,
45,45,45,45,45,45,45,45,45,45,45,45,45,45,47,0,
45,45,45,45,45,45,45,45,45,45,45,45,45,45,55,0,
45,45,45,45,45,45,45,45,45,45,45,45,45,45,47,0,
45,45,45,45,45,45,45,45,45,45,45,45,45,45,55,0,
45,45,45,45,45,45,45,45,45,45,45,45,45,45,47,0,
45,45,45,45,45,45,45,45,45,45,45,45,45,45,55,0
</chunk>
   <chunk x="-112" y="-64" width="16" height="16">
0,0,0,0,0,0,0,0,0,0,0,0,0,0,0,0,
0,0,0,0,0,0,0,0,0,0,0,0,0,0,0,0,
0,0,0,0,0,0,0,0,0,0,0,0,0,0,0,0,
0,0,0,0,0,0,0,0,0,0,0,0,0,0,0,0,
0,0,0,0,0,0,0,0,0,0,0,0,0,0,0,0,
0,0,0,0,0,0,0,0,0,0,0,0,0,0,0,0,
0,0,0,0,0,0,0,0,0,0,0,0,0,0,0,0,
0,0,0,0,0,0,0,0,0,0,0,0,0,0,0,0,
0,0,0,0,0,0,0,0,0,0,0,0,0,0,0,0,
0,0,0,0,0,0,0,0,0,0,0,0,0,0,0,0,
0,0,0,0,0,36,37,37,37,37,37,37,37,37,37,37,
0,0,0,0,0,44,45,45,45,45,45,45,45,45,45,45,
0,0,0,0,0,60,62,61,62,61,62,61,62,61,62,61,
0,0,0,0,0,0,0,0,0,0,0,0,0,0,0,0,
0,0,0,0,0,0,0,0,0,0,0,0,0,0,0,0,
0,0,0,0,0,0,0,0,0,0,0,0,0,0,0,0
</chunk>
   <chunk x="-96" y="-64" width="16" height="16">
0,0,0,0,0,0,0,0,0,0,0,0,0,0,0,0,
0,0,0,0,0,0,0,0,0,0,0,0,0,0,0,0,
0,0,0,0,0,0,0,0,0,0,0,0,0,0,0,0,
0,0,0,0,0,0,0,0,0,0,0,0,0,0,0,0,
0,0,0,0,0,0,0,0,0,0,0,0,0,0,0,0,
0,0,0,0,0,0,0,0,0,0,0,0,0,0,0,0,
0,0,0,0,0,0,0,0,0,0,0,0,0,0,0,0,
0,0,0,0,0,0,0,0,0,0,0,0,0,0,0,0,
0,0,0,0,0,0,0,0,0,0,0,0,0,0,0,0,
0,0,0,0,0,0,0,0,0,0,0,0,0,0,0,0,
37,37,37,37,39,0,0,0,0,0,0,0,0,0,0,0,
45,45,45,45,47,0,0,0,0,0,0,0,0,0,0,0,
85,45,45,45,55,0,0,0,0,0,0,0,0,0,0,0,
84,85,45,45,47,0,0,0,0,0,0,0,0,0,0,0,
0,93,85,45,55,0,0,0,0,0,0,0,0,0,0,0,
0,0,44,45,47,0,0,0,0,0,0,0,0,0,0,0
</chunk>
   <chunk x="48" y="-64" width="16" height="16">
0,0,0,0,0,0,0,0,0,0,44,45,45,45,45,45,
0,0,0,0,0,0,0,0,0,0,52,45,45,45,45,45,
0,0,0,0,0,0,0,0,0,0,44,45,45,45,45,45,
0,0,0,0,0,0,0,0,0,0,52,45,45,45,45,45,
0,0,0,0,0,0,0,0,0,0,44,45,45,45,45,45,
0,0,0,0,0,0,0,0,0,0,52,45,45,45,45,45,
0,0,0,0,0,0,0,0,0,0,44,45,45,45,45,45,
0,0,0,0,0,0,0,0,0,0,52,45,45,45,45,45,
0,0,0,0,0,0,0,0,0,0,44,45,45,45,45,45,
0,0,0,0,0,0,0,0,0,0,52,45,45,45,45,45,
0,0,0,0,0,0,0,0,0,0,44,45,45,45,45,45,
0,0,0,0,0,0,0,0,0,0,52,45,45,45,45,45,
0,0,0,0,0,0,0,0,0,0,44,45,45,45,45,45,
0,0,0,0,0,0,0,0,0,0,52,45,45,45,45,45,
0,0,0,0,0,0,0,0,0,0,44,45,45,45,45,45,
0,0,0,0,0,0,0,0,0,0,52,45,45,45,45,45
</chunk>
   <chunk x="64" y="-64" width="16" height="16">
45,45,45,45,45,45,45,45,0,0,0,0,0,0,0,0,
45,45,45,45,45,45,45,45,0,0,0,0,0,0,0,0,
45,45,45,45,45,45,45,45,0,0,0,0,0,0,0,0,
45,45,45,45,45,45,45,45,0,0,0,0,0,0,0,0,
45,45,45,45,45,45,45,45,0,0,0,0,0,0,0,0,
45,45,45,45,45,45,45,45,0,0,0,0,0,0,0,0,
45,45,45,45,45,45,45,45,0,0,0,0,0,0,0,0,
45,45,45,45,45,45,45,45,0,0,0,0,0,0,0,0,
45,45,45,45,45,45,45,45,0,0,0,0,0,0,0,0,
45,45,45,45,45,45,45,45,0,0,0,0,0,0,0,0,
45,45,45,45,45,45,45,45,0,0,0,0,0,0,0,0,
45,45,45,45,45,45,45,45,0,0,0,0,0,0,0,0,
45,45,45,45,45,45,45,45,0,0,0,0,0,0,0,0,
45,45,45,45,45,45,45,45,0,0,0,0,0,0,0,0,
45,45,45,45,45,45,45,45,0,0,0,0,0,0,0,0,
45,45,45,45,45,45,45,45,0,0,0,0,0,0,0,0
</chunk>
   <chunk x="-160" y="-48" width="16" height="16">
45,45,45,45,45,45,45,45,45,45,45,45,45,45,47,0,
45,45,45,45,45,45,45,45,45,45,45,45,45,45,55,0,
45,45,45,45,45,45,45,45,45,45,45,45,45,45,47,0,
45,45,45,45,45,45,45,45,45,45,45,45,45,45,55,0,
45,45,45,45,45,45,45,45,45,45,45,45,45,45,47,0,
45,45,45,45,45,45,45,45,45,45,45,45,45,45,55,0,
45,45,45,45,45,45,45,45,45,45,45,45,45,45,47,0,
45,45,45,45,45,45,45,45,45,45,45,45,45,45,55,0,
45,45,45,45,45,45,45,45,45,45,45,45,45,45,47,0,
45,45,45,45,45,45,45,45,45,45,45,45,45,45,55,0,
45,45,45,45,45,45,45,45,45,45,45,45,45,45,47,0,
45,45,45,45,45,45,45,45,45,45,45,45,45,45,55,0,
45,45,45,45,45,45,45,45,45,45,45,45,45,45,47,0,
45,45,45,45,45,45,45,45,45,45,45,45,45,45,55,0,
45,45,45,45,45,45,45,45,45,45,45,45,45,45,47,0,
45,45,45,45,45,45,45,45,45,45,45,45,45,45,55,0
</chunk>
   <chunk x="-112" y="-48" width="16" height="16">
0,0,0,0,0,0,0,0,0,0,0,0,0,0,0,0,
0,0,0,0,0,0,0,0,0,0,0,0,0,0,0,0,
0,0,0,0,0,0,0,0,0,0,0,0,0,0,0,0,
0,0,0,0,0,0,0,0,0,0,0,0,0,0,0,0,
0,0,0,0,0,0,0,0,0,0,0,0,0,0,0,0,
0,0,0,0,0,0,0,0,0,0,0,0,0,0,0,0,
0,0,0,0,0,0,0,0,0,0,0,0,0,0,0,0,
0,0,0,0,0,0,0,0,0,0,0,0,0,0,0,0,
0,0,0,0,0,0,0,0,0,0,0,0,0,0,0,0,
0,0,0,0,0,0,0,0,0,0,0,0,0,0,0,0,
0,0,0,0,0,0,0,0,0,0,0,0,0,0,0,0,
0,0,0,0,0,0,0,0,0,0,0,0,0,0,0,0,
0,0,0,0,0,0,0,0,0,0,0,0,0,0,0,0,
0,0,0,0,0,0,0,0,0,0,36,37,37,37,37,37,
0,0,0,0,0,0,0,37,37,37,77,45,45,45,45,45,
0,0,0,0,0,0,60,62,61,62,61,62,61,62,61,62
</chunk>
   <chunk x="-96" y="-48" width="16" height="16">
0,0,52,45,55,0,0,0,0,0,0,0,0,0,0,0,
0,0,44,45,47,0,0,0,0,0,0,0,0,0,0,0,
0,0,52,45,55,0,0,0,0,0,0,0,0,0,0,0,
0,0,44,45,47,0,0,0,0,0,0,0,0,0,0,0,
0,0,52,45,45,37,37,37,37,37,37,37,37,37,37,37,
0,0,44,45,45,45,45,45,45,45,45,45,45,45,45,45,
0,0,52,45,86,61,62,61,62,61,62,61,62,61,62,61,
0,0,44,45,47,0,0,0,0,0,0,0,0,0,0,0,
0,0,52,45,55,0,0,0,0,0,0,0,0,0,0,0,
0,0,44,45,47,0,0,0,0,0,0,0,0,0,0,0,
0,0,52,45,55,0,0,0,0,0,0,0,0,0,0,0,
0,0,44,45,47,0,0,0,0,0,0,0,0,0,0,0,
0,0,52,45,55,0,0,0,0,0,0,0,0,0,0,0,
37,37,77,45,47,0,0,0,0,0,0,0,0,0,0,0,
45,45,45,86,87,0,0,0,0,0,0,0,0,0,0,0,
61,62,61,94,0,0,0,0,0,0,0,0,0,0,0,0
</chunk>
   <chunk x="-80" y="-48" width="16" height="16">
0,0,0,0,0,0,0,0,0,0,0,0,0,0,0,0,
0,0,0,0,0,0,0,0,0,0,0,0,0,0,0,0,
0,0,0,0,0,0,0,0,0,0,0,0,0,0,0,0,
0,0,0,0,0,0,0,0,0,0,0,0,0,0,0,0,
39,0,0,0,0,0,0,0,0,0,0,0,0,0,0,0,
47,0,0,0,0,0,0,0,0,0,0,0,0,0,0,0,
63,0,0,0,0,0,0,0,0,0,0,0,0,0,0,0,
0,0,0,0,0,0,0,0,0,0,0,0,0,0,0,0,
0,0,0,0,0,0,0,0,0,0,0,0,0,0,0,0,
0,0,0,0,0,0,0,0,0,0,0,0,0,0,0,0,
0,0,0,0,0,0,0,0,0,0,0,0,0,0,0,0,
0,0,0,0,0,0,0,0,0,0,0,0,0,0,0,0,
0,0,0,0,0,0,0,0,0,0,0,0,0,0,0,0,
0,0,0,0,0,0,0,0,0,0,0,0,0,0,0,0,
0,0,0,0,0,0,0,0,0,0,0,0,0,0,0,0,
0,0,0,0,0,0,0,0,0,0,0,0,0,0,0,0
</chunk>
   <chunk x="-32" y="-48" width="16" height="16">
0,0,0,0,0,0,0,0,0,0,0,0,0,0,0,0,
0,0,0,0,0,0,0,0,0,0,0,0,0,0,0,0,
0,0,0,0,0,0,0,0,0,0,0,0,0,0,0,0,
0,0,0,0,0,0,0,0,0,0,0,0,0,0,0,0,
0,0,0,0,0,0,0,0,0,0,0,0,0,0,0,0,
0,0,0,0,0,0,0,0,0,0,0,0,0,0,0,0,
0,0,0,0,0,0,0,0,0,0,0,0,0,0,0,0,
0,0,0,0,0,0,0,0,0,0,0,0,0,0,0,0,
0,0,0,0,0,0,0,0,0,0,0,0,0,0,0,0,
0,0,0,0,0,0,0,0,0,0,0,0,0,0,0,0,
0,0,0,0,0,0,36,37,38,37,38,37,38,37,38,37,
0,0,0,0,0,36,77,45,45,45,45,45,45,45,45,45,
0,0,0,0,0,52,45,45,45,45,45,45,45,45,45,45,
0,0,0,0,0,44,45,45,45,45,45,45,45,45,45,45,
0,0,0,0,0,52,45,45,45,45,45,45,45,45,45,45,
0,0,0,0,0,44,45,45,45,45,45,45,45,45,45,45
</chunk>
   <chunk x="-16" y="-48" width="16" height="16">
0,0,0,0,0,0,0,0,0,0,0,0,0,0,0,0,
0,0,0,0,0,0,0,0,0,0,0,0,0,0,0,0,
0,0,0,0,0,0,0,0,0,0,0,0,0,0,0,0,
0,0,0,0,0,0,0,0,0,0,0,0,0,0,0,0,
0,0,0,0,0,0,0,0,0,0,0,0,0,0,0,0,
0,0,0,0,0,0,0,0,0,0,0,0,0,0,0,0,
0,0,0,0,0,0,0,0,0,0,0,0,0,0,0,0,
0,0,0,0,0,0,0,0,0,0,0,0,0,0,0,0,
0,0,0,0,0,0,0,0,0,0,0,0,0,0,0,0,
0,0,0,0,0,0,0,0,0,0,0,0,0,0,0,0,
38,37,38,37,38,37,38,37,38,37,38,37,38,37,38,37,
45,45,45,45,45,45,45,45,45,45,45,45,45,45,45,45,
45,45,45,45,45,45,45,45,45,45,45,45,45,45,45,45,
45,45,45,45,45,45,45,45,45,45,45,45,45,45,45,45,
45,45,45,45,45,45,45,45,45,45,45,45,45,45,45,45,
45,45,45,45,45,45,45,45,45,45,45,45,45,45,45,45
</chunk>
   <chunk x="0" y="-48" width="16" height="16">
0,0,0,0,0,0,0,0,0,0,0,0,0,0,0,0,
0,0,0,0,0,0,0,0,0,0,0,0,0,0,0,0,
0,0,0,0,0,0,0,0,0,0,0,0,0,0,0,0,
0,0,0,0,0,0,0,0,0,0,0,0,0,0,0,0,
0,0,0,0,0,0,0,0,0,0,0,0,0,0,0,0,
0,0,0,0,0,0,0,0,0,0,0,0,0,0,0,0,
0,0,0,0,0,0,0,0,0,0,0,0,0,0,0,0,
0,0,0,0,0,0,0,0,0,0,0,0,0,0,0,0,
0,0,0,0,0,0,0,0,0,0,0,0,0,0,0,0,
0,0,0,0,0,0,0,0,0,0,0,0,0,0,0,0,
38,37,38,37,38,37,38,37,39,0,0,0,0,0,0,0,
45,45,45,45,45,45,45,45,78,37,38,37,38,37,38,37,
45,45,45,45,45,45,45,45,45,45,45,45,45,45,45,45,
45,45,45,45,45,45,45,45,45,45,45,45,45,45,45,45,
45,45,45,45,45,45,45,45,45,45,45,45,45,45,45,45,
45,45,45,45,45,45,45,45,45,45,45,45,45,45,45,45
</chunk>
   <chunk x="16" y="-48" width="16" height="16">
0,0,0,0,0,0,0,0,0,0,0,0,0,0,0,0,
0,0,0,0,0,0,0,0,0,0,0,0,0,0,0,0,
0,0,0,0,0,0,0,0,0,0,0,0,0,0,0,0,
0,0,0,0,0,0,0,0,0,0,0,0,0,0,0,0,
0,0,0,0,0,0,0,0,0,0,0,0,0,0,0,0,
0,0,0,0,0,0,0,0,0,0,0,0,0,0,0,0,
0,0,0,0,0,0,0,0,0,0,0,0,0,0,0,0,
0,0,0,0,0,0,0,0,0,0,0,0,0,0,0,0,
0,0,0,0,0,0,0,0,0,0,0,0,0,0,0,0,
0,0,0,0,0,0,0,0,0,0,0,0,0,0,0,0,
0,0,0,0,0,0,0,0,0,0,0,0,0,0,0,0,
38,37,38,37,38,37,38,37,38,37,38,37,38,37,38,37,
45,45,45,45,45,46,45,46,45,46,45,46,45,46,45,46,
45,45,45,45,53,54,53,54,53,54,53,54,53,54,53,54,
45,45,45,45,45,46,45,46,45,46,45,46,45,46,45,46,
45,45,45,45,53,54,53,54,53,54,53,54,53,54,53,54
</chunk>
   <chunk x="32" y="-48" width="16" height="16">
0,0,0,0,0,0,0,0,0,0,0,0,0,0,0,0,
0,0,0,0,0,0,0,0,0,0,0,0,0,0,0,0,
0,0,0,0,0,0,0,0,0,0,0,0,0,0,0,0,
0,0,0,0,0,0,0,0,0,0,0,0,0,0,0,0,
0,0,0,0,0,0,0,0,0,0,0,0,0,0,0,0,
0,0,0,0,0,0,0,0,0,0,0,0,0,0,0,0,
0,0,0,0,0,0,0,0,0,0,0,0,0,0,0,0,
0,0,0,0,0,0,0,0,0,0,0,0,0,0,0,0,
0,0,0,0,0,0,0,0,0,0,0,0,0,0,0,0,
0,0,0,0,0,0,0,0,0,0,0,0,0,0,0,0,
0,0,0,0,0,0,0,0,0,0,0,0,0,0,0,0,
38,37,37,37,37,37,37,37,37,37,37,37,37,37,37,37,
45,46,46,46,46,46,46,46,46,46,46,46,46,46,46,46,
53,46,46,46,46,46,46,46,46,46,46,46,46,46,46,46,
45,46,46,46,46,46,46,46,46,46,46,46,46,46,46,46,
53,46,46,46,46,46,46,46,46,46,46,46,46,46,46,46
</chunk>
   <chunk x="48" y="-48" width="16" height="16">
0,0,0,0,0,0,0,0,0,0,44,45,45,45,45,45,
0,0,0,0,0,0,0,0,0,0,52,45,45,45,45,45,
0,0,0,0,0,0,0,0,0,0,44,45,45,45,45,45,
0,0,0,0,0,0,0,0,0,0,52,45,45,45,45,45,
0,0,0,0,0,0,0,0,0,0,44,45,45,45,45,45,
0,0,0,0,0,0,0,0,0,0,52,45,45,45,45,45,
0,0,0,0,0,0,0,0,0,0,44,45,45,45,45,45,
0,0,0,0,0,0,0,0,0,0,52,45,45,45,45,45,
0,0,0,0,0,0,0,0,0,0,44,45,45,45,45,45,
0,0,0,0,0,0,0,0,0,0,52,45,45,45,45,45,
0,0,0,0,0,0,0,0,0,0,44,45,45,45,45,45,
37,37,37,37,37,37,37,37,37,37,52,45,45,45,45,45,
46,46,46,46,46,46,46,46,46,46,46,46,46,46,46,45,
46,46,46,46,46,46,46,46,46,46,46,46,46,46,46,45,
46,46,46,46,46,46,46,46,46,46,46,46,46,46,46,45,
46,46,46,46,46,46,46,46,46,46,46,46,46,46,46,45
</chunk>
   <chunk x="64" y="-48" width="16" height="16">
45,45,45,45,45,45,45,45,0,0,0,0,0,0,0,0,
45,45,45,45,45,45,45,45,0,0,0,0,0,0,0,0,
45,45,45,45,45,45,45,45,0,0,0,0,0,0,0,0,
45,45,45,45,45,45,45,45,0,0,0,0,0,0,0,0,
45,45,45,45,45,45,45,45,0,0,0,0,0,0,0,0,
45,45,45,45,45,45,45,45,0,0,0,0,0,0,0,0,
45,45,45,45,45,45,45,45,0,0,0,0,0,0,0,0,
45,45,45,45,45,45,45,45,0,0,0,0,0,0,0,0,
45,45,45,45,45,45,45,45,0,0,0,0,0,0,0,0,
45,45,45,45,45,45,45,45,0,0,0,0,0,0,0,0,
45,45,45,45,45,45,45,45,0,0,0,0,0,0,0,0,
45,45,45,45,45,45,45,45,0,0,0,0,0,0,0,0,
45,45,45,45,45,45,45,45,0,0,0,0,0,0,0,0,
45,45,45,45,45,45,45,45,0,0,0,0,0,0,0,0,
45,45,45,45,45,45,45,45,0,0,0,0,0,0,0,0,
45,45,45,45,45,45,45,45,0,0,0,0,0,0,0,0
</chunk>
   <chunk x="-160" y="-32" width="16" height="16">
45,45,45,45,45,45,45,45,45,45,45,45,45,45,47,0,
45,45,45,45,45,45,45,45,45,45,45,45,45,45,55,0,
45,45,45,45,45,45,45,45,45,45,45,45,45,45,47,0,
45,45,45,45,45,45,45,45,45,45,45,45,45,45,55,0,
45,45,45,45,45,45,45,45,45,45,45,45,45,45,47,0,
45,45,45,45,45,45,45,45,45,45,45,45,45,45,55,0,
45,45,45,45,45,45,45,45,45,45,45,45,45,45,47,0,
45,45,45,45,45,45,45,45,45,45,45,45,45,45,55,0,
45,45,45,45,45,45,45,45,45,45,45,45,45,45,47,0,
45,45,45,45,45,45,45,45,45,45,45,45,45,45,55,0,
45,45,45,45,45,45,45,45,45,45,45,45,45,45,47,0,
45,45,45,45,45,45,45,45,45,45,45,45,45,45,55,0,
45,45,45,45,45,45,45,45,45,45,45,45,45,45,78,37,
45,45,45,45,45,45,45,45,45,45,45,45,45,45,45,45,
45,45,45,45,45,45,45,45,45,45,45,45,45,45,45,45,
45,45,45,45,45,45,45,45,45,45,45,45,45,45,45,45
</chunk>
   <chunk x="-144" y="-32" width="16" height="16">
0,0,0,0,0,0,0,0,0,0,0,0,0,0,0,0,
0,0,0,0,0,0,0,0,0,0,0,0,0,0,0,0,
0,0,0,0,0,0,0,0,0,0,0,0,0,0,0,0,
0,0,0,0,0,0,0,0,0,0,0,0,0,0,0,0,
0,0,0,0,0,0,0,0,0,0,0,0,0,0,0,0,
0,0,0,0,0,0,0,0,0,0,0,0,0,0,0,0,
0,0,0,0,0,0,0,0,0,0,0,0,0,0,0,0,
0,0,0,0,0,0,0,0,0,0,0,0,0,0,0,0,
0,0,0,0,0,0,0,0,0,0,0,0,0,0,0,0,
0,0,0,0,0,0,0,0,0,0,0,0,0,0,0,0,
0,0,0,0,0,0,0,0,0,0,0,0,0,0,0,0,
0,0,0,0,0,0,0,0,0,0,0,0,0,0,0,0,
38,37,38,37,38,37,38,37,38,37,38,37,38,37,38,37,
45,45,45,45,45,45,45,45,45,45,45,45,45,45,45,45,
45,45,45,45,45,45,45,45,45,45,45,45,45,45,45,45,
45,45,45,45,45,45,45,45,45,45,45,45,45,45,45,45
</chunk>
   <chunk x="-128" y="-32" width="16" height="16">
0,0,0,0,0,0,0,0,0,0,0,0,0,0,0,0,
0,0,0,0,0,0,0,0,0,0,0,0,0,0,0,0,
0,0,0,0,0,0,0,0,0,0,0,0,0,0,0,0,
0,0,0,0,0,0,0,0,0,0,0,0,0,0,0,0,
0,0,0,0,0,0,0,0,0,0,0,0,0,0,0,0,
0,0,0,0,0,0,0,0,0,0,0,0,0,0,0,0,
0,0,0,0,0,0,0,0,0,0,0,0,0,0,0,0,
0,0,0,0,0,0,0,0,0,0,0,0,0,0,0,0,
0,0,0,0,0,0,0,0,0,0,0,0,0,0,0,0,
0,0,0,0,0,0,0,0,0,0,0,0,0,0,0,0,
0,0,0,0,0,0,0,0,0,0,0,0,0,0,0,0,
0,0,0,0,0,0,0,0,0,0,0,0,0,0,0,0,
38,37,38,37,38,37,38,37,39,0,0,0,0,0,0,0,
45,45,45,45,45,45,45,45,47,0,0,0,0,0,0,0,
45,45,45,45,45,45,45,45,55,0,0,0,0,0,0,0,
45,45,45,45,45,45,45,45,47,0,0,0,0,0,0,0
</chunk>
   <chunk x="-96" y="-32" width="16" height="16">
0,0,0,0,0,0,0,0,0,0,0,0,0,0,0,0,
0,0,0,0,0,0,0,0,0,0,0,0,0,0,0,0,
0,0,0,0,0,0,0,0,0,0,0,0,0,0,0,0,
0,0,0,0,0,0,0,0,0,0,0,0,0,0,0,0,
0,0,0,0,0,0,0,0,0,0,0,0,0,0,0,0,
0,0,0,0,0,0,0,0,0,0,0,0,0,0,0,0,
0,0,0,0,0,0,0,0,0,0,0,0,0,0,0,0,
0,0,0,0,0,0,0,0,0,36,37,39,0,0,0,0,
0,0,0,0,0,0,0,0,0,44,45,47,0,0,0,0,
0,0,0,0,0,0,0,0,0,52,45,78,37,37,37,37,
0,0,0,0,0,0,0,0,0,60,62,61,62,61,62,61,
0,0,0,0,0,0,0,0,0,0,0,0,0,0,0,0,
0,0,0,0,0,0,0,0,0,0,0,0,0,0,0,0,
0,0,0,0,0,0,0,0,0,0,0,0,0,0,0,0,
0,0,0,0,0,0,0,0,0,0,0,0,0,0,0,0,
0,0,0,0,0,0,0,0,0,0,0,0,0,0,0,0
</chunk>
   <chunk x="-80" y="-32" width="16" height="16">
0,0,0,0,0,0,0,0,0,0,0,0,0,0,0,0,
0,0,0,0,0,0,0,0,0,0,0,0,0,0,0,0,
0,0,0,0,0,0,0,0,0,0,0,0,0,0,0,0,
0,0,0,0,0,0,0,0,0,0,0,0,0,0,0,0,
0,0,0,0,0,0,0,0,0,0,0,0,0,0,0,0,
0,0,0,0,0,0,0,0,0,0,0,0,0,0,0,0,
0,0,0,0,0,0,0,0,0,0,0,0,0,0,0,0,
0,0,0,0,0,0,0,0,0,0,0,36,37,39,0,0,
0,0,0,0,0,0,0,0,0,0,0,44,45,55,0,0,
37,37,37,37,37,37,37,37,37,37,37,77,45,47,0,0,
62,61,62,61,62,61,62,61,62,61,62,61,62,63,0,0,
0,0,0,0,0,0,0,0,0,0,0,0,0,0,0,0,
0,0,0,0,0,0,0,0,0,0,0,0,0,0,0,0,
0,0,0,0,0,0,0,0,0,0,0,0,0,0,0,0,
0,0,0,0,0,0,0,0,0,0,0,0,0,0,0,0,
0,0,0,0,0,0,0,0,0,0,0,0,0,0,0,0
</chunk>
   <chunk x="-64" y="-32" width="16" height="16">
0,0,0,0,0,0,0,0,0,0,0,0,0,0,0,0,
0,0,0,0,0,0,0,0,0,0,0,0,0,0,0,0,
0,0,0,0,0,0,0,0,0,0,0,0,0,0,0,0,
0,0,0,0,0,0,0,0,0,0,0,0,0,0,0,0,
0,0,0,0,0,0,0,0,0,0,0,0,0,0,0,0,
0,0,0,0,0,0,0,0,0,0,0,0,0,0,0,0,
0,0,0,0,0,0,0,0,0,0,0,0,0,0,0,0,
0,0,0,0,0,0,0,0,0,0,0,0,0,0,0,0,
0,0,0,0,0,0,0,0,0,0,0,0,0,0,0,0,
0,0,0,0,0,0,0,0,0,0,0,0,0,0,0,0,
0,0,0,0,0,0,0,0,0,0,0,0,0,0,0,0,
0,0,0,0,0,0,0,0,0,36,37,37,37,37,37,37,
0,0,0,36,37,37,37,37,37,77,45,45,45,45,45,45,
0,0,0,44,45,45,45,45,45,45,45,45,45,45,45,45,
0,0,0,52,45,45,45,45,45,45,45,45,45,45,45,45,
0,0,0,44,45,45,45,45,45,45,45,45,45,45,45,45
</chunk>
   <chunk x="-48" y="-32" width="16" height="16">
0,0,0,0,0,0,0,0,0,0,0,0,0,0,0,0,
0,0,0,0,0,0,0,0,0,0,0,0,0,0,0,0,
0,0,0,0,0,0,0,0,0,0,0,0,0,0,0,0,
0,0,0,0,0,0,0,0,0,0,0,0,0,0,0,0,
0,0,0,0,0,0,0,0,0,0,0,0,0,0,0,0,
0,0,0,0,0,0,0,0,0,0,0,0,0,0,0,0,
0,0,0,0,0,0,0,0,0,0,0,0,0,0,0,0,
0,0,0,0,0,0,0,0,0,0,0,0,0,0,0,0,
0,0,0,0,0,0,0,0,0,0,0,0,0,0,0,0,
0,0,0,0,0,0,0,0,0,0,0,0,0,0,0,0,
0,0,0,0,0,0,0,0,0,0,0,0,0,0,0,0,
37,37,37,37,37,37,37,37,37,37,37,37,37,37,37,37,
45,45,45,45,45,45,45,45,45,45,45,45,45,45,45,45,
45,45,45,45,45,45,45,45,45,45,45,45,45,45,45,45,
45,45,45,45,45,45,45,45,45,45,45,45,45,45,45,45,
45,45,45,45,45,45,45,45,45,45,45,45,45,45,45,45
</chunk>
   <chunk x="-32" y="-32" width="16" height="16">
0,0,0,0,0,52,45,45,45,45,45,45,45,45,45,45,
0,0,0,0,0,44,45,45,45,45,45,45,45,45,45,45,
0,0,0,0,0,52,45,45,45,45,45,45,45,45,45,45,
0,0,0,0,0,44,45,45,45,45,45,45,45,45,45,45,
0,0,0,0,0,52,45,45,45,45,45,45,45,45,45,45,
0,0,0,0,0,44,45,45,45,45,45,45,45,45,45,45,
0,0,0,0,0,52,45,45,45,45,45,45,45,45,45,45,
0,0,0,0,0,44,45,45,45,45,45,45,45,45,45,45,
0,0,0,0,0,52,45,45,45,45,45,45,45,45,45,45,
0,0,0,0,0,44,45,45,45,45,45,45,45,45,45,45,
0,0,0,0,0,52,45,45,45,45,45,45,45,45,45,45,
37,37,37,37,37,77,45,45,45,45,45,45,45,45,45,45,
45,45,45,45,45,45,45,45,45,45,45,45,45,45,45,45,
45,45,45,45,45,45,45,45,45,45,45,45,45,45,45,45,
45,45,45,45,45,45,45,45,45,45,45,45,45,45,45,45,
45,45,45,45,45,45,45,45,45,45,45,45,45,45,45,45
</chunk>
   <chunk x="-16" y="-32" width="16" height="16">
45,45,45,45,45,45,45,45,45,45,45,45,45,45,45,45,
45,45,45,45,45,45,45,45,45,45,45,45,45,45,45,45,
45,45,45,45,45,45,45,45,45,45,45,45,45,45,45,45,
45,45,45,45,45,45,45,45,45,45,45,45,45,45,45,45,
45,45,45,45,45,45,45,45,45,45,45,45,45,45,45,45,
45,45,45,45,45,45,45,45,45,45,45,45,45,45,45,45,
45,45,45,45,45,45,45,45,45,45,45,45,45,45,45,45,
45,45,45,45,45,45,45,45,45,45,45,45,45,45,45,45,
45,45,45,45,45,45,45,45,45,45,45,45,45,45,45,45,
45,45,45,45,45,45,45,45,45,45,45,45,45,45,45,45,
45,45,45,45,45,45,45,45,45,45,45,45,45,45,45,45,
45,45,45,45,45,45,45,45,45,45,45,45,45,45,45,45,
45,45,45,45,45,45,45,45,45,45,45,45,45,45,45,45,
45,45,45,45,45,45,45,45,45,45,45,45,45,45,45,45,
45,45,45,45,45,45,45,45,45,45,45,45,45,45,45,45,
45,45,45,45,45,45,45,45,45,45,45,45,45,45,45,45
</chunk>
   <chunk x="0" y="-32" width="16" height="16">
45,45,45,45,45,45,45,45,45,45,45,45,45,45,45,45,
45,45,45,45,45,45,45,45,45,45,45,45,45,45,45,45,
45,45,45,45,45,45,45,45,45,45,45,45,45,45,45,45,
45,45,45,45,45,45,45,45,45,45,45,45,45,45,45,45,
45,45,45,45,45,45,45,45,45,45,45,45,45,45,45,45,
45,45,45,45,45,45,45,45,45,45,45,45,45,45,45,45,
45,45,45,45,45,45,45,45,45,45,45,45,45,45,45,45,
45,45,45,45,45,45,45,45,45,45,45,45,45,45,45,45,
45,45,45,45,45,45,45,45,45,45,45,45,45,45,45,45,
45,45,45,45,45,45,45,45,45,45,45,45,45,45,45,45,
45,45,45,45,45,45,45,45,45,45,45,45,45,45,45,45,
45,45,45,45,45,45,45,45,45,45,45,45,45,45,45,45,
45,45,45,45,45,45,45,45,45,45,45,45,45,45,45,45,
45,45,45,45,45,45,45,45,45,45,45,45,45,45,45,45,
45,45,45,45,45,45,45,45,45,45,45,45,45,45,45,45,
45,45,45,45,45,45,45,45,45,45,45,45,45,45,45,45
</chunk>
   <chunk x="16" y="-32" width="16" height="16">
45,45,45,45,45,46,45,46,45,46,45,46,45,46,45,46,
45,45,45,45,53,54,53,54,53,54,53,54,53,54,53,54,
45,45,45,45,45,46,45,46,45,46,45,46,45,46,45,46,
45,45,45,45,53,54,53,54,53,54,53,54,53,54,53,54,
45,45,45,45,45,46,45,46,45,46,45,46,45,46,45,46,
45,45,45,45,53,54,53,54,53,54,53,54,53,54,53,86,
45,45,45,86,62,62,62,62,62,62,62,62,62,62,62,63,
45,45,45,47,0,0,0,0,0,0,0,0,0,0,0,0,
45,45,45,55,0,0,0,0,0,0,0,0,0,0,0,0,
45,45,45,47,0,0,0,0,0,0,0,0,0,0,0,0,
45,45,45,55,0,0,0,0,0,0,0,0,0,0,0,0,
45,45,45,47,0,0,0,0,0,0,0,0,0,0,0,0,
45,45,45,55,0,0,0,0,0,0,0,0,0,0,0,0,
45,45,45,47,0,0,0,0,0,0,0,0,0,0,0,0,
45,45,45,55,0,0,0,0,0,0,0,0,0,0,0,0,
45,45,45,47,0,0,0,0,0,0,0,0,0,0,0,0
</chunk>
   <chunk x="32" y="-32" width="16" height="16">
45,46,46,46,46,46,46,46,46,46,46,46,46,46,46,46,
53,46,46,46,46,46,46,46,46,46,46,46,46,46,46,46,
45,46,46,46,46,46,46,46,46,46,46,46,46,46,46,46,
53,46,46,46,46,46,46,46,46,46,46,46,46,46,46,46,
86,46,46,46,46,46,46,46,46,46,46,46,46,46,46,46,
63,46,46,46,46,46,46,46,46,46,46,46,46,46,46,46,
0,46,46,46,46,46,46,46,46,46,46,46,46,46,46,46,
0,0,0,0,0,0,0,0,0,0,0,0,0,0,0,0,
0,0,0,0,0,0,0,0,0,0,0,0,0,0,0,0,
0,0,0,0,0,0,0,0,0,0,0,0,0,0,0,0,
0,0,0,0,0,0,0,0,0,0,0,0,0,0,0,0,
0,0,0,0,0,0,0,0,0,0,0,0,0,0,0,0,
0,0,0,0,0,0,0,0,0,0,0,0,0,0,0,0,
0,0,0,0,0,0,0,0,0,0,0,0,0,0,0,0,
0,0,0,0,0,0,0,0,0,0,0,0,0,0,0,0,
0,0,0,0,0,0,0,0,0,0,0,0,0,0,0,0
</chunk>
   <chunk x="48" y="-32" width="16" height="16">
46,46,46,46,46,46,46,46,46,46,46,46,46,46,46,45,
46,46,46,46,46,46,46,46,46,46,46,46,46,46,46,45,
46,46,46,46,46,46,46,46,46,46,46,46,46,46,46,45,
46,46,46,46,46,46,46,46,46,46,46,46,46,46,46,45,
46,46,46,46,46,46,46,46,46,46,46,46,46,46,46,45,
46,46,46,46,46,46,46,46,46,46,46,46,46,46,46,45,
46,46,46,46,46,46,46,46,46,46,46,46,46,46,46,61,
0,0,0,0,0,0,0,0,0,0,0,0,0,0,0,0,
0,0,0,0,0,0,0,0,0,0,0,0,0,0,0,0,
0,0,0,0,0,0,0,0,0,0,0,0,0,0,0,0,
0,0,0,0,0,0,0,0,0,0,0,0,0,0,0,0,
0,0,0,0,0,0,0,0,0,0,0,0,0,0,0,0,
0,0,0,0,0,0,0,0,0,0,0,0,0,0,0,0,
0,0,0,0,0,0,0,0,0,0,0,0,0,0,0,0,
0,0,0,0,0,0,0,0,0,0,0,0,0,0,0,0,
0,0,0,0,0,0,0,0,0,0,0,0,0,0,0,0
</chunk>
   <chunk x="64" y="-32" width="16" height="16">
45,45,45,45,45,45,45,45,0,0,0,0,0,0,0,0,
45,45,45,45,45,45,45,45,0,0,0,0,0,0,0,0,
45,45,45,45,45,45,45,45,0,0,0,0,0,0,0,0,
45,45,45,45,45,45,45,45,0,0,0,0,0,0,0,0,
45,45,45,45,45,45,45,45,0,0,0,0,0,0,0,0,
45,45,45,45,45,45,45,45,0,0,0,0,0,0,0,0,
61,61,61,61,61,61,61,61,0,0,0,0,0,0,0,0,
0,0,0,0,0,0,0,0,0,0,0,0,0,0,0,0,
0,0,0,0,0,0,0,0,0,0,0,0,0,0,0,0,
0,0,0,0,0,0,0,0,0,0,0,0,0,0,0,0,
0,0,0,0,0,0,0,0,0,0,0,0,0,0,0,0,
0,0,0,0,0,0,0,0,0,0,0,0,0,0,0,0,
0,0,0,0,0,0,0,0,0,0,0,0,0,0,0,0,
0,0,0,0,0,0,0,0,0,0,0,0,0,0,0,0,
0,0,0,0,0,0,0,0,0,0,0,0,0,0,0,0,
0,0,0,0,0,0,0,0,0,0,0,0,0,0,0,0
</chunk>
   <chunk x="-160" y="-16" width="16" height="16">
45,45,45,45,45,45,45,45,45,45,45,45,45,45,45,45,
45,45,45,45,45,45,45,45,45,45,45,45,45,45,45,45,
45,45,45,45,45,45,45,45,45,45,45,45,45,45,45,45,
45,45,45,45,45,45,45,45,45,45,45,45,45,45,45,45,
45,45,45,45,45,45,45,45,45,45,45,45,45,45,45,45,
45,45,45,45,45,45,45,45,45,45,45,45,45,45,45,45,
45,45,45,45,45,45,45,45,45,45,45,45,45,45,45,45,
45,45,45,45,45,45,45,45,45,45,45,45,45,45,45,45,
45,45,45,45,45,45,45,45,45,45,45,45,45,45,45,45,
45,45,45,45,45,45,45,45,45,45,45,45,45,45,45,45,
45,45,45,45,45,45,45,45,45,45,45,45,45,45,45,45,
45,45,45,45,45,45,45,45,45,45,45,45,45,45,45,45,
45,45,45,45,45,45,45,45,45,45,45,45,45,45,45,45,
45,45,45,45,45,45,45,45,45,45,45,45,45,45,45,45,
45,45,45,45,45,45,45,45,45,45,45,45,45,45,45,45,
45,45,45,45,45,45,45,45,45,45,45,45,45,45,45,45
</chunk>
   <chunk x="-144" y="-16" width="16" height="16">
45,45,45,45,45,45,45,45,45,45,45,45,45,45,45,45,
45,45,45,45,45,45,45,45,45,45,45,45,45,45,45,45,
45,45,45,45,45,86,61,62,61,62,61,62,61,62,61,62,
45,45,45,45,86,87,0,0,0,0,0,0,0,0,0,0,
45,45,45,86,87,0,0,0,0,0,0,0,0,0,0,0,
45,45,86,94,0,0,0,0,0,0,0,0,0,0,0,0,
45,45,47,0,0,0,0,0,0,0,0,0,0,0,0,0,
45,45,55,0,0,0,0,0,0,0,0,0,0,0,0,0,
45,45,47,0,0,0,0,0,0,0,0,0,0,0,0,0,
45,45,55,0,0,0,0,0,0,0,0,0,0,0,0,0,
45,45,47,0,0,0,0,0,0,0,0,0,0,0,0,0,
45,45,55,0,0,0,0,0,0,0,0,0,0,0,0,0,
45,45,47,0,0,0,0,0,0,0,0,0,0,0,0,0,
45,45,55,0,0,0,0,0,0,0,0,0,0,0,0,0,
45,45,47,0,0,0,0,0,0,0,0,0,0,0,0,0,
45,45,55,0,0,0,0,0,0,0,0,0,0,0,0,0
</chunk>
   <chunk x="-128" y="-16" width="16" height="16">
45,45,45,45,45,45,45,45,55,0,0,0,0,0,0,0,
45,45,45,45,45,45,45,45,47,0,0,0,0,0,0,0,
61,62,61,62,61,62,61,62,63,0,0,0,0,0,0,0,
0,0,0,0,0,0,0,0,0,0,0,0,0,0,0,0,
0,0,0,0,0,0,0,0,0,0,0,0,0,0,0,0,
0,0,0,0,0,0,0,0,0,0,0,0,0,0,0,0,
0,0,0,0,0,0,0,0,0,0,0,0,0,0,0,0,
0,0,0,0,0,0,0,0,0,0,0,0,0,0,0,0,
0,0,0,0,0,0,0,0,0,0,0,0,0,0,0,0,
0,0,0,0,0,0,0,0,0,0,0,0,0,0,0,0,
0,0,0,0,0,0,0,0,0,0,0,0,0,0,0,0,
0,0,0,0,0,0,0,0,0,0,0,0,0,0,0,0,
0,0,0,0,0,0,0,0,0,0,0,0,0,0,0,0,
0,0,0,0,0,0,0,0,0,0,0,0,0,0,0,0,
0,0,0,0,0,0,0,0,0,0,0,0,0,0,0,0,
0,0,0,0,0,0,0,0,0,0,0,0,0,0,0,0
</chunk>
   <chunk x="-80" y="-16" width="16" height="16">
0,0,0,0,0,0,0,0,0,0,0,0,0,0,0,0,
0,0,0,0,0,0,0,0,0,0,0,0,0,0,0,0,
0,0,0,0,0,0,0,0,0,0,0,0,0,0,0,0,
0,0,0,0,0,0,0,0,0,0,0,0,0,0,0,0,
0,0,0,0,0,0,0,0,0,0,0,0,0,0,0,0,
0,0,0,0,0,0,0,0,0,0,0,0,0,0,0,0,
0,0,0,0,0,0,0,0,0,0,0,0,0,0,0,0,
0,0,0,0,0,0,0,0,0,0,0,0,0,0,0,0,
0,0,0,0,0,0,0,0,0,0,0,0,0,0,0,0,
0,0,0,0,0,0,0,0,0,0,0,0,0,0,0,0,
0,0,0,0,0,0,0,0,0,0,0,0,0,0,0,0,
0,0,0,0,0,0,0,0,0,0,0,36,38,39,0,0,
0,0,0,0,0,0,0,0,0,0,0,44,45,47,0,0,
0,0,0,0,0,0,0,0,0,0,0,52,45,78,37,39,
0,0,0,0,0,0,0,0,0,0,0,60,61,62,61,63,
0,0,0,0,0,0,0,0,0,0,0,0,0,0,0,0
</chunk>
   <chunk x="-64" y="-16" width="16" height="16">
0,0,0,60,61,61,61,61,61,61,61,61,61,61,61,61,
0,0,0,0,0,0,0,0,0,0,0,0,0,0,0,0,
0,0,0,0,0,0,0,0,0,0,0,0,0,0,0,0,
0,0,0,0,0,0,0,0,0,0,0,0,0,0,0,0,
0,0,0,0,0,0,0,0,0,0,0,0,0,0,0,0,
0,0,0,0,0,0,0,0,0,0,0,0,0,0,0,0,
0,0,0,0,0,0,0,0,0,0,0,0,0,0,0,0,
0,0,0,0,0,0,0,0,0,0,0,0,0,0,0,0,
0,0,0,0,0,0,0,0,0,0,0,0,0,0,0,0,
0,0,0,0,0,0,0,0,0,0,0,0,0,0,0,0,
0,0,0,0,0,0,0,0,0,0,0,0,0,0,0,0,
0,0,0,0,0,0,0,0,0,0,0,0,36,38,39,0,
0,0,0,0,0,0,0,0,0,0,0,0,52,45,47,0,
0,0,0,0,0,0,0,0,0,0,36,38,77,45,55,0,
0,0,0,0,0,0,0,0,0,0,60,61,62,61,63,0,
0,0,0,0,0,0,0,0,0,0,0,0,0,0,0,0
</chunk>
   <chunk x="-48" y="-16" width="16" height="16">
61,61,61,61,61,61,61,61,61,85,45,45,45,45,45,45,
0,0,0,0,0,0,0,0,0,84,85,45,45,45,45,45,
0,0,0,0,0,0,0,0,0,0,93,85,45,45,45,45,
0,0,0,0,0,0,0,0,0,0,0,44,45,45,45,45,
0,0,0,0,0,0,0,0,0,0,0,44,45,45,45,45,
0,0,0,0,0,0,0,0,0,0,0,60,61,61,61,61,
0,0,0,0,0,0,0,0,0,0,0,0,0,0,0,0,
0,0,0,0,0,0,0,0,0,0,0,0,0,0,0,0,
0,0,0,0,0,0,0,0,0,0,0,0,0,0,0,0,
0,0,0,0,0,0,0,0,0,0,0,0,0,0,0,0,
0,0,0,0,0,0,0,0,0,0,0,0,0,0,0,0,
0,0,0,0,0,0,0,0,0,0,0,0,0,0,0,0,
0,0,0,0,0,0,0,0,0,0,0,0,0,0,0,0,
0,0,0,0,0,0,0,0,0,0,0,0,0,0,0,0,
0,0,0,0,0,0,0,0,0,0,0,36,37,37,37,37,
0,0,0,0,0,0,0,0,0,0,0,44,45,45,45,45
</chunk>
   <chunk x="-32" y="-16" width="16" height="16">
45,45,45,45,45,45,45,45,45,45,45,45,45,45,45,45,
45,45,45,45,45,45,45,45,45,45,45,45,45,45,45,45,
45,45,45,45,45,45,45,45,45,45,45,45,45,45,45,45,
45,45,45,45,45,45,45,45,45,45,45,45,45,45,45,45,
45,45,45,45,45,45,45,45,45,45,45,45,45,45,45,45,
61,61,61,61,61,61,61,61,61,61,61,61,61,61,61,61,
0,0,0,0,0,0,0,0,0,0,0,0,0,0,0,0,
0,0,0,0,0,0,0,0,0,0,0,0,0,0,0,0,
0,0,0,0,0,0,0,0,0,0,0,0,0,0,0,0,
0,0,0,0,0,0,0,0,0,0,0,0,0,0,0,0,
0,0,0,0,0,0,0,0,0,0,0,0,0,0,0,0,
0,0,0,0,0,0,0,0,0,0,0,0,0,0,0,0,
0,0,0,0,0,0,0,0,0,0,0,0,0,0,0,0,
0,0,0,0,0,0,0,0,0,0,0,0,0,0,0,0,
37,37,37,37,37,37,37,37,37,37,37,37,37,37,37,37,
45,45,45,45,45,45,45,45,45,45,45,45,45,45,45,45
</chunk>
   <chunk x="-16" y="-16" width="16" height="16">
45,45,45,45,45,45,45,45,45,45,45,45,45,45,45,45,
45,45,45,45,45,45,45,45,45,45,45,45,45,45,45,45,
45,45,45,45,45,45,45,45,45,45,45,45,45,45,45,45,
45,45,45,45,45,45,45,45,45,45,45,45,45,45,45,45,
45,45,45,45,45,45,45,45,45,45,45,45,45,45,45,45,
61,85,45,45,45,45,45,45,45,45,45,45,45,45,45,45,
0,44,45,45,45,45,45,45,45,45,45,45,45,45,45,45,
0,52,45,45,45,45,45,45,45,45,45,45,45,45,45,45,
0,44,45,45,45,45,45,45,45,45,45,45,45,45,45,45,
0,52,45,45,45,45,45,45,45,45,45,45,45,45,45,45,
0,44,45,45,45,45,45,45,45,45,45,45,45,45,45,45,
0,52,45,45,45,45,45,45,45,45,45,45,45,45,45,45,
0,44,45,45,45,45,45,45,45,45,45,45,45,45,45,45,
0,52,45,45,45,45,45,45,45,45,45,45,45,45,45,45,
37,77,45,45,45,45,45,45,45,45,45,45,45,45,45,45,
45,45,45,45,45,45,45,45,45,45,45,45,45,45,45,45
</chunk>
   <chunk x="0" y="-16" width="16" height="16">
45,45,45,45,45,45,45,45,45,45,45,45,45,45,45,45,
45,45,45,45,45,45,45,45,45,45,45,45,45,45,45,45,
45,45,45,45,45,45,45,45,45,45,45,45,45,45,45,45,
45,45,45,45,45,45,45,45,45,45,45,45,45,45,45,45,
45,45,45,45,45,45,45,45,45,45,45,45,45,45,45,45,
45,45,45,45,45,45,45,45,45,45,45,45,45,45,45,45,
45,45,45,45,45,45,45,45,45,45,45,45,45,45,45,45,
45,45,45,45,45,45,45,45,45,45,45,45,45,45,45,45,
45,45,45,45,45,45,45,45,45,45,45,45,45,45,45,45,
45,45,45,45,45,45,45,45,45,45,45,45,45,45,45,45,
45,45,45,45,45,45,45,45,45,45,45,45,45,45,45,45,
45,45,45,45,45,45,45,45,45,45,45,45,45,45,45,45,
45,45,45,45,45,45,45,45,45,45,45,45,45,45,45,45,
45,45,45,45,45,45,45,45,45,45,45,45,45,45,45,45,
45,45,45,45,45,45,45,45,45,45,45,45,45,45,45,45,
45,45,45,45,45,45,45,45,45,45,45,45,45,45,45,45
</chunk>
   <chunk x="16" y="-16" width="16" height="16">
45,45,45,55,0,0,0,0,0,0,0,0,0,0,0,0,
45,45,45,47,0,0,0,0,0,0,0,0,0,0,0,0,
45,45,45,55,0,0,0,0,0,0,0,0,0,0,0,0,
45,45,45,47,0,0,0,0,0,0,0,0,0,0,0,0,
45,45,45,55,0,0,0,0,0,0,0,0,0,0,0,0,
45,45,45,47,0,0,0,0,0,0,0,0,0,0,0,0,
45,45,45,55,0,0,0,0,0,0,0,0,0,0,0,0,
45,45,45,47,0,0,0,0,0,0,0,0,0,0,0,0,
45,45,45,55,0,0,0,0,0,0,0,0,0,0,0,0,
45,45,45,47,0,0,0,0,0,0,0,0,0,0,0,0,
45,45,45,55,0,0,0,0,0,0,0,0,0,0,0,0,
45,45,45,47,0,0,0,0,0,0,0,0,0,0,0,0,
45,45,45,55,0,0,0,0,0,0,0,0,0,0,0,0,
45,45,45,47,0,0,0,0,0,0,0,0,0,0,0,0,
45,45,45,55,0,0,0,0,0,0,0,0,0,0,0,0,
45,45,45,47,0,0,0,0,0,0,0,0,0,0,0,0
</chunk>
   <chunk x="-160" y="0" width="16" height="16">
45,45,45,45,45,45,45,45,45,45,45,45,45,45,45,45,
45,45,45,45,45,45,45,45,45,45,45,45,45,45,45,45,
45,45,45,45,45,45,45,45,45,45,45,45,45,45,45,45,
45,45,45,45,45,45,45,45,45,45,45,45,45,45,45,45,
45,45,45,45,45,45,45,45,45,45,45,45,45,45,45,45,
45,45,45,45,45,45,45,45,45,45,45,45,45,45,45,45,
45,45,45,45,45,45,45,45,45,45,45,45,45,45,45,45,
45,45,45,45,45,45,45,45,45,45,45,45,45,45,45,45,
45,45,45,45,45,45,45,45,45,45,45,45,45,45,45,45,
45,45,45,45,86,61,62,61,62,61,62,61,62,61,62,61,
45,45,45,45,47,0,0,0,0,0,0,0,0,0,0,0,
45,45,45,45,55,0,0,0,0,0,0,0,0,0,0,0,
45,45,45,45,47,0,0,0,0,0,0,0,0,0,0,0,
45,45,45,45,55,0,0,0,0,0,0,0,0,0,0,0,
45,45,45,45,47,0,0,0,0,0,0,0,0,0,0,0,
45,45,45,45,55,0,0,0,0,0,0,0,0,0,0,0
</chunk>
   <chunk x="-144" y="0" width="16" height="16">
45,45,47,0,0,0,0,0,0,0,0,0,0,0,0,0,
45,45,55,0,0,0,0,0,0,0,0,0,0,0,0,0,
45,45,47,0,0,0,0,0,0,0,0,0,0,0,0,0,
45,45,55,0,0,0,0,0,0,0,0,0,0,0,0,0,
45,45,47,0,0,0,0,0,0,0,0,0,0,0,0,0,
45,45,55,0,0,0,0,0,0,0,0,0,0,0,0,0,
45,45,47,0,0,0,0,0,0,0,0,0,0,0,0,0,
45,45,55,0,0,0,0,0,0,0,0,0,0,0,0,0,
45,45,47,0,0,0,0,0,0,0,0,0,0,0,0,0,
62,61,63,0,0,0,0,0,0,0,0,0,0,0,0,0,
0,0,0,0,0,0,0,0,0,0,0,0,0,0,0,0,
0,0,0,0,0,0,0,0,0,0,0,0,0,0,0,0,
0,0,0,0,0,0,0,0,0,0,0,0,0,0,0,0,
0,0,0,0,0,0,0,0,0,0,0,0,0,0,0,0,
0,0,0,0,0,0,0,0,0,0,0,0,0,0,0,0,
0,0,0,0,0,0,0,0,0,0,0,0,0,0,0,0
</chunk>
   <chunk x="-128" y="0" width="16" height="16">
0,0,0,0,0,0,0,0,0,0,0,0,0,0,0,0,
0,0,0,0,0,0,0,0,0,0,0,0,0,0,0,0,
0,0,0,0,0,0,0,0,0,0,0,0,0,0,0,0,
0,0,0,0,0,0,0,0,0,0,0,0,0,0,0,0,
0,0,0,0,0,0,0,0,0,0,0,0,0,0,0,0,
0,0,0,0,0,0,0,0,0,0,0,0,0,0,0,0,
0,0,0,0,0,0,0,0,0,0,0,0,0,0,0,0,
0,0,0,0,0,0,0,0,0,0,0,0,0,0,0,0,
0,0,0,0,0,0,0,0,0,0,0,0,0,0,0,0,
0,0,0,0,0,0,0,0,0,0,0,0,0,0,0,0,
0,0,0,0,0,0,0,0,0,0,0,0,0,36,38,37,
0,0,0,0,0,0,0,0,0,0,0,0,0,44,45,45,
0,0,0,0,0,0,0,0,0,0,0,0,0,60,61,62,
0,0,0,0,0,0,0,0,0,0,0,0,0,0,0,0,
0,0,0,0,0,0,0,0,0,0,0,0,0,0,0,0,
0,0,0,0,0,0,0,0,0,0,0,0,0,0,0,0
</chunk>
   <chunk x="-112" y="0" width="16" height="16">
0,0,0,0,0,0,0,0,0,0,0,0,0,0,0,0,
0,0,0,0,0,0,0,0,0,0,0,0,0,0,0,0,
0,0,0,0,0,0,0,0,0,0,0,0,0,0,0,0,
0,0,0,0,0,0,0,0,0,0,0,0,0,0,0,0,
0,0,0,0,0,0,0,0,0,0,0,0,0,0,0,0,
0,0,0,0,0,0,0,0,0,0,0,0,0,0,0,0,
0,0,0,0,0,0,0,0,0,0,0,0,0,0,0,0,
0,0,0,0,0,0,0,0,0,0,0,0,0,0,0,0,
0,0,0,0,0,0,0,0,0,0,0,0,0,0,0,0,
0,0,0,0,0,0,0,0,0,0,0,0,0,0,0,0,
38,37,38,37,38,37,38,37,38,37,38,37,39,0,0,0,
45,45,45,45,45,45,45,45,45,45,45,45,47,0,0,0,
61,62,61,62,61,62,61,62,85,45,45,45,55,0,0,0,
0,0,0,0,0,0,0,0,84,85,45,45,47,0,0,0,
0,0,0,0,0,0,0,0,0,93,85,45,55,0,0,0,
0,0,0,0,0,0,0,0,0,0,44,45,47,0,0,0
</chunk>
   <chunk x="-80" y="0" width="16" height="16">
0,0,0,0,0,0,0,0,0,0,0,0,0,0,0,0,
0,0,0,0,0,0,0,0,0,0,0,0,0,0,0,0,
0,0,0,0,0,0,0,0,0,0,0,0,0,0,0,0,
0,0,0,0,0,0,0,0,0,0,0,0,0,0,0,0,
0,0,0,0,0,0,0,0,0,0,0,0,0,0,0,0,
0,0,0,0,0,0,0,0,0,0,0,0,0,0,0,0,
0,0,0,0,0,0,0,0,0,0,0,0,0,0,0,0,
0,0,0,0,0,0,0,0,0,0,0,0,0,0,0,0,
0,0,0,0,0,0,0,0,0,0,0,0,0,0,0,0,
0,0,0,0,0,0,0,0,0,0,0,0,0,0,0,0,
0,0,0,0,0,0,0,0,0,0,0,0,0,0,0,0,
0,0,0,0,0,0,0,0,0,0,0,0,0,0,0,36,
0,0,0,0,0,0,0,0,0,0,0,0,0,0,0,44,
0,0,0,0,0,0,0,0,0,0,0,0,0,0,0,60,
0,0,0,0,0,0,0,0,0,0,0,0,0,0,0,0,
0,0,0,0,0,0,0,0,0,0,0,0,0,0,0,0
</chunk>
   <chunk x="-64" y="0" width="16" height="16">
0,0,0,0,0,0,0,0,0,0,0,0,0,0,0,0,
0,0,0,0,0,0,0,0,0,0,0,0,0,0,0,0,
0,0,0,0,0,0,0,0,0,0,0,0,0,0,0,0,
0,0,0,0,0,0,0,0,0,0,0,0,0,0,0,0,
0,0,0,0,0,0,0,0,0,0,0,0,0,0,0,0,
0,0,0,0,0,0,0,0,0,0,0,0,0,0,0,0,
0,0,0,0,0,0,0,0,0,0,0,0,0,0,0,0,
0,0,0,0,0,0,0,0,0,0,0,0,0,0,0,0,
0,0,0,0,0,0,0,0,0,0,0,0,0,0,0,0,
0,0,0,0,0,0,0,0,0,0,0,0,0,0,0,0,
0,0,0,0,0,0,0,0,0,0,0,0,0,0,0,0,
38,39,0,0,0,0,0,0,0,0,0,0,0,0,0,36,
45,78,37,38,37,38,37,38,37,38,37,38,37,38,37,77,
61,62,61,62,61,62,61,62,61,62,61,62,61,62,61,62,
0,0,0,0,0,0,0,0,0,0,0,0,0,0,0,0,
0,0,0,0,0,0,0,0,0,0,0,0,0,0,0,0
</chunk>
   <chunk x="-48" y="0" width="16" height="16">
0,0,0,0,0,0,0,0,0,0,0,44,45,45,45,45,
0,0,0,0,0,0,0,0,0,0,0,44,45,45,45,45,
0,0,0,0,0,0,0,0,0,0,0,44,45,45,45,45,
0,0,0,0,0,0,0,0,0,0,0,44,45,45,45,45,
0,0,0,0,0,0,0,0,0,0,0,44,45,45,45,45,
0,0,0,0,0,0,0,0,0,0,0,44,45,45,45,45,
0,0,0,0,0,0,0,0,0,0,0,44,45,45,45,45,
0,0,0,0,0,0,0,0,0,0,0,44,45,45,45,45,
0,0,0,0,0,0,0,0,0,0,0,44,45,45,45,45,
0,0,0,0,0,0,0,0,0,0,0,44,45,45,45,45,
0,0,0,0,0,0,0,0,0,0,0,44,45,45,45,45,
38,39,0,0,0,0,0,0,0,0,0,44,45,45,45,45,
45,55,0,0,0,0,0,0,0,0,0,44,45,45,45,45,
61,63,0,0,0,0,0,0,0,0,0,44,45,45,45,45,
0,0,0,0,0,0,0,0,0,0,0,44,45,45,45,45,
0,0,0,0,0,0,0,0,0,0,0,44,45,45,45,45
</chunk>
   <chunk x="-32" y="0" width="16" height="16">
45,45,45,45,45,45,45,45,45,45,45,45,45,45,45,45,
45,45,45,45,45,45,45,0,0,0,0,0,0,0,0,0,
45,45,45,45,45,45,45,0,0,0,0,0,0,0,0,0,
45,45,45,45,45,45,45,0,0,0,0,0,0,0,0,0,
45,45,45,45,45,45,45,0,0,0,0,0,0,0,0,0,
45,45,45,45,45,45,45,0,0,0,0,0,0,0,0,0,
45,45,45,45,45,45,45,0,0,0,0,0,0,0,0,0,
45,45,45,45,45,45,45,0,0,0,0,0,0,0,0,0,
45,45,45,45,45,45,45,0,0,0,0,0,0,0,0,0,
45,45,45,45,45,45,45,0,0,0,0,0,0,0,0,0,
45,45,45,45,45,45,45,0,0,0,0,0,0,0,0,0,
45,45,45,45,45,45,45,0,0,0,0,0,0,0,0,0,
45,45,45,45,45,45,45,0,0,0,0,0,0,0,0,0,
45,45,45,45,45,45,45,0,0,0,0,0,0,0,0,0,
45,45,45,45,45,45,45,0,0,0,0,0,0,0,0,0,
45,45,45,45,45,45,45,0,0,0,0,0,0,0,0,0
</chunk>
   <chunk x="-16" y="0" width="16" height="16">
45,45,45,45,45,45,45,45,45,45,45,45,45,45,45,45,
0,0,0,0,0,0,0,0,0,0,0,0,0,0,0,0,
0,0,0,0,0,0,0,0,0,0,0,0,0,0,0,0,
0,0,0,0,0,0,0,0,0,0,0,0,0,0,0,0,
0,0,0,0,0,0,0,0,0,0,0,0,0,0,0,0,
0,0,0,0,0,0,0,0,0,0,0,0,0,0,0,0,
0,0,0,0,0,0,0,0,0,0,0,0,0,0,0,0,
0,0,0,0,0,0,0,0,0,0,0,0,0,0,0,0,
0,0,0,0,0,0,0,0,0,0,0,0,0,0,0,0,
0,0,0,0,0,0,0,0,0,0,0,0,0,0,0,0,
0,0,0,0,0,0,0,0,0,0,0,0,0,0,0,0,
0,0,0,0,0,0,0,0,0,0,0,0,0,0,0,0,
0,0,0,0,0,0,0,0,0,0,0,0,0,0,0,0,
0,0,0,0,0,0,0,0,0,0,0,0,0,0,0,0,
0,0,0,0,0,0,0,0,0,0,0,0,0,0,0,0,
0,0,0,0,0,0,0,0,0,0,0,0,0,0,0,0
</chunk>
   <chunk x="0" y="0" width="16" height="16">
45,45,45,45,45,45,45,45,45,45,45,45,45,45,45,45,
0,0,0,0,0,0,0,0,0,0,0,0,0,0,0,0,
0,0,0,0,0,0,0,0,0,0,0,0,0,0,0,0,
0,0,0,0,0,0,0,0,0,0,0,0,0,0,0,0,
0,0,0,0,0,0,0,0,0,0,0,0,0,0,0,0,
0,0,0,0,0,0,0,0,0,0,0,0,0,0,0,0,
0,0,0,0,0,0,0,0,0,0,0,0,0,0,0,0,
0,0,0,0,0,0,0,0,0,0,0,0,0,0,0,0,
0,0,0,0,0,0,0,0,0,0,0,0,0,0,0,0,
0,0,0,0,0,0,0,0,0,0,0,0,0,0,0,0,
0,0,0,0,0,0,0,0,0,0,0,0,0,0,0,0,
0,0,0,0,0,0,0,0,0,0,0,0,0,0,0,0,
0,0,0,0,0,0,0,0,0,0,0,0,0,0,0,0,
0,0,0,0,0,0,0,0,0,0,0,0,0,0,0,0,
0,0,0,0,0,0,0,0,0,0,0,0,0,0,0,0,
0,0,0,0,0,0,0,0,0,0,0,0,0,0,0,0
</chunk>
   <chunk x="16" y="0" width="16" height="16">
45,45,45,55,0,0,0,0,0,0,0,0,0,0,0,0,
0,0,0,0,0,0,0,0,0,0,0,0,0,0,0,0,
0,0,0,0,0,0,0,0,0,0,0,0,0,0,0,0,
0,0,0,0,0,0,0,0,0,0,0,0,0,0,0,0,
0,0,0,0,0,0,0,0,0,0,0,0,0,0,0,0,
0,0,0,0,0,0,0,0,0,0,0,0,0,0,0,0,
0,0,0,0,0,0,0,0,0,0,0,0,0,0,0,0,
0,0,0,0,0,0,0,0,0,0,0,0,0,0,0,0,
0,0,0,0,0,0,0,0,0,0,0,0,0,0,0,0,
0,0,0,0,0,0,0,0,0,0,0,0,0,0,0,0,
0,0,0,0,0,0,0,0,0,0,0,0,0,0,0,0,
0,0,0,0,0,0,0,0,0,0,0,0,0,0,0,0,
0,0,0,0,0,0,0,0,0,0,0,0,0,0,0,0,
0,0,0,0,0,0,0,0,0,0,0,0,0,0,0,0,
0,0,0,0,0,0,0,0,0,0,0,0,0,0,0,0,
0,0,0,0,0,0,0,0,0,0,0,0,0,0,0,0
</chunk>
   <chunk x="-160" y="16" width="16" height="16">
45,45,45,45,47,0,0,0,0,0,0,0,0,0,0,0,
45,45,45,45,55,0,0,0,0,0,0,0,0,0,0,0,
45,45,45,45,78,37,38,37,38,37,38,37,38,37,38,37,
45,45,45,45,45,45,45,45,45,45,45,45,45,45,45,45,
45,45,45,45,45,45,45,45,45,45,45,45,45,45,45,45,
45,45,45,45,45,45,45,45,45,45,45,45,45,45,45,45,
45,45,45,45,45,45,45,45,45,45,45,45,45,45,45,45,
45,45,45,45,45,45,45,45,45,45,45,45,45,45,45,45,
45,45,45,45,45,45,45,45,45,45,45,45,45,45,45,45,
45,45,45,45,45,45,45,45,45,45,45,45,45,45,45,45,
45,45,45,45,45,45,45,45,45,45,45,45,45,45,45,45,
45,45,45,45,45,45,45,45,45,45,45,45,45,45,45,45,
45,45,45,45,45,45,45,45,45,45,45,45,45,45,45,45,
45,45,45,45,45,45,45,45,45,45,45,45,45,45,45,45,
45,45,45,45,45,45,45,45,45,45,45,45,45,45,45,45,
45,45,45,45,45,45,45,45,45,45,45,45,45,45,45,45
</chunk>
   <chunk x="-144" y="16" width="16" height="16">
0,0,0,0,0,0,0,0,0,0,0,0,0,0,0,0,
0,0,0,0,0,0,0,0,0,0,0,0,0,0,0,0,
38,37,39,0,0,0,0,0,0,0,0,0,0,0,0,0,
45,45,55,0,0,0,0,0,0,0,0,0,0,0,0,0,
45,45,47,0,0,0,0,0,0,0,0,0,0,0,0,0,
45,45,55,0,0,0,0,0,0,0,0,0,0,0,0,0,
45,45,47,0,0,0,0,0,0,0,0,0,0,0,0,0,
45,45,55,0,0,0,0,0,0,0,0,0,0,0,0,0,
45,45,47,0,0,0,0,0,0,0,0,0,0,0,0,0,
45,45,55,0,0,0,0,0,0,0,0,0,0,0,0,0,
45,45,47,0,0,0,0,0,0,0,0,0,0,0,0,0,
45,45,55,0,0,0,0,0,0,0,0,0,0,0,0,0,
45,45,47,0,0,0,0,0,0,0,0,0,0,0,0,0,
45,45,55,0,0,0,0,0,0,0,0,0,0,0,0,0,
45,45,47,0,0,0,0,0,0,0,0,0,0,0,0,0,
45,45,55,0,0,0,0,0,0,0,0,0,0,0,0,0
</chunk>
   <chunk x="-112" y="16" width="16" height="16">
0,0,0,0,0,0,0,0,0,0,52,45,55,0,0,0,
0,0,0,0,0,0,0,0,0,0,44,45,47,0,0,0,
0,0,0,0,0,0,0,0,0,0,52,45,55,0,0,0,
0,0,0,0,0,0,0,0,0,0,44,45,47,0,0,0,
0,0,0,0,0,0,0,0,0,0,52,45,78,37,37,38,
0,0,0,0,0,0,0,0,0,0,44,45,45,45,45,45,
0,0,0,0,0,0,0,0,0,0,60,62,61,62,61,62,
0,0,0,0,0,0,0,0,0,0,0,0,0,0,0,0,
0,0,0,0,0,0,0,0,0,0,0,0,0,0,0,0,
0,0,0,0,0,0,0,0,0,0,0,0,0,0,0,0,
0,0,0,0,0,0,0,0,0,0,0,0,0,0,0,0,
0,0,0,0,0,0,0,0,0,0,0,0,0,0,0,0,
0,0,0,0,0,0,0,0,0,0,0,0,0,0,0,0,
0,0,0,0,0,0,0,0,0,0,0,0,0,0,0,0,
0,0,0,0,0,0,0,0,0,0,0,0,0,0,0,0,
0,0,0,0,0,0,0,0,0,0,0,0,0,0,0,0
</chunk>
   <chunk x="-96" y="16" width="16" height="16">
0,0,0,0,0,0,0,0,0,0,0,0,0,0,0,0,
0,0,0,0,0,0,0,0,0,0,0,0,0,0,0,0,
0,0,0,0,0,0,0,0,0,0,0,0,0,0,0,0,
0,0,0,0,0,0,0,0,0,0,0,0,0,0,0,0,
37,38,37,38,37,38,37,38,39,0,0,0,0,0,0,0,
45,45,45,45,45,45,45,45,55,0,0,0,0,0,0,0,
61,62,61,62,61,62,61,62,63,0,0,0,0,0,0,0,
0,0,0,0,0,0,0,0,0,0,0,0,0,0,0,0,
0,0,0,0,0,0,0,0,0,0,0,0,0,0,0,0,
0,0,0,0,0,0,0,0,0,0,0,0,0,0,0,0,
0,0,0,0,0,0,0,0,0,0,0,0,0,0,0,0,
0,0,0,0,0,0,0,0,0,0,0,0,0,0,0,0,
0,0,0,0,0,0,0,0,0,0,0,0,0,0,0,0,
0,0,0,0,0,0,0,0,0,0,0,0,0,0,0,0,
0,0,0,0,0,0,0,0,0,0,0,0,0,0,0,0,
0,0,0,0,0,0,0,0,0,0,0,0,0,0,0,0
</chunk>
   <chunk x="-80" y="16" width="16" height="16">
0,0,0,0,0,0,0,0,0,0,0,0,0,0,0,0,
0,0,0,0,0,0,0,0,0,0,0,0,0,0,0,0,
0,0,0,0,0,0,0,0,0,0,0,0,0,0,0,0,
0,0,0,0,0,0,0,0,0,0,0,0,0,0,0,0,
0,0,0,0,0,0,0,0,0,0,0,0,0,0,0,0,
0,0,0,0,0,0,0,0,0,0,0,0,0,0,0,0,
0,0,0,0,0,0,0,0,0,0,0,0,0,0,0,0,
0,0,0,0,0,0,0,0,0,0,0,0,0,0,0,0,
0,0,0,0,0,0,0,0,0,0,0,0,0,0,0,0,
0,0,0,0,0,0,0,0,0,0,0,0,0,0,0,0,
0,0,0,0,0,0,0,36,37,39,0,0,0,0,0,0,
0,0,0,0,0,0,0,44,45,78,37,39,0,0,0,0,
0,0,0,0,0,0,0,52,45,45,45,78,37,37,37,37,
0,0,0,0,0,0,0,60,61,62,61,62,61,62,61,62,
0,0,0,0,0,0,0,0,0,0,0,0,0,0,0,0,
0,0,0,0,0,0,0,0,0,0,0,0,0,0,0,0
</chunk>
   <chunk x="-64" y="16" width="16" height="16">
0,0,0,0,0,0,0,0,0,0,0,0,0,0,0,0,
0,0,0,0,0,0,0,0,0,0,0,0,0,0,0,0,
0,0,0,0,0,0,0,0,0,0,0,0,0,0,0,0,
0,0,0,0,0,0,0,0,0,0,0,0,0,0,0,0,
0,0,0,0,0,0,0,0,0,0,0,0,0,0,0,0,
0,0,0,0,0,0,0,0,0,0,0,0,0,0,0,0,
0,0,0,0,0,0,0,0,0,0,0,0,0,0,0,0,
0,0,0,0,0,0,0,0,0,0,0,0,0,0,0,0,
0,0,0,0,0,0,0,0,0,0,0,0,0,0,0,0,
0,0,0,0,0,0,0,0,0,0,0,0,0,0,0,0,
0,0,0,0,0,0,0,0,0,0,0,0,36,37,39,0,
0,0,0,0,0,0,0,0,0,0,0,0,44,45,55,0,
37,37,37,37,37,37,37,37,37,37,37,37,77,45,47,0,
61,62,61,62,61,62,61,62,61,85,45,45,45,45,55,0,
0,0,0,0,0,0,0,0,0,84,85,45,45,45,47,0,
0,0,0,0,0,0,0,0,0,0,93,85,45,45,55,0
</chunk>
   <chunk x="-48" y="16" width="16" height="16">
0,0,0,0,0,0,0,0,0,0,0,44,45,45,45,45,
0,0,0,0,0,0,0,0,0,0,0,44,45,45,45,45,
0,0,0,0,0,0,0,0,0,0,0,44,45,45,45,45,
0,0,0,0,0,0,0,0,0,0,0,44,45,45,45,45,
0,0,0,0,0,0,0,0,0,0,0,44,45,45,45,45,
0,0,0,0,0,0,0,0,0,0,0,44,45,45,45,45,
0,0,0,0,0,0,0,0,0,0,0,44,45,45,45,45,
0,0,0,0,0,0,0,0,0,0,0,44,45,45,45,45,
0,0,0,0,0,0,0,0,0,0,0,44,45,45,45,45,
0,0,0,0,0,0,0,0,0,0,0,44,45,45,45,45,
0,0,0,0,0,0,0,0,0,0,0,44,45,45,45,45,
0,0,0,0,0,0,0,0,0,0,0,44,45,45,45,45,
0,0,0,0,0,0,0,0,0,0,0,44,45,45,45,45,
0,0,0,0,0,0,0,0,0,0,0,44,45,45,45,45,
0,0,0,0,0,0,0,0,0,0,0,60,61,61,61,61,
0,0,0,0,0,0,0,0,0,0,0,0,0,0,0,0
</chunk>
   <chunk x="-32" y="16" width="16" height="16">
45,45,45,45,45,45,45,0,0,0,0,0,0,0,0,0,
45,45,45,45,45,45,45,0,0,0,0,0,0,0,0,0,
45,45,45,45,45,45,45,0,0,0,0,0,0,0,0,0,
45,45,45,45,45,45,45,0,0,0,0,0,0,0,0,0,
45,45,45,45,45,45,45,0,0,0,0,0,0,0,0,0,
45,45,45,45,45,45,45,0,0,0,0,0,0,0,0,0,
45,45,45,45,45,45,45,0,0,0,0,0,0,0,0,0,
45,45,45,45,45,45,45,0,0,0,0,0,0,0,0,0,
45,45,45,45,45,45,45,0,0,0,0,0,0,0,0,0,
45,45,45,45,45,45,45,0,0,0,0,0,0,0,0,0,
45,45,45,45,45,45,45,0,0,0,0,0,0,0,0,0,
45,45,45,45,45,45,45,0,0,0,0,0,0,0,0,0,
45,45,45,45,45,45,45,0,0,0,0,0,0,0,0,0,
45,45,45,45,45,45,45,0,0,0,0,0,0,0,0,0,
61,61,61,61,61,61,62,0,0,0,0,0,0,0,0,0,
0,0,0,0,0,0,0,0,0,0,0,0,0,0,0,0
</chunk>
   <chunk x="-160" y="32" width="16" height="16">
45,45,45,45,45,45,45,45,45,45,45,45,45,45,45,45,
45,45,45,45,45,45,45,45,45,45,45,45,45,45,45,45,
45,45,45,45,45,45,45,45,45,45,45,45,45,45,45,45,
45,45,45,45,45,45,45,45,45,45,45,45,45,45,45,45,
45,45,45,45,45,45,45,45,45,45,45,45,45,45,45,45,
45,45,45,45,45,45,45,45,45,45,45,45,45,45,45,45,
45,45,45,45,45,45,45,45,45,45,45,45,45,45,45,45,
45,45,45,45,45,45,45,45,45,45,45,45,45,45,45,45,
45,45,45,45,45,45,45,45,45,45,45,45,45,45,45,45,
45,45,45,45,45,45,45,45,45,45,45,45,45,45,45,45,
45,45,45,45,45,45,45,45,45,45,45,45,45,45,45,45,
45,45,45,45,45,45,45,45,45,45,45,45,45,45,45,45,
45,45,45,45,45,45,45,46,45,46,46,45,45,45,45,45,
45,45,45,45,45,45,45,46,45,46,46,45,45,45,45,45,
45,45,45,45,45,45,45,46,45,46,46,45,45,45,45,45,
46,46,46,46,46,46,46,46,46,46,46,46,46,46,46,46
</chunk>
   <chunk x="-144" y="32" width="16" height="16">
45,45,47,0,0,0,0,0,0,0,0,0,0,0,0,0,
45,45,55,0,0,0,0,0,0,0,0,0,0,0,0,0,
45,45,47,0,0,0,0,0,0,0,0,0,0,0,0,0,
45,45,55,0,0,0,0,0,0,0,0,0,0,0,0,0,
45,45,47,0,0,0,0,0,0,0,0,0,0,0,0,0,
45,45,55,0,0,0,0,0,0,0,0,0,0,0,0,0,
45,45,47,0,0,0,0,0,0,0,0,0,0,0,0,0,
45,45,55,0,0,0,0,0,0,0,0,0,0,0,0,0,
45,45,47,0,0,0,0,0,0,0,0,0,0,0,0,0,
45,45,55,0,0,0,0,0,0,0,0,0,0,0,0,0,
45,45,47,0,0,0,0,0,0,0,0,0,0,0,0,0,
45,45,55,0,0,0,0,0,0,0,0,0,0,0,0,0,
45,45,47,0,0,0,0,0,0,0,0,0,0,0,0,0,
45,45,55,0,0,0,0,0,0,0,0,0,0,0,0,0,
45,45,47,0,0,0,0,0,0,0,0,0,0,0,0,0,
46,46,55,0,0,0,0,0,0,0,0,0,0,0,0,0
</chunk>
   <chunk x="-80" y="32" width="16" height="16">
0,0,0,0,0,0,0,0,0,0,0,0,0,0,0,0,
0,0,0,0,0,0,0,0,0,0,0,0,0,0,0,0,
0,0,0,0,0,0,0,0,0,0,0,0,0,0,0,0,
0,0,0,0,0,0,0,0,0,0,0,0,0,0,0,0,
0,0,0,0,0,0,0,0,0,0,0,0,0,0,0,0,
0,0,0,0,0,0,0,0,0,0,0,0,0,0,0,0,
0,0,0,0,0,0,0,0,0,0,0,0,0,0,0,0,
0,0,0,0,0,0,0,0,0,0,0,0,0,0,0,0,
0,0,0,0,0,0,0,0,0,0,0,0,0,0,0,0,
0,0,0,0,0,0,0,0,36,37,38,37,39,0,0,0,
0,0,0,0,0,0,0,0,44,45,45,45,47,0,0,0,
0,0,0,0,0,0,0,0,52,45,45,45,55,0,0,0,
0,0,0,0,0,0,0,0,44,45,45,45,78,37,38,37,
0,0,0,0,0,0,0,0,52,45,45,45,45,45,45,45,
0,0,0,0,0,0,0,0,44,45,45,45,45,45,45,45,
0,0,0,0,0,0,0,0,52,46,46,46,46,46,46,46
</chunk>
   <chunk x="-64" y="32" width="16" height="16">
0,0,0,0,0,0,0,0,0,0,0,44,45,45,47,0,
0,0,0,0,0,0,0,0,0,0,0,52,45,45,55,0,
0,0,0,0,0,0,0,0,0,0,0,44,45,45,47,0,
0,0,0,0,0,0,0,0,0,0,0,52,45,45,55,0,
0,0,0,0,0,0,0,0,0,0,0,44,45,45,47,0,
0,0,0,0,0,0,0,0,0,0,0,52,45,45,55,0,
0,0,0,0,0,0,0,0,0,0,0,44,45,45,47,0,
0,0,0,0,0,0,0,0,0,0,0,52,45,45,55,0,
0,0,0,0,0,0,0,0,0,0,0,44,45,45,47,0,
0,0,0,0,0,36,37,38,37,38,37,77,45,45,55,0,
0,0,0,0,0,44,45,45,45,45,45,45,45,45,47,0,
0,0,0,0,0,52,45,45,45,45,45,45,45,45,55,0,
38,37,38,37,38,77,45,45,45,45,45,45,45,45,47,0,
45,45,45,45,45,45,45,45,45,45,45,45,45,45,55,0,
45,45,45,45,45,45,45,45,45,45,45,45,45,45,78,38,
46,46,46,46,46,46,46,46,46,46,46,46,46,46,45,53
</chunk>
   <chunk x="-48" y="32" width="16" height="16">
0,0,0,0,0,0,0,0,0,0,0,0,0,0,0,0,
0,0,0,0,0,0,0,0,0,0,0,0,0,0,0,0,
0,0,0,0,0,0,0,0,0,0,0,0,0,0,0,0,
0,0,0,0,0,0,0,0,0,0,0,0,0,0,0,0,
0,0,0,0,0,0,0,0,0,0,0,0,0,0,0,0,
0,0,0,0,0,0,0,0,0,0,0,0,0,0,0,0,
0,0,0,0,0,0,0,0,0,0,0,36,37,37,37,37,
0,0,0,0,0,0,0,0,0,0,0,44,54,53,54,53,
0,0,0,0,0,0,0,0,0,0,0,44,46,45,46,45,
0,0,0,0,0,0,0,0,0,0,0,44,54,53,54,53,
0,0,0,0,0,0,0,0,0,0,0,44,46,45,46,45,
0,0,0,0,0,0,0,0,0,0,0,44,54,53,54,53,
0,0,0,0,0,0,0,0,0,0,0,44,46,45,46,45,
0,0,0,0,0,0,0,0,0,0,0,44,54,53,54,53,
37,37,37,37,37,37,37,37,37,37,37,77,46,45,46,45,
54,53,54,53,54,53,54,53,54,53,54,53,54,53,54,53
</chunk>
   <chunk x="-32" y="32" width="16" height="16">
0,0,0,0,0,0,0,0,0,0,0,0,0,0,0,0,
0,0,0,0,0,0,0,0,0,0,0,0,0,0,0,0,
0,0,0,0,0,0,0,0,0,0,0,0,0,0,0,0,
0,0,0,0,0,0,0,0,0,0,0,0,0,0,0,0,
0,0,0,0,0,0,0,0,0,0,0,0,0,0,0,0,
0,0,0,0,0,0,0,0,0,0,0,0,0,0,0,0,
37,37,37,37,37,37,37,0,0,0,0,0,0,0,0,0,
54,53,54,53,54,53,54,0,0,0,0,0,0,0,0,0,
46,45,46,45,46,45,46,0,0,0,0,0,0,0,0,0,
54,53,54,53,54,53,54,0,0,0,0,0,0,0,0,0,
46,45,46,45,46,45,46,0,0,0,0,0,0,0,0,0,
54,53,54,53,54,53,54,0,0,0,0,0,0,0,0,0,
46,45,46,45,46,45,46,0,0,0,0,0,0,0,0,0,
54,53,54,53,54,53,54,0,0,0,0,0,0,0,0,0,
46,45,46,45,46,45,46,0,0,0,0,0,0,0,0,0,
54,53,54,53,54,53,54,0,0,0,0,0,0,0,0,0
</chunk>
   <chunk x="32" y="32" width="16" height="16">
0,0,0,0,0,0,0,0,0,0,0,0,0,0,0,0,
0,0,0,0,0,0,0,0,0,0,0,0,0,0,0,0,
0,0,0,0,0,0,0,0,0,0,0,0,0,0,0,0,
0,0,0,0,0,0,0,0,0,0,0,0,0,0,0,0,
0,0,0,0,0,0,0,0,0,0,0,0,0,0,0,0,
0,0,0,0,0,0,0,0,0,0,0,0,0,0,0,0,
0,0,0,0,0,0,0,0,0,0,0,0,0,0,0,0,
0,0,0,0,0,0,0,0,0,0,0,0,0,0,0,0,
0,0,0,0,0,0,0,0,0,0,0,0,0,0,0,0,
0,0,0,0,0,0,0,0,0,0,0,0,0,0,0,0,
0,0,0,0,0,0,0,0,0,0,0,0,0,0,0,0,
0,0,0,0,0,0,0,0,0,0,0,0,0,0,0,0,
0,0,0,0,0,0,0,0,0,0,0,0,0,0,0,0,
0,0,0,0,0,0,0,0,0,0,0,0,0,0,0,0,
0,0,0,0,0,0,0,0,0,0,0,0,0,0,0,0,
0,0,0,0,0,0,0,145,145,145,145,145,145,145,145,145
</chunk>
   <chunk x="48" y="32" width="16" height="16">
0,0,0,0,0,0,0,0,0,0,0,0,0,0,0,0,
0,0,0,0,0,0,0,0,0,0,0,0,0,0,0,0,
0,0,0,0,0,0,0,0,0,0,0,0,0,0,0,0,
0,0,0,0,0,0,0,0,0,0,0,0,0,0,0,0,
0,0,0,0,0,0,0,0,0,0,0,0,0,0,0,0,
0,0,0,0,0,0,0,0,0,0,0,0,0,0,0,0,
0,0,0,0,0,0,0,0,0,0,0,0,0,0,0,0,
0,0,0,0,0,0,0,0,0,0,0,0,0,0,0,0,
0,0,0,0,0,0,0,0,0,0,0,0,0,0,0,0,
0,0,0,0,0,0,0,0,0,0,0,0,0,0,0,0,
0,0,0,0,0,0,0,0,0,0,0,0,0,0,0,0,
0,0,0,0,0,0,0,0,0,0,0,0,0,0,0,0,
0,0,0,0,0,0,0,0,0,0,0,0,0,0,0,0,
0,0,0,0,0,0,0,0,0,0,0,0,0,0,0,0,
0,0,0,0,0,0,0,0,0,0,0,0,0,0,0,0,
145,145,145,145,145,145,145,145,145,145,0,0,0,0,0,0
</chunk>
   <chunk x="-192" y="48" width="16" height="16">
0,0,0,0,0,0,0,0,0,0,145,145,145,145,145,145,
0,0,0,0,0,0,0,0,0,0,145,145,145,145,145,145,
0,0,0,0,0,0,0,0,0,0,145,145,145,145,145,145,
0,0,0,0,0,0,0,0,0,0,145,145,145,145,145,145,
0,0,0,0,0,0,0,0,0,0,145,145,145,145,145,145,
0,0,0,0,0,0,0,0,0,0,145,145,145,145,145,145,
0,0,0,0,0,0,0,0,0,0,145,145,145,145,145,145,
0,0,0,0,0,0,0,0,0,0,145,145,145,145,145,145,
0,0,0,0,0,0,0,0,0,0,145,145,145,145,145,145,
0,0,0,0,0,0,0,0,0,0,145,145,145,145,145,145,
0,0,0,0,0,0,0,0,0,0,145,145,145,145,145,145,
0,0,0,0,0,0,0,0,0,0,145,145,145,145,145,145,
0,0,0,0,0,0,0,0,0,0,145,145,145,145,145,145,
0,0,0,0,0,0,0,0,0,0,145,145,145,145,145,145,
0,0,0,0,0,0,0,0,0,0,145,145,145,145,145,145,
0,0,0,0,0,0,0,0,0,0,145,145,145,145,145,145
</chunk>
   <chunk x="-176" y="48" width="16" height="16">
145,145,145,145,145,145,145,145,145,145,145,145,145,145,145,145,
145,145,145,145,145,145,145,145,145,145,145,145,145,145,145,145,
145,145,145,145,145,145,145,145,145,145,145,145,145,145,145,145,
145,145,145,145,145,145,145,145,145,145,145,145,145,145,145,145,
145,145,145,145,145,145,145,145,145,145,145,145,145,145,145,145,
145,145,145,145,145,145,145,145,145,145,145,145,145,145,145,145,
145,145,145,145,145,145,145,145,145,145,145,145,145,145,145,145,
145,145,145,145,145,145,145,145,145,145,145,145,145,145,145,145,
145,145,145,145,145,145,145,145,145,145,145,145,145,145,145,145,
145,145,145,145,145,145,145,145,145,145,145,145,145,145,145,145,
145,145,145,145,145,145,145,145,145,145,145,145,145,145,145,145,
145,145,145,145,145,145,145,145,145,145,145,145,145,145,145,145,
145,145,145,145,145,145,145,145,145,145,145,145,145,145,145,145,
145,145,145,145,145,145,145,145,145,145,145,145,145,145,145,145,
145,145,145,145,145,145,145,145,145,145,145,145,145,145,145,145,
145,145,145,145,145,145,145,145,145,145,145,145,145,145,145,145
</chunk>
   <chunk x="-160" y="48" width="16" height="16">
46,46,46,46,46,46,46,46,46,46,46,46,46,46,46,46,
46,46,46,46,46,46,46,46,46,46,46,46,46,46,46,46,
46,46,46,46,46,46,46,46,46,46,46,46,46,46,46,46,
46,46,46,46,46,46,46,46,46,46,46,46,46,46,46,46,
46,46,46,46,46,46,46,46,46,46,46,46,46,46,46,46,
46,46,46,46,46,46,46,46,46,46,46,46,46,46,46,46,
46,46,46,46,46,46,46,46,46,46,46,46,46,46,46,46,
46,46,46,46,46,46,46,46,46,46,46,46,46,46,46,46,
46,46,46,46,46,46,46,46,46,46,46,46,46,46,46,46,
46,46,46,46,46,46,46,46,46,46,46,46,46,46,46,46,
46,46,46,46,46,46,46,46,46,46,46,46,46,46,46,46,
46,46,46,46,46,46,46,46,46,46,46,46,46,46,46,46,
46,46,46,46,46,46,46,46,46,46,46,46,46,46,46,46,
46,46,46,46,46,46,46,46,46,46,46,46,46,46,46,46,
46,46,46,46,46,46,46,46,46,46,46,46,46,46,46,46,
46,46,46,46,46,46,46,46,46,46,46,46,46,46,46,46
</chunk>
   <chunk x="-144" y="48" width="16" height="16">
46,46,46,39,0,0,0,0,0,0,0,0,0,0,0,0,
46,46,46,47,0,0,0,0,0,0,0,0,0,0,0,0,
46,46,46,46,39,0,0,0,0,0,0,0,0,0,0,0,
46,46,46,46,46,39,0,0,0,0,0,0,0,0,0,0,
46,46,46,46,46,46,39,0,0,0,0,0,0,0,0,0,
46,46,46,46,46,46,46,39,0,0,0,0,0,0,0,0,
46,46,46,46,46,46,46,45,47,0,0,0,0,0,0,0,
46,46,46,45,45,45,45,45,47,0,0,0,0,0,0,0,
46,46,45,45,45,45,45,45,47,0,0,0,0,0,0,0,
46,46,45,45,45,45,45,45,47,0,0,0,0,0,0,0,
46,46,45,45,45,45,45,45,47,0,0,0,0,0,0,0,
46,46,45,45,45,45,45,45,47,0,0,0,0,0,0,0,
46,46,45,45,45,45,45,45,47,0,0,0,0,0,0,0,
46,46,45,45,45,45,45,45,60,38,39,0,0,0,0,0,
45,45,45,45,45,45,45,45,45,45,86,0,0,0,0,0,
45,45,45,45,45,45,45,45,45,45,63,0,0,0,0,0
</chunk>
   <chunk x="-112" y="48" width="16" height="16">
0,0,0,0,0,0,0,0,36,37,37,37,37,37,37,37,
0,0,0,0,0,0,0,0,44,45,45,45,45,45,45,45,
0,0,0,0,0,0,0,0,44,46,45,45,45,45,45,45,
0,0,0,0,0,0,0,0,44,46,45,45,45,45,45,45,
0,0,0,0,0,0,0,0,44,46,45,45,45,45,45,45,
0,0,0,0,0,0,0,0,44,46,45,45,45,45,45,45,
0,0,0,0,0,0,0,0,0,44,45,45,45,45,45,45,
0,0,0,0,0,0,0,0,0,52,45,45,45,45,45,45,
0,0,0,0,0,0,0,0,0,44,45,45,45,45,45,45,
0,0,0,0,0,0,0,0,0,52,45,45,45,45,45,45,
0,0,0,0,0,0,0,0,0,60,61,62,61,62,85,45,
0,0,0,0,0,0,0,0,0,0,0,0,0,0,84,85,
0,0,0,0,0,0,0,0,0,0,0,0,0,0,0,84,
0,0,0,0,0,0,0,0,0,0,0,0,0,0,0,0,
0,0,0,0,0,0,0,0,0,0,0,0,0,0,0,0,
0,0,0,0,0,0,0,0,0,0,0,0,0,0,0,0
</chunk>
   <chunk x="-96" y="48" width="16" height="16">
37,37,37,37,37,37,37,37,37,37,37,37,37,37,37,37,
45,45,45,45,45,45,45,45,45,45,45,45,45,45,45,45,
45,45,45,45,45,45,45,45,45,45,45,45,45,45,45,45,
45,45,45,45,45,45,45,45,45,45,45,45,45,45,45,45,
45,45,45,45,45,45,45,45,45,45,45,45,45,45,45,45,
45,45,45,45,45,45,45,45,45,45,45,45,45,45,45,45,
45,45,45,45,45,45,45,45,45,45,45,45,45,45,45,45,
45,45,45,45,45,45,45,45,45,45,45,45,45,45,45,45,
45,45,45,45,45,45,45,45,45,45,45,45,45,45,45,45,
45,45,45,45,45,45,45,45,45,45,45,45,45,45,45,45,
45,45,45,45,45,45,45,45,45,45,45,45,45,45,45,45,
45,45,45,45,45,45,45,45,45,45,45,45,45,45,45,45,
85,45,45,45,45,45,45,45,45,45,45,45,45,45,45,45,
44,45,45,45,45,45,45,45,45,45,45,45,45,45,45,45,
52,45,45,45,45,45,45,45,45,45,45,45,45,45,45,45,
44,45,45,45,45,45,45,45,45,45,45,45,45,45,45,45
</chunk>
   <chunk x="-80" y="48" width="16" height="16">
37,37,37,37,37,37,37,37,37,46,46,46,46,46,46,46,
45,45,45,45,45,45,45,45,45,46,46,46,46,46,46,46,
45,45,45,45,45,45,45,45,45,45,45,45,45,45,45,45,
45,45,45,45,45,45,45,45,45,45,45,45,45,45,45,45,
45,45,45,45,45,45,45,45,45,45,45,45,45,45,45,45,
45,45,45,45,45,45,45,45,45,45,45,45,45,45,45,45,
45,45,45,45,45,45,45,45,45,45,45,45,45,45,45,45,
45,45,45,45,45,45,45,45,45,45,45,45,45,45,45,45,
45,45,45,45,45,45,45,45,45,45,45,45,45,45,45,45,
45,45,45,45,45,45,45,45,45,45,45,45,45,45,45,45,
45,45,45,45,45,45,45,45,45,45,45,45,45,45,45,45,
45,45,45,45,45,45,45,45,45,45,45,45,45,45,45,45,
45,45,45,45,45,45,45,45,45,45,45,45,45,45,45,45,
45,45,45,45,45,45,45,45,45,45,45,45,45,45,45,45,
45,45,45,45,45,45,45,45,45,45,45,45,45,45,45,45,
45,45,45,45,45,45,45,45,45,45,45,45,45,45,45,45
</chunk>
   <chunk x="-64" y="48" width="16" height="16">
46,46,46,46,46,46,46,46,46,46,46,46,46,46,145,145,
46,46,46,46,46,46,46,46,46,46,46,46,46,46,145,145,
46,46,46,46,46,46,46,46,46,46,46,46,46,46,145,145,
46,46,46,46,46,46,46,46,46,46,46,46,46,46,145,145,
46,46,46,46,46,46,46,46,46,46,46,46,46,46,145,145,
46,46,46,46,46,46,46,46,46,46,46,46,46,46,145,145,
45,45,45,46,46,46,46,46,46,46,46,46,46,46,145,145,
45,45,45,46,46,46,46,46,46,46,46,46,46,46,145,145,
45,45,45,46,46,46,46,46,46,46,46,46,46,46,145,145,
45,45,45,46,46,46,46,46,46,46,46,46,46,46,145,145,
45,45,45,46,46,46,46,46,46,46,46,46,46,46,145,145,
45,45,45,46,46,46,46,46,46,46,46,46,46,46,145,145,
45,45,45,46,46,46,46,46,46,46,46,46,46,46,145,145,
45,45,45,46,46,46,46,46,46,46,46,46,46,46,145,145,
45,45,45,46,46,46,46,46,46,46,46,46,46,46,145,145,
45,45,45,46,46,46,46,46,46,46,46,46,46,46,145,145
</chunk>
   <chunk x="-48" y="48" width="16" height="16">
145,145,145,145,145,145,145,145,145,145,145,145,145,145,145,145,
145,145,145,145,145,145,145,145,145,145,145,145,145,145,145,145,
145,145,145,145,145,145,145,145,145,145,145,145,145,145,145,145,
145,145,145,145,145,145,145,145,145,145,145,145,145,145,145,145,
145,145,145,145,145,145,145,145,145,145,145,145,145,145,145,145,
145,145,145,145,145,145,145,145,145,145,145,145,145,145,145,145,
145,145,145,145,145,145,145,145,145,145,145,145,145,145,145,145,
145,145,145,145,145,145,145,145,145,145,145,145,145,145,145,145,
145,145,145,145,145,145,145,145,145,145,145,145,145,145,145,145,
145,145,145,145,145,145,145,145,145,145,145,145,145,145,145,145,
145,145,145,145,145,145,145,145,145,145,145,145,145,145,145,145,
145,145,145,145,145,145,145,145,145,145,145,145,145,145,145,145,
145,145,145,145,145,145,145,145,145,145,145,145,145,145,145,145,
145,145,145,145,145,145,145,145,145,145,145,145,145,145,145,145,
145,145,145,145,145,145,145,145,145,145,145,145,145,145,145,145,
145,145,145,145,145,145,145,145,145,145,145,145,145,145,145,145
</chunk>
   <chunk x="-32" y="48" width="16" height="16">
145,145,145,145,145,145,145,145,145,145,145,145,145,145,145,145,
145,145,145,145,145,145,145,145,145,145,145,145,145,145,145,145,
145,145,145,145,145,145,145,145,145,145,145,145,145,145,145,145,
145,145,145,145,145,145,145,145,145,145,145,145,145,145,145,145,
145,145,145,145,145,145,145,145,145,145,145,145,145,145,145,145,
145,145,145,145,145,145,145,145,145,145,145,145,145,145,145,145,
145,145,145,145,145,145,145,145,145,145,145,145,145,145,145,145,
145,145,145,145,145,145,145,145,145,145,145,145,145,145,145,145,
145,145,145,145,145,145,145,145,145,145,145,145,145,145,145,145,
145,145,145,145,145,145,145,145,145,145,145,145,145,145,145,145,
145,145,145,145,145,145,145,145,145,145,145,145,145,145,145,145,
145,145,145,145,145,145,145,145,145,145,145,145,145,145,145,145,
145,145,145,145,145,145,145,145,145,145,145,145,145,145,145,145,
145,145,145,145,145,145,145,145,145,145,145,145,145,145,145,145,
145,145,145,145,145,145,145,145,145,145,145,145,145,145,145,145,
145,145,145,145,145,145,145,145,145,145,145,145,145,145,145,145
</chunk>
   <chunk x="-16" y="48" width="16" height="16">
145,145,145,145,145,145,145,145,145,145,145,145,145,145,145,145,
145,145,145,145,145,145,145,145,145,145,145,145,145,145,145,145,
145,145,145,145,145,145,145,145,145,145,145,145,145,145,145,145,
145,145,145,145,145,145,145,145,145,145,145,145,145,145,145,145,
145,145,145,145,145,145,145,145,145,145,145,145,145,145,145,145,
145,145,145,145,145,145,145,145,145,145,145,145,145,145,145,145,
145,145,145,145,145,145,145,145,145,145,145,145,145,145,145,145,
145,145,145,145,145,145,145,145,145,145,145,145,145,145,145,145,
145,145,145,145,145,145,145,145,145,145,145,145,145,145,145,145,
145,145,145,145,145,145,145,145,145,145,145,145,145,145,145,145,
145,145,145,145,145,145,145,145,145,145,145,145,145,145,145,145,
145,145,145,145,145,145,145,145,145,145,145,145,145,145,145,145,
145,145,145,145,145,145,145,145,145,145,145,145,145,145,145,145,
145,145,145,145,145,145,145,145,145,145,145,145,145,145,145,145,
145,145,145,145,145,145,145,145,145,145,145,145,145,145,145,145,
145,145,145,145,145,145,145,145,145,145,145,145,145,145,145,145
</chunk>
   <chunk x="0" y="48" width="16" height="16">
145,145,145,145,145,145,145,145,145,145,145,145,145,145,145,145,
145,145,145,145,145,145,145,145,145,145,145,145,145,145,145,145,
145,145,145,145,145,145,145,145,145,145,145,145,145,145,145,145,
145,145,145,145,145,145,145,145,145,145,145,145,145,145,145,145,
145,145,145,145,145,145,145,145,145,145,145,145,145,145,145,145,
145,145,145,145,145,145,145,145,145,145,145,145,145,145,145,145,
145,145,145,145,145,145,145,145,145,145,145,145,145,145,145,145,
145,145,145,145,145,145,145,145,145,145,145,145,145,145,145,145,
145,145,145,145,145,145,145,145,145,145,145,145,145,145,145,145,
145,145,145,145,145,145,145,145,145,145,145,145,145,145,145,145,
145,145,145,145,145,145,145,145,145,145,145,145,145,145,145,145,
145,145,145,145,145,145,145,145,145,145,145,145,145,145,145,145,
145,145,145,145,145,145,145,145,145,145,145,145,145,145,145,145,
145,145,145,145,145,145,145,145,145,145,145,145,145,145,145,145,
145,145,145,145,145,145,145,145,145,145,145,145,145,145,145,145,
145,145,145,145,145,145,145,145,145,145,145,145,145,145,145,145
</chunk>
   <chunk x="16" y="48" width="16" height="16">
145,145,145,145,145,145,145,145,145,145,145,145,145,145,145,145,
145,145,145,145,145,145,145,145,145,145,145,145,145,145,145,145,
145,145,145,145,145,145,145,145,145,145,145,145,145,145,145,145,
145,145,145,145,145,145,145,145,145,145,145,145,145,145,145,145,
145,145,145,145,145,145,145,145,145,145,145,145,145,145,145,145,
145,145,145,145,145,145,145,145,145,145,145,145,145,145,145,145,
145,145,145,145,145,145,145,145,145,145,145,145,145,145,145,145,
145,145,145,145,145,145,145,145,145,145,145,145,145,145,145,145,
145,145,145,145,145,145,145,145,145,145,145,145,145,145,145,145,
145,145,145,145,145,145,145,145,145,145,145,145,145,145,145,145,
145,145,145,145,145,145,145,145,145,145,145,145,145,145,145,145,
145,145,145,145,145,145,145,145,145,145,145,145,145,145,145,145,
145,145,145,145,145,145,145,145,145,145,145,145,145,145,145,145,
145,145,145,145,145,145,145,145,145,145,145,145,145,145,145,145,
145,145,145,145,145,145,145,145,145,145,145,145,145,145,145,145,
145,145,145,145,145,145,145,145,145,145,145,145,145,145,145,145
</chunk>
   <chunk x="32" y="48" width="16" height="16">
145,145,145,145,145,145,145,145,145,145,145,145,145,145,145,145,
145,145,145,145,145,145,145,145,145,145,145,145,145,145,145,145,
145,145,145,145,145,145,145,145,145,145,145,145,145,145,145,145,
145,145,145,145,145,145,145,145,145,145,145,145,145,145,145,145,
145,145,145,145,145,145,145,145,145,145,145,145,145,145,145,145,
145,145,145,145,145,145,145,145,145,145,145,145,145,145,145,145,
145,145,145,145,145,145,145,145,145,145,145,145,145,145,145,145,
145,145,145,145,145,145,145,145,145,145,145,145,145,145,145,145,
145,145,145,145,145,145,145,145,145,145,145,145,145,145,145,145,
145,145,145,145,145,145,145,145,145,145,145,145,145,145,145,145,
145,145,145,145,145,145,145,145,145,145,145,145,145,145,145,145,
145,145,145,145,145,145,145,145,145,145,145,145,145,145,145,145,
145,145,145,145,145,145,145,145,145,145,145,145,145,145,145,145,
145,145,145,145,145,145,145,145,145,145,145,145,145,145,145,145,
145,145,145,145,145,145,145,145,145,145,145,145,145,145,145,145,
145,145,145,145,145,145,145,145,145,145,145,145,145,145,145,145
</chunk>
   <chunk x="48" y="48" width="16" height="16">
145,145,145,145,145,145,145,145,145,145,0,0,0,0,0,0,
145,145,145,145,145,145,145,145,145,145,0,0,0,0,0,0,
145,145,145,145,145,145,145,145,145,145,0,0,0,0,0,0,
145,145,145,145,145,145,145,145,145,145,0,0,0,0,0,0,
145,145,145,145,145,145,145,145,145,145,0,0,0,0,0,0,
145,145,145,145,145,145,145,145,145,145,0,0,0,0,0,0,
145,145,145,145,145,145,145,145,145,145,0,0,0,0,0,0,
145,145,145,145,145,145,145,145,145,145,0,0,0,0,0,0,
145,145,145,145,145,145,145,145,145,145,0,0,0,0,0,0,
145,145,145,145,145,145,145,145,145,145,0,0,0,0,0,0,
145,145,145,145,145,145,145,145,145,145,0,0,0,0,0,0,
145,145,145,145,145,145,145,145,145,145,0,0,0,0,0,0,
145,145,145,145,145,145,145,145,145,145,0,0,0,0,0,0,
145,145,145,145,145,145,145,145,145,145,0,0,0,0,0,0,
145,145,145,145,145,145,145,145,145,145,0,0,0,0,0,0,
145,145,145,145,145,145,145,145,145,145,0,0,0,0,0,0
</chunk>
   <chunk x="-192" y="64" width="16" height="16">
0,0,0,0,0,0,0,0,0,0,145,145,145,145,145,145,
0,0,0,0,0,0,0,0,0,0,145,145,145,145,145,145,
0,0,0,0,0,0,0,0,0,0,145,145,145,145,145,145,
0,0,0,0,0,0,0,0,0,0,145,145,145,145,145,145,
0,0,0,0,0,0,0,0,0,0,145,145,145,145,145,145,
0,0,0,0,0,0,0,0,0,0,145,145,145,145,145,145,
0,0,0,0,0,0,0,0,0,0,145,145,145,145,145,145,
0,0,0,0,0,0,0,0,0,0,145,145,145,145,145,145,
0,0,0,0,0,0,0,0,0,0,145,145,145,145,145,145,
0,0,0,0,0,0,0,0,0,0,145,145,145,145,145,145,
0,0,0,0,0,0,0,0,0,0,145,145,145,145,145,145,
0,0,0,0,0,0,0,0,0,0,145,145,145,145,145,145,
0,0,0,0,0,0,0,0,0,0,145,145,145,145,145,145,
0,0,0,0,0,0,0,0,0,0,145,145,145,145,145,145,
0,0,0,0,0,0,0,0,0,0,145,145,145,145,145,145,
0,0,0,0,0,0,0,0,0,0,145,145,145,145,145,145
</chunk>
   <chunk x="-176" y="64" width="16" height="16">
145,145,145,145,145,145,145,145,145,145,145,145,145,145,145,145,
145,145,145,145,145,145,145,145,145,145,145,145,145,145,145,145,
145,145,145,145,145,145,145,140,140,140,140,140,140,140,140,140,
145,145,145,145,145,145,146,103,103,103,103,103,103,103,103,103,
145,145,145,145,145,145,146,103,221,241,242,243,241,242,243,241,
145,145,145,145,145,145,146,103,147,0,0,0,0,0,0,0,
145,145,145,145,145,145,146,103,147,0,0,0,0,0,0,0,
145,145,145,145,145,145,146,103,130,0,0,0,0,0,0,0,
145,145,145,145,145,145,146,103,147,0,0,0,0,0,0,0,
145,145,145,145,145,145,146,103,147,0,0,0,0,0,0,0,
145,145,145,145,145,145,146,103,130,0,0,0,0,0,0,0,
145,145,145,145,145,145,146,103,147,0,0,0,0,0,0,0,
145,145,145,145,145,145,146,103,164,0,0,0,0,0,0,0,
145,145,145,145,145,145,146,103,130,0,0,0,0,0,0,0,
145,145,145,145,145,145,146,103,147,0,0,0,0,0,0,0,
145,145,145,145,145,145,146,102,164,0,0,0,0,0,0,0
</chunk>
   <chunk x="-160" y="64" width="16" height="16">
46,46,46,46,46,46,46,46,46,46,46,46,46,46,46,46,
46,46,46,46,46,46,46,46,46,46,46,46,46,46,46,46,
46,46,46,46,46,46,46,46,46,46,46,46,46,46,46,46,
46,46,46,46,46,46,46,46,46,46,46,46,46,46,46,46,
46,46,46,46,46,46,46,46,46,46,46,46,46,46,46,46,
46,46,46,46,46,46,46,46,46,46,46,46,46,46,46,46,
44,46,46,46,46,46,46,46,46,46,46,46,46,46,46,46,
44,45,45,45,45,45,45,45,45,45,45,45,45,45,45,45,
44,45,45,45,45,45,45,45,45,45,45,45,45,45,45,45,
44,45,45,45,45,45,45,45,45,45,45,45,45,45,45,45,
44,45,45,45,45,45,45,45,45,45,45,45,45,45,45,45,
44,45,45,45,45,45,45,45,45,45,45,45,45,45,45,45,
44,45,45,45,45,45,45,45,45,45,45,45,45,45,45,45,
44,45,45,45,45,45,45,45,45,45,45,45,45,45,45,45,
44,45,45,45,45,45,45,45,45,45,45,45,45,45,45,45,
44,45,45,45,45,45,45,45,45,45,45,45,45,45,45,45
</chunk>
   <chunk x="-144" y="64" width="16" height="16">
45,86,62,62,62,62,62,62,62,63,0,0,0,0,0,0,
45,47,0,0,0,0,0,0,0,0,0,0,0,0,0,0,
45,55,0,0,0,0,0,0,0,0,0,0,0,0,0,0,
45,47,0,0,0,0,0,0,0,0,0,0,0,0,0,0,
45,55,0,0,0,0,0,0,0,0,0,0,0,0,0,0,
45,47,0,0,0,0,0,0,0,0,0,0,0,0,0,0,
45,78,37,38,37,38,37,38,37,38,0,0,0,0,0,0,
45,45,45,45,45,45,45,45,45,45,0,0,0,0,0,0,
45,45,45,45,45,45,45,45,86,62,0,0,0,0,0,0,
45,45,45,45,45,45,45,86,55,0,0,0,0,0,0,0,
45,45,45,45,45,45,55,0,0,0,0,0,0,0,0,0,
45,45,45,45,45,45,55,0,0,0,0,0,0,0,0,0,
45,45,45,45,45,45,55,0,0,0,0,0,0,0,0,0,
45,45,45,45,45,45,63,0,0,0,0,0,0,0,0,0,
45,45,45,45,63,63,0,0,0,0,0,0,0,0,0,0,
45,45,45,45,63,0,0,0,0,0,0,0,0,0,0,0
</chunk>
   <chunk x="-128" y="64" width="16" height="16">
0,0,0,0,0,0,0,0,0,0,0,0,0,0,0,0,
0,0,0,0,0,0,0,0,0,0,0,0,0,0,0,0,
0,0,0,0,0,0,0,0,0,0,0,0,0,0,0,0,
0,0,0,0,0,0,0,0,0,0,0,0,0,0,0,0,
0,0,0,0,0,0,0,0,0,0,0,0,0,0,0,0,
0,0,0,0,0,0,0,0,0,0,0,172,112,110,111,112,
0,0,0,0,0,0,0,0,0,0,172,102,102,102,102,102,
0,0,0,0,0,0,0,0,0,0,189,128,123,123,123,123,
0,0,0,0,0,0,0,0,0,172,102,145,145,145,145,145,
0,0,0,0,0,0,0,172,105,102,145,145,145,145,145,145,
0,0,0,0,0,172,105,105,102,145,145,145,145,145,145,145,
0,0,0,172,105,105,105,102,145,145,145,145,145,145,145,145,
104,105,105,105,145,145,145,145,145,145,145,145,145,145,145,145,
143,102,144,145,145,145,145,145,145,145,145,145,145,145,145,145,
160,102,144,145,145,145,145,145,145,145,145,145,145,145,145,145,
143,102,144,145,145,145,145,145,145,145,145,145,145,145,145,145
</chunk>
   <chunk x="-112" y="64" width="16" height="16">
0,0,0,0,0,0,0,0,0,0,0,0,0,0,0,0,
0,0,0,0,0,0,0,0,0,0,0,0,0,0,0,0,
0,0,0,0,0,0,0,0,0,0,0,0,0,0,0,0,
0,0,0,0,0,0,0,0,0,0,0,0,0,0,0,0,
0,0,0,0,0,0,0,0,0,0,0,0,0,0,0,0,
110,111,112,110,111,112,110,111,112,110,111,112,110,111,112,110,
102,102,102,102,102,102,102,102,102,102,102,102,102,102,102,102,
123,123,123,123,123,123,123,123,123,123,123,123,123,123,123,123,
145,145,145,145,145,145,145,145,145,145,145,145,145,145,145,145,
145,145,145,145,145,145,145,145,145,145,145,145,145,145,145,145,
145,145,145,145,145,145,145,145,145,145,145,145,145,145,145,145,
145,145,145,145,145,145,145,145,145,145,145,145,145,145,145,145,
145,145,145,145,145,145,145,145,145,145,145,145,145,145,145,145,
145,145,145,145,145,145,145,145,145,145,145,145,145,145,145,145,
145,145,145,145,145,145,145,145,145,145,145,145,145,145,145,145,
145,145,145,145,145,145,145,145,145,145,145,145,145,145,145,145
</chunk>
   <chunk x="-96" y="64" width="16" height="16">
52,45,45,45,45,45,45,45,45,45,45,45,45,45,45,45,
44,45,45,45,45,45,45,45,45,45,45,45,45,45,45,45,
52,45,45,45,45,45,45,45,45,45,45,45,45,45,45,45,
44,45,45,45,45,45,45,45,45,45,45,45,45,45,45,45,
52,45,45,45,45,45,45,45,45,45,45,45,45,45,45,45,
111,45,45,45,45,45,45,45,45,45,45,45,45,45,45,45,
102,102,102,102,102,102,102,102,102,102,102,102,102,102,102,103,
123,123,123,123,123,123,129,102,102,102,102,102,102,102,101,101,
145,145,145,145,145,145,145,129,102,102,102,101,102,221,241,242,
145,145,145,145,145,145,145,145,128,129,102,101,221,238,0,0,
145,145,145,145,145,145,145,145,145,146,102,101,130,0,0,0,
145,145,145,145,145,145,145,191,145,191,129,101,147,0,0,0,
145,145,145,145,145,145,145,145,145,145,146,101,147,0,0,0,
145,145,145,145,145,145,145,145,145,145,146,101,130,0,0,0,
145,145,145,145,145,145,145,145,145,145,146,102,147,0,0,0,
145,145,145,145,145,145,145,145,145,145,146,102,147,0,0,0
</chunk>
   <chunk x="-80" y="64" width="16" height="16">
45,45,45,45,45,45,45,45,45,45,45,45,45,45,45,45,
45,45,45,45,45,45,45,45,45,45,45,45,45,45,45,45,
45,45,45,45,45,45,45,45,45,45,45,45,45,45,45,45,
45,45,45,45,45,45,45,45,45,45,45,45,45,45,45,45,
45,45,45,45,45,45,45,45,45,45,45,45,45,45,45,45,
45,45,45,45,45,45,45,45,45,45,45,45,45,45,45,45,
102,103,103,139,140,140,140,140,140,140,140,140,140,140,140,140,
101,101,101,101,101,101,101,101,101,101,101,101,101,101,101,101,
243,180,241,242,243,180,241,242,243,180,241,242,243,180,241,242,
0,0,0,0,0,0,0,0,0,0,0,0,0,0,0,0,
0,0,0,0,0,0,0,0,0,0,0,0,0,0,0,0,
0,0,0,0,0,0,0,0,0,0,0,0,0,0,0,0,
0,0,0,0,0,0,0,0,0,0,0,0,0,0,0,0,
0,0,0,0,0,0,0,0,0,0,0,0,0,0,0,0,
0,0,0,0,0,0,0,0,0,0,0,0,0,0,0,0,
0,0,0,0,0,0,0,0,0,0,0,0,0,0,0,0
</chunk>
   <chunk x="-64" y="64" width="16" height="16">
45,45,45,46,46,46,46,46,46,46,46,46,46,46,145,145,
45,45,45,46,46,46,46,46,46,46,46,46,46,46,145,145,
45,45,45,46,46,46,46,46,46,46,46,46,46,46,145,145,
45,45,45,46,46,46,46,46,46,46,46,46,46,46,145,145,
45,45,45,46,46,46,46,46,46,46,46,46,46,46,145,145,
45,45,45,46,46,46,46,46,46,46,46,46,46,46,145,145,
140,162,140,140,140,140,140,140,162,140,140,140,140,140,140,140,
101,101,101,101,101,101,101,101,101,101,101,101,101,101,101,101,
243,180,241,242,243,180,241,242,243,180,241,242,243,180,241,242,
0,0,0,0,0,0,0,0,0,0,0,0,0,0,0,0,
0,0,0,0,0,0,0,0,0,0,0,0,0,0,0,0,
0,0,0,0,0,0,0,0,0,0,0,0,0,0,0,0,
0,0,0,0,0,0,0,0,0,0,0,0,0,0,0,0,
0,0,0,0,0,0,0,0,0,0,0,0,0,0,0,0,
0,0,0,0,0,0,0,0,0,0,0,0,0,0,0,0,
0,0,0,0,0,0,0,0,0,0,0,0,0,0,0,0
</chunk>
   <chunk x="-48" y="64" width="16" height="16">
145,145,145,145,145,145,145,145,145,145,145,145,145,145,145,145,
145,145,145,145,145,145,145,145,145,145,145,145,145,145,145,145,
145,145,145,145,145,145,145,145,145,145,145,145,145,145,145,145,
145,145,145,145,145,145,145,145,145,145,145,145,145,145,145,145,
145,145,145,145,145,145,145,145,145,145,145,145,145,145,145,145,
145,145,145,145,145,145,145,145,145,145,145,145,145,145,145,145,
140,140,140,140,140,140,140,140,140,140,140,140,140,162,140,140,
101,101,101,101,101,101,101,101,101,101,101,101,101,101,101,101,
243,180,241,242,243,180,241,242,243,180,241,242,243,180,241,242,
0,0,0,0,0,0,0,0,0,0,0,0,0,0,0,0,
0,0,0,0,0,0,0,0,0,0,0,0,0,0,0,0,
0,0,0,0,0,0,0,0,0,0,0,0,0,0,0,0,
0,0,0,0,0,0,0,0,0,0,0,0,0,0,0,0,
0,0,0,0,0,0,0,0,0,0,0,0,0,0,0,0,
0,0,0,0,0,0,0,0,0,0,0,0,0,0,0,0,
0,0,0,0,0,0,0,0,0,0,0,0,0,0,0,0
</chunk>
   <chunk x="-32" y="64" width="16" height="16">
145,145,145,145,145,145,145,145,145,145,145,145,145,145,145,145,
145,145,145,145,145,145,145,145,145,145,145,145,145,145,145,145,
145,145,145,145,145,145,145,145,145,145,145,145,145,145,145,145,
145,145,145,145,145,145,145,145,145,145,145,145,145,145,145,145,
145,145,145,145,145,145,145,145,145,145,145,145,145,145,145,145,
145,145,145,145,145,145,145,145,145,145,145,145,145,145,145,145,
140,140,140,140,140,140,140,140,140,140,140,140,140,140,140,140,
101,101,101,101,101,101,101,101,101,101,101,101,101,101,101,101,
243,180,241,242,243,180,241,242,243,180,241,242,243,180,241,242,
0,0,0,0,0,0,0,0,0,0,0,0,0,0,0,0,
0,0,0,0,0,0,0,0,0,0,0,0,0,0,0,0,
0,0,0,0,0,0,0,0,0,0,0,0,0,0,0,0,
0,0,0,0,0,0,0,0,0,0,0,0,0,0,0,0,
0,0,0,0,0,0,0,0,0,0,0,0,0,0,0,0,
0,0,0,0,0,0,0,0,0,0,0,0,0,0,0,0,
0,0,0,0,0,0,0,0,0,0,0,0,0,0,0,0
</chunk>
   <chunk x="-16" y="64" width="16" height="16">
145,145,145,145,145,145,145,145,145,145,145,145,145,145,145,145,
145,145,145,145,145,145,145,145,145,145,145,145,145,145,145,145,
145,145,145,145,145,145,145,145,145,145,145,145,145,145,145,145,
145,145,145,145,145,145,145,145,145,145,145,145,145,145,145,145,
145,145,145,145,145,145,145,145,145,145,145,145,145,145,145,145,
145,145,145,145,145,145,145,145,145,145,145,145,145,145,145,145,
140,140,162,140,140,140,140,140,140,140,140,140,140,140,140,162,
101,101,101,101,101,101,101,101,101,101,101,101,101,101,101,101,
243,180,241,242,243,180,241,242,243,180,241,242,243,180,241,242,
0,0,0,0,0,0,0,0,0,0,0,0,0,0,0,0,
0,0,0,0,0,0,0,0,0,0,0,0,0,0,0,0,
0,0,0,0,0,0,0,0,0,0,0,0,0,0,0,0,
0,0,0,0,0,0,0,0,0,0,0,0,0,0,0,0,
0,0,0,0,0,0,0,0,0,0,0,0,0,0,0,0,
0,0,0,0,0,0,0,0,0,0,0,0,0,0,0,0,
0,0,0,0,0,0,0,0,0,0,0,0,0,0,0,0
</chunk>
   <chunk x="0" y="64" width="16" height="16">
145,145,145,145,145,145,145,145,145,145,145,145,145,145,145,145,
145,145,145,145,145,145,145,145,145,145,145,145,145,145,145,145,
145,145,145,145,145,145,145,145,145,145,145,145,145,145,145,145,
145,145,145,145,145,145,145,145,145,145,145,145,145,145,145,145,
145,145,145,145,145,145,145,145,145,145,145,145,145,145,145,145,
145,145,145,145,145,145,145,145,145,145,145,145,145,145,145,145,
140,140,140,140,140,140,140,140,140,140,140,140,140,140,140,140,
101,101,101,101,101,101,101,101,101,101,101,101,101,101,101,101,
243,180,241,242,243,180,241,242,243,180,241,242,243,180,241,242,
0,0,0,0,0,0,0,0,0,0,0,0,0,0,0,0,
0,0,0,0,0,0,0,0,0,0,0,0,0,0,0,0,
0,0,0,0,0,0,0,0,0,0,0,0,0,0,0,0,
0,0,0,0,0,0,0,0,0,0,0,0,0,0,0,0,
0,0,0,0,0,0,0,0,0,0,0,0,0,0,0,0,
0,0,0,0,0,0,0,0,0,0,0,0,0,0,0,0,
0,0,0,0,0,0,0,0,0,0,0,0,0,0,0,0
</chunk>
   <chunk x="16" y="64" width="16" height="16">
145,145,145,145,145,145,145,145,145,145,145,145,145,145,145,145,
145,145,145,145,145,145,145,145,145,145,145,145,145,145,145,145,
145,145,145,145,145,145,145,145,145,145,145,145,145,145,145,145,
145,145,145,145,145,145,145,145,145,145,145,145,145,145,145,145,
145,145,145,145,145,145,145,145,145,145,145,145,145,145,145,145,
145,145,145,145,145,145,145,145,145,145,145,145,145,145,145,145,
140,140,140,162,140,140,140,140,140,140,140,140,140,140,140,140,
101,101,101,101,101,101,101,101,101,101,101,101,101,101,101,101,
243,180,241,242,243,180,241,242,243,180,241,242,243,180,241,242,
0,0,0,0,0,0,0,0,0,0,0,0,0,0,0,0,
0,0,0,0,0,0,0,0,0,0,0,0,0,0,0,0,
0,0,0,0,0,0,0,0,0,0,0,0,0,0,0,0,
0,0,0,0,0,0,0,0,0,0,0,0,0,0,0,0,
0,0,0,0,0,0,0,0,0,0,0,0,0,0,0,0,
0,0,0,0,0,0,0,0,0,0,0,0,0,0,0,0,
0,0,0,0,0,0,0,0,0,0,0,0,0,0,0,0
</chunk>
   <chunk x="32" y="64" width="16" height="16">
145,145,145,145,145,145,145,145,145,145,145,145,145,145,145,145,
145,145,145,145,145,145,145,145,145,145,145,145,145,145,145,145,
145,145,145,145,145,145,145,145,145,145,145,145,145,145,145,145,
145,145,145,145,145,145,145,145,145,145,145,145,145,145,145,145,
145,145,145,145,145,145,145,145,145,145,145,145,145,145,145,145,
145,145,145,145,145,145,145,145,145,145,145,145,145,145,145,145,
140,140,140,162,140,144,191,191,191,191,191,191,191,191,191,191,
101,101,101,101,103,144,191,191,191,191,191,191,191,191,191,191,
243,180,220,102,103,144,191,191,191,191,191,191,191,191,191,191,
0,0,0,220,103,144,191,191,191,191,191,191,191,191,191,191,
0,0,0,143,101,144,191,191,191,191,191,191,191,191,191,191,
0,0,0,143,101,144,191,191,191,191,191,191,191,191,191,191,
0,0,0,160,101,144,191,191,191,191,191,191,191,191,191,191,
0,0,0,143,101,144,191,191,191,191,191,191,191,191,191,191,
0,0,0,160,101,144,191,191,191,191,191,191,191,191,191,191,
0,0,0,143,101,144,191,191,191,191,191,191,191,191,191,191
</chunk>
   <chunk x="48" y="64" width="16" height="16">
145,145,145,145,145,145,145,145,145,145,0,0,0,0,0,0,
145,145,145,145,145,145,145,145,145,145,0,0,0,0,0,0,
145,145,145,145,145,145,145,145,145,145,0,0,0,0,0,0,
145,145,145,145,145,145,145,145,145,145,0,0,0,0,0,0,
145,145,145,145,145,145,145,145,145,145,0,0,0,0,0,0,
145,145,145,145,145,145,145,145,145,145,0,0,0,0,0,0,
191,191,191,191,191,191,191,191,145,145,0,0,0,0,0,0,
191,191,191,191,191,191,191,191,145,145,0,0,0,0,0,0,
191,191,191,191,191,191,191,191,145,145,0,0,0,0,0,0,
191,191,191,191,191,191,191,191,145,145,0,0,0,0,0,0,
191,191,191,191,191,191,191,191,145,145,0,0,0,0,0,0,
191,191,191,191,191,191,191,191,145,145,0,0,0,0,0,0,
191,191,191,191,191,191,191,191,145,145,0,0,0,0,0,0,
191,191,191,191,191,191,191,191,145,145,0,0,0,0,0,0,
191,191,191,191,191,191,191,191,145,145,0,0,0,0,0,0,
191,191,191,191,191,191,191,191,145,145,0,0,0,0,0,0
</chunk>
   <chunk x="-192" y="80" width="16" height="16">
0,0,0,0,0,0,0,0,0,0,145,145,145,145,145,145,
0,0,0,0,0,0,0,0,0,0,145,145,145,145,145,145,
0,0,0,0,0,0,0,0,0,0,145,145,145,145,145,145,
0,0,0,0,0,0,0,0,0,0,145,145,145,145,145,145,
0,0,0,0,0,0,0,0,0,0,145,145,145,145,145,145,
0,0,0,0,0,0,0,0,0,0,145,145,145,145,145,145,
0,0,0,0,0,0,0,0,0,0,145,145,145,145,145,145,
0,0,0,0,0,0,0,0,0,0,145,145,145,145,145,145,
0,0,0,0,0,0,0,0,0,0,145,145,145,145,145,145,
0,0,0,0,0,0,0,0,0,0,145,145,145,145,145,145,
0,0,0,0,0,0,0,0,0,0,145,145,145,145,145,145,
0,0,0,0,0,0,0,0,0,0,145,145,145,145,145,145,
0,0,0,0,0,0,0,0,0,0,145,145,145,145,145,145,
0,0,0,0,0,0,0,0,0,0,145,145,145,145,145,145,
0,0,0,0,0,0,0,0,0,0,145,145,145,145,145,145,
0,0,0,0,0,0,0,0,0,0,145,145,145,145,145,145
</chunk>
   <chunk x="-176" y="80" width="16" height="16">
145,145,145,145,145,145,146,102,130,0,0,0,0,0,0,0,
145,145,145,145,145,145,146,102,147,0,0,0,0,0,0,0,
145,145,145,145,145,145,146,103,147,0,0,0,0,0,0,0,
145,145,145,145,145,145,146,103,130,0,0,0,0,0,0,0,
145,145,145,145,145,145,146,103,147,0,0,0,0,0,0,0,
145,145,145,145,145,145,146,103,0,0,0,0,0,0,0,0,
145,145,145,145,145,145,146,103,0,0,0,0,0,0,0,0,
145,145,145,145,145,145,146,103,147,0,0,0,0,0,0,0,
145,145,145,145,145,145,146,103,164,0,0,0,0,0,0,0,
145,145,145,145,145,145,146,103,130,0,0,0,0,0,0,0,
145,145,145,145,145,145,146,103,147,0,0,0,0,0,0,0,
145,145,145,145,145,145,146,103,147,0,0,0,0,0,0,0,
145,145,145,145,145,145,141,103,130,0,0,0,0,0,0,0,
145,145,145,145,145,162,102,103,147,0,0,0,0,0,0,0,
145,145,145,145,163,102,102,103,147,0,0,0,0,0,0,0,
145,145,145,146,102,102,102,103,130,0,0,0,0,0,0,0
</chunk>
   <chunk x="-160" y="80" width="16" height="16">
44,45,45,45,45,45,45,45,45,45,45,45,45,45,45,45,
44,45,45,45,45,45,45,45,45,45,45,45,45,45,45,45,
52,45,45,45,45,45,45,45,45,45,45,45,45,45,45,45,
0,52,52,45,45,45,45,45,45,45,45,45,45,45,45,45,
0,0,0,52,62,62,62,62,62,62,62,62,62,62,62,62,
0,0,0,0,0,0,0,0,0,0,0,0,0,0,0,0,
0,0,0,0,0,0,0,0,0,0,0,0,0,0,0,0,
0,0,0,0,0,0,0,0,0,0,0,0,0,0,0,0,
0,0,0,0,0,0,0,0,0,0,0,0,0,0,0,0,
0,0,0,0,0,0,0,0,0,0,0,0,0,0,0,0,
0,0,0,0,0,0,0,0,0,0,0,0,0,0,0,0,
0,0,0,0,0,0,0,0,0,0,0,0,0,0,0,0,
0,0,0,0,0,0,0,0,0,0,0,0,0,0,0,0,
0,0,0,0,0,0,0,0,0,0,0,0,0,0,0,0,
0,0,0,0,0,0,0,0,0,0,0,0,0,0,0,0,
0,0,0,0,0,0,0,0,0,0,0,0,0,0,0,0
</chunk>
   <chunk x="-144" y="80" width="16" height="16">
45,45,45,63,0,0,0,0,0,0,0,0,0,0,0,0,
45,45,63,0,0,0,0,0,0,0,0,0,0,0,0,0,
45,45,63,0,0,0,0,0,0,0,0,0,0,0,0,0,
45,63,0,0,0,0,0,0,0,0,0,0,0,0,0,0,
63,0,0,0,0,0,0,0,0,0,0,0,0,0,0,0,
0,0,0,0,0,0,0,0,0,0,0,0,0,0,0,0,
0,0,0,0,0,0,0,0,0,0,0,0,0,0,0,0,
0,0,0,0,0,0,0,0,0,0,0,0,0,0,0,0,
0,0,0,0,0,0,0,0,0,0,0,0,0,0,0,0,
0,0,0,0,0,0,0,0,0,0,0,0,0,0,0,0,
0,0,0,0,0,0,0,0,0,0,0,0,0,0,0,0,
0,0,0,0,0,0,0,0,0,0,0,0,0,0,0,0,
0,0,0,0,0,0,0,0,0,0,0,0,0,0,0,0,
0,0,0,0,0,0,0,0,0,0,0,0,0,0,0,0,
0,0,0,0,0,0,0,0,0,0,0,0,0,0,0,0,
0,0,0,0,0,0,0,0,0,0,0,0,104,110,111,112
</chunk>
   <chunk x="-128" y="80" width="16" height="16">
160,102,144,145,145,145,145,145,145,145,145,145,145,145,145,145,
143,102,144,145,145,145,145,145,145,145,145,145,145,145,145,145,
160,102,144,145,145,145,145,145,145,145,145,145,145,145,145,145,
143,102,144,145,145,145,145,145,145,145,145,145,145,145,145,145,
160,102,144,145,145,145,145,145,145,145,145,145,145,145,145,145,
143,102,144,145,145,145,145,145,145,145,145,145,145,145,145,145,
160,102,144,145,145,145,145,145,145,145,145,145,145,145,145,145,
143,102,144,145,145,145,145,145,145,145,145,145,145,145,145,145,
160,102,144,145,145,145,145,145,145,145,145,145,145,145,145,145,
143,102,144,145,145,145,145,145,145,145,145,145,145,145,145,145,
160,102,144,145,145,145,145,145,145,145,145,145,145,145,145,145,
143,102,144,145,145,145,145,145,145,145,145,145,145,145,145,145,
160,102,144,145,145,145,145,145,145,145,145,145,145,145,145,145,
143,102,144,145,145,145,145,145,145,145,145,145,145,145,145,145,
160,102,144,145,145,145,145,145,145,145,145,145,145,145,145,145,
203,102,144,145,145,145,145,145,145,145,145,145,145,145,145,145
</chunk>
   <chunk x="-112" y="80" width="16" height="16">
145,145,145,145,145,145,145,145,145,145,145,145,145,145,145,145,
145,145,145,145,145,145,145,145,145,145,145,145,145,145,145,145,
145,145,145,145,145,145,145,145,145,145,145,145,145,145,145,145,
145,145,145,145,145,145,145,145,145,145,145,145,145,145,145,145,
145,145,145,145,145,145,145,145,145,145,145,145,145,145,145,145,
145,145,145,145,145,145,145,145,145,145,145,145,145,145,145,145,
145,145,145,145,145,145,145,145,145,145,145,145,145,145,145,145,
145,145,145,145,145,145,145,145,145,145,145,145,145,145,145,145,
145,145,145,145,145,145,145,145,145,145,145,145,145,145,145,145,
145,145,145,145,145,145,145,145,145,145,145,145,145,145,145,145,
145,145,145,145,145,145,145,145,145,145,145,145,145,145,191,140,
145,145,145,145,145,145,145,145,145,145,145,145,145,145,163,102,
145,145,145,145,145,145,145,145,145,145,145,145,145,163,102,102,
145,145,145,145,145,145,145,145,145,145,145,145,146,102,101,102,
145,145,145,145,145,145,145,145,145,145,145,145,146,101,101,102,
145,145,145,145,145,145,145,145,145,145,145,145,146,101,101,102
</chunk>
   <chunk x="-96" y="80" width="16" height="16">
145,145,145,145,145,145,145,145,145,145,146,102,130,0,0,0,
145,145,145,145,145,145,145,145,145,145,146,102,147,0,0,0,
145,145,145,145,145,145,145,145,145,145,146,102,164,0,0,0,
145,145,145,145,145,145,145,145,145,145,146,102,130,0,0,0,
145,145,145,145,145,145,145,145,145,145,146,102,147,0,0,0,
145,145,145,145,145,145,145,145,145,145,146,102,147,0,0,0,
145,145,145,145,145,145,145,145,145,145,146,102,130,0,0,0,
145,145,145,145,145,145,145,145,145,145,146,102,147,0,0,0,
145,145,145,145,145,145,145,145,145,145,146,102,147,0,0,0,
145,145,145,145,145,145,145,145,145,145,146,102,130,0,0,0,
140,140,140,140,140,140,140,140,140,162,163,102,147,0,0,0,
102,102,102,102,102,102,102,102,102,102,102,102,164,0,0,0,
221,241,242,243,241,242,243,241,242,243,241,242,0,0,0,0,
130,0,0,0,0,0,0,0,0,0,0,0,0,0,0,0,
130,0,0,0,0,0,0,0,0,0,0,0,0,0,0,0,
147,0,0,0,0,0,0,0,0,0,0,0,0,0,0,0
</chunk>
   <chunk x="-16" y="80" width="16" height="16">
0,0,0,0,0,0,0,0,0,0,0,0,0,0,0,0,
0,0,0,0,0,0,0,0,0,0,0,0,0,0,0,0,
0,0,0,0,0,0,0,0,0,0,0,0,0,0,0,0,
0,0,0,0,0,0,0,0,0,0,0,0,0,0,0,0,
0,0,0,0,0,0,0,0,0,0,0,0,0,0,0,0,
0,0,0,0,0,0,0,0,0,0,0,0,0,0,0,0,
0,0,0,0,0,0,0,0,0,0,0,0,0,0,0,0,
0,0,0,0,0,0,0,0,0,0,0,0,0,0,0,0,
0,0,0,0,0,0,0,0,0,0,0,223,224,225,226,224,
0,0,0,0,0,0,0,0,0,0,0,240,241,242,243,241,
0,0,0,0,0,0,0,0,0,0,0,0,0,0,0,0,
0,0,0,0,0,0,0,0,0,0,0,0,0,0,0,0,
0,0,0,0,0,0,0,0,0,0,0,0,0,0,0,0,
0,0,0,0,0,0,0,0,0,0,0,0,0,0,0,0,
0,0,0,0,0,0,0,0,0,0,0,0,0,0,0,0,
0,0,0,0,0,0,0,0,0,0,0,0,0,0,0,0
</chunk>
   <chunk x="0" y="80" width="16" height="16">
0,0,0,0,0,0,0,0,0,0,0,0,0,0,0,0,
0,0,0,0,0,0,0,0,0,0,0,0,0,0,0,0,
0,0,0,0,0,0,0,0,0,0,0,0,0,0,0,0,
0,0,0,0,0,0,0,0,0,0,0,0,0,0,0,0,
0,0,0,0,0,0,0,0,0,0,0,0,0,0,0,0,
0,0,0,0,0,0,0,0,0,0,0,0,0,0,0,0,
0,0,0,0,0,0,0,0,0,0,0,0,0,0,0,0,
0,0,0,0,0,0,0,0,0,0,0,0,0,0,0,0,
225,225,225,226,224,225,224,225,226,224,225,225,225,226,224,225,
242,242,242,243,241,242,243,242,243,241,242,242,242,243,241,243,
0,0,0,0,0,0,0,0,0,0,0,0,0,0,0,0,
0,0,0,0,0,0,0,0,0,0,0,0,0,0,0,0,
0,0,0,0,0,0,0,0,0,0,0,0,0,0,0,0,
0,0,0,0,0,0,0,0,0,0,0,0,0,0,0,0,
0,0,0,0,0,0,0,0,0,0,0,0,0,0,0,0,
0,0,0,0,0,0,0,0,0,0,0,0,0,0,0,0
</chunk>
   <chunk x="16" y="80" width="16" height="16">
0,0,0,0,0,0,0,0,0,0,0,0,0,0,0,0,
0,0,0,0,0,0,0,0,0,0,0,0,0,0,0,0,
0,0,0,0,0,0,0,0,0,0,0,0,0,0,0,0,
0,0,0,0,0,0,0,0,0,0,0,0,0,0,0,0,
0,0,0,0,0,0,0,0,0,0,0,0,0,0,0,0,
0,0,0,0,0,0,0,0,0,0,0,0,0,0,0,0,
0,0,0,0,0,0,0,0,0,0,0,0,0,0,0,0,
0,0,0,0,0,0,0,0,0,0,0,0,0,0,0,0,
224,225,226,224,225,225,225,226,224,225,224,225,226,224,225,225,
241,242,243,241,242,242,242,243,241,242,241,242,243,241,242,242,
0,0,0,0,0,0,0,0,0,0,0,0,0,0,0,0,
0,0,0,0,0,0,0,0,0,0,0,0,0,0,0,0,
0,0,0,0,0,0,0,0,0,0,0,0,0,0,0,0,
0,0,0,0,0,0,0,0,0,0,0,0,0,0,0,0,
0,0,0,0,0,0,0,0,0,0,0,0,0,0,0,0,
0,0,0,0,0,0,0,0,0,0,0,0,0,0,0,0
</chunk>
   <chunk x="32" y="80" width="16" height="16">
0,0,0,143,101,144,191,191,191,191,191,191,191,191,191,191,
0,0,0,143,101,144,191,191,191,191,191,191,191,191,191,191,
0,0,0,143,101,144,191,191,191,191,191,191,191,191,191,191,
0,0,0,143,101,144,191,191,191,191,191,191,191,191,191,191,
0,0,0,160,101,144,191,191,191,191,191,191,191,191,191,191,
0,0,0,143,101,144,191,191,191,191,191,191,191,191,191,191,
0,0,0,160,101,144,191,191,191,191,191,191,191,191,191,191,
0,0,0,143,101,144,191,191,191,191,191,191,191,191,191,191,
225,226,224,203,102,144,191,191,191,191,191,191,191,191,191,191,
242,243,241,220,102,144,191,191,191,191,191,191,191,191,191,191,
0,0,0,126,102,144,191,191,191,191,191,191,191,191,191,191,
0,0,0,126,102,144,191,191,191,191,191,191,191,191,191,191,
0,0,0,126,102,144,191,191,191,191,191,191,191,191,191,191,
0,0,0,126,102,144,191,191,191,191,191,191,191,191,191,191,
0,0,0,126,102,144,191,191,191,191,191,191,191,191,191,191,
0,0,0,126,102,144,191,191,191,191,191,191,191,191,191,191
</chunk>
   <chunk x="48" y="80" width="16" height="16">
191,191,191,191,191,191,191,191,145,145,0,0,0,0,0,0,
191,191,191,191,191,191,191,191,145,145,0,0,0,0,0,0,
191,191,191,191,191,191,191,191,145,145,0,0,0,0,0,0,
191,191,191,191,191,191,191,191,145,145,0,0,0,0,0,0,
191,191,191,191,191,191,191,191,145,145,0,0,0,0,0,0,
191,191,191,191,191,191,191,191,145,145,0,0,0,0,0,0,
191,191,191,191,191,191,191,191,145,145,0,0,0,0,0,0,
191,191,191,191,191,191,191,191,145,145,0,0,0,0,0,0,
191,191,191,191,191,191,191,191,145,145,0,0,0,0,0,0,
191,191,191,191,191,191,191,191,145,145,0,0,0,0,0,0,
191,191,191,191,191,191,191,191,145,145,0,0,0,0,0,0,
191,191,191,191,191,191,191,191,145,145,0,0,0,0,0,0,
191,191,191,191,191,191,191,191,145,145,0,0,0,0,0,0,
191,191,191,191,191,191,191,191,145,145,0,0,0,0,0,0,
191,191,191,191,191,191,191,191,145,145,0,0,0,0,0,0,
191,191,191,191,191,191,191,191,145,145,0,0,0,0,0,0
</chunk>
   <chunk x="-192" y="96" width="16" height="16">
0,0,0,0,0,0,0,0,0,0,145,145,145,145,145,145,
0,0,0,0,0,0,0,0,0,0,145,145,145,145,145,145,
0,0,0,0,0,0,0,0,0,0,145,145,145,145,145,145,
0,0,0,0,0,0,0,0,0,0,145,145,145,145,145,145,
0,0,0,0,0,0,0,0,0,0,145,145,145,145,145,145,
0,0,0,0,0,0,0,0,0,0,145,145,145,145,145,145,
0,0,0,0,0,0,0,0,0,0,145,145,145,145,145,145,
0,0,0,0,0,0,0,0,0,0,145,145,145,145,145,145,
0,0,0,0,0,0,0,0,0,0,145,145,145,145,145,145,
0,0,0,0,0,0,0,0,0,0,145,145,145,145,145,145,
0,0,0,0,0,0,0,0,0,0,145,145,145,145,145,145,
0,0,0,0,0,0,0,0,0,0,145,145,145,145,145,145,
0,0,0,0,0,0,0,0,0,0,145,145,145,145,145,145,
0,0,0,0,0,0,0,0,0,0,145,145,145,145,145,145,
0,0,0,0,0,0,0,0,0,0,145,145,145,145,145,145,
0,0,0,0,0,0,0,0,0,0,145,145,145,145,145,145
</chunk>
   <chunk x="-176" y="96" width="16" height="16">
145,145,145,145,129,102,102,102,103,110,110,110,110,110,111,112,
145,145,145,145,145,128,129,102,101,101,101,101,101,101,101,101,
145,145,145,145,145,145,146,102,102,102,102,102,102,102,102,102,
145,145,145,145,191,145,191,129,127,123,123,123,123,123,123,123,
145,145,145,145,145,145,145,145,145,145,145,145,145,145,145,145,
145,145,145,145,145,145,145,145,145,145,145,145,145,145,145,145,
145,145,145,145,145,145,145,145,145,145,145,145,145,145,145,145,
145,145,145,145,145,145,145,145,145,145,145,145,145,145,145,145,
145,145,145,145,145,145,145,145,145,145,145,145,145,145,145,145,
145,145,145,145,145,145,145,145,145,145,145,145,145,145,145,162,
145,145,145,145,145,145,145,145,145,145,145,145,145,145,163,221,
145,145,145,145,145,145,145,145,145,145,145,145,145,163,221,0,
145,145,145,145,145,145,145,145,145,145,145,145,163,221,0,0,
145,145,145,145,145,145,145,145,145,145,145,163,221,0,0,0,
145,145,145,145,145,145,145,145,145,162,163,221,0,0,0,0,
145,145,145,145,145,145,145,145,163,101,221,0,0,0,0,0
</chunk>
   <chunk x="-160" y="96" width="16" height="16">
110,111,110,111,111,112,108,0,0,0,0,0,0,0,0,0,
101,101,101,102,102,102,125,0,0,0,0,0,0,0,0,0,
102,102,102,102,102,102,142,0,0,0,0,0,0,0,0,0,
123,124,102,102,102,102,130,0,0,0,0,0,0,0,0,0,
145,145,129,102,102,101,147,0,0,0,0,0,0,0,0,0,
145,145,163,102,102,101,164,0,0,0,0,0,0,0,0,0,
145,163,102,102,102,221,0,0,0,0,0,0,0,0,0,0,
146,102,101,221,158,0,0,0,0,0,0,0,0,0,0,0,
163,101,221,0,0,0,0,0,0,0,0,0,0,0,0,0,
221,158,0,0,0,0,0,0,0,0,0,0,0,0,0,0,
0,0,0,0,0,0,0,0,0,0,0,0,0,0,0,0,
0,0,0,0,0,0,0,0,0,0,0,0,0,0,0,0,
0,0,0,0,0,0,0,0,0,0,0,0,0,0,0,0,
0,0,0,0,0,0,0,0,0,0,0,0,0,0,0,0,
0,0,0,0,0,0,0,0,0,0,0,0,0,0,0,0,
0,0,0,0,0,0,0,0,0,0,0,0,0,0,0,0
</chunk>
   <chunk x="-144" y="96" width="16" height="16">
0,0,0,0,0,0,0,0,0,0,0,0,121,102,102,102,
0,0,0,0,0,0,0,0,0,0,0,0,138,102,102,102,
0,0,0,0,0,0,0,0,0,0,0,0,155,242,243,220,
0,0,0,0,0,0,0,0,0,0,0,0,0,0,0,143,
0,0,0,0,0,0,0,0,0,0,0,0,0,0,0,143,
0,0,0,0,0,0,0,0,0,0,0,0,0,0,0,203,
0,0,0,0,0,0,0,0,0,0,0,0,0,0,101,101,
0,0,0,0,0,0,0,0,0,0,0,0,0,203,101,101,
0,0,0,0,0,0,0,0,0,0,0,0,203,102,101,101,
0,0,0,0,0,0,0,0,0,0,0,203,102,101,101,101,
0,0,0,111,112,110,111,112,110,111,203,102,101,101,101,102,
0,0,160,102,102,102,102,102,102,102,102,102,101,101,101,101,
0,0,155,241,243,241,242,243,243,220,102,102,102,102,102,102,
0,0,0,0,0,0,0,0,0,143,102,102,102,102,102,221,
0,0,0,0,0,0,0,0,0,143,102,102,102,102,102,147,
0,0,0,0,0,0,0,0,0,160,102,102,102,102,102,130
</chunk>
   <chunk x="-128" y="96" width="16" height="16">
102,102,144,145,145,145,145,145,145,145,145,145,145,145,145,145,
102,102,144,145,145,145,145,145,145,145,145,145,145,145,145,145,
102,122,145,145,145,145,145,145,145,145,145,145,145,145,145,145,
102,144,145,145,145,145,145,145,145,145,145,145,145,145,145,145,
102,144,145,145,145,145,145,145,145,145,145,145,145,145,145,145,
101,139,145,145,145,145,145,145,145,145,145,145,145,145,145,145,
101,101,161,145,145,145,145,145,145,145,145,145,145,145,145,145,
101,101,101,161,145,145,145,145,145,145,145,145,145,145,145,145,
101,101,101,101,161,145,145,145,145,145,145,145,145,145,145,145,
101,102,102,102,102,161,140,140,140,140,140,140,140,140,140,140,
102,102,102,102,102,102,102,102,102,102,102,102,102,102,102,102,
102,221,178,178,241,242,243,241,242,243,241,242,243,241,242,243,
221,0,0,0,0,0,0,0,0,0,0,0,0,0,0,0,
0,0,0,0,0,0,0,0,0,0,0,0,0,0,0,0,
0,0,0,0,0,0,0,0,0,0,0,0,0,0,0,0,
0,0,0,0,0,0,0,0,0,0,0,0,0,0,0,0
</chunk>
   <chunk x="-112" y="96" width="16" height="16">
145,145,145,145,145,145,145,145,145,145,145,145,146,101,101,102,
145,145,145,145,145,145,145,145,145,145,145,145,146,101,101,102,
145,145,145,145,145,145,145,145,145,145,145,145,146,102,102,102,
145,145,145,145,145,145,145,145,145,145,145,145,146,102,102,102,
145,145,145,145,145,145,145,145,145,145,145,145,146,102,102,102,
145,145,145,145,145,145,145,145,145,145,145,145,146,101,101,102,
145,145,145,145,145,145,145,145,145,145,145,191,146,101,101,102,
145,145,145,145,145,145,145,145,145,145,145,163,102,101,101,101,
145,145,145,145,145,145,145,145,145,145,146,102,102,101,101,101,
140,140,140,140,140,140,140,140,140,162,141,101,101,101,101,101,
102,102,102,102,102,102,102,102,102,102,102,101,101,102,101,101,
241,242,243,241,242,220,102,102,102,102,102,102,102,102,101,102,
0,0,0,0,0,0,241,242,243,241,242,243,242,243,220,102,
0,0,0,0,0,0,0,0,0,0,0,0,0,0,138,102,
0,0,0,0,0,0,0,0,0,0,0,0,0,0,121,102,
0,0,0,0,0,0,0,0,0,0,0,0,0,0,138,102
</chunk>
   <chunk x="-96" y="96" width="16" height="16">
147,0,0,0,0,0,0,0,0,0,0,0,0,0,0,0,
130,0,0,0,0,0,0,0,0,0,0,0,0,0,0,0,
147,0,0,0,0,0,0,0,0,0,0,0,0,0,0,0,
147,0,0,0,0,0,0,0,0,0,0,0,0,0,0,0,
130,0,0,0,0,0,0,0,0,0,0,0,0,0,0,0,
147,0,0,0,0,0,0,0,0,0,0,0,0,0,0,0,
164,0,0,0,0,0,0,0,0,0,0,0,0,0,0,0,
204,111,110,111,111,112,108,0,0,0,0,0,0,0,0,0,
101,101,101,102,102,102,125,0,0,0,0,0,0,0,0,0,
101,101,101,101,101,102,204,111,111,112,108,0,0,0,0,0,
101,101,101,101,101,102,102,102,102,102,125,0,0,0,0,0,
102,102,101,101,101,101,102,102,102,102,142,0,0,0,0,0,
102,102,102,102,102,102,102,102,102,102,125,0,0,0,0,0,
102,102,102,102,102,102,102,102,102,102,142,0,0,0,0,0,
102,102,102,102,102,102,102,221,241,242,0,0,0,0,0,0,
102,102,102,102,102,102,221,0,0,0,0,0,0,0,0,0
</chunk>
   <chunk x="32" y="96" width="16" height="16">
0,0,0,126,102,144,191,191,191,191,191,191,191,191,191,191,
0,0,0,126,102,144,191,191,191,191,191,191,191,191,191,191,
0,0,0,126,102,144,191,191,191,191,191,191,191,191,191,191,
0,0,0,126,102,144,191,191,191,191,191,191,191,191,191,191,
0,0,0,126,102,144,191,191,191,191,191,191,191,191,191,191,
0,0,0,126,102,144,191,191,191,191,191,191,191,191,191,191,
0,0,0,126,102,144,191,191,191,191,191,191,191,191,191,191,
0,0,0,126,102,144,191,191,191,191,191,191,191,191,191,191,
0,0,0,126,102,144,191,191,191,191,191,191,191,191,191,191,
0,0,0,126,102,144,191,191,191,191,191,191,191,191,191,191,
0,0,0,126,102,144,191,191,191,191,191,191,191,191,191,191,
0,0,0,126,102,144,145,145,145,145,145,145,145,145,145,145,
0,0,0,126,102,144,145,145,145,145,145,145,145,145,145,145,
0,0,0,126,102,144,145,145,145,145,145,145,145,145,145,145,
0,0,0,126,102,144,145,145,145,145,145,145,145,145,145,145,
0,0,0,126,102,144,145,145,145,145,145,145,145,145,145,145
</chunk>
   <chunk x="48" y="96" width="16" height="16">
191,191,191,191,191,191,191,191,145,145,0,0,0,0,0,0,
191,191,191,191,191,191,191,191,145,145,0,0,0,0,0,0,
191,191,191,191,191,191,191,191,145,145,0,0,0,0,0,0,
191,191,191,191,191,191,191,191,145,145,0,0,0,0,0,0,
191,191,191,191,191,191,191,191,145,145,0,0,0,0,0,0,
191,191,191,191,191,191,191,191,145,145,0,0,0,0,0,0,
191,191,191,191,191,191,191,191,145,145,0,0,0,0,0,0,
191,191,191,191,191,191,191,191,145,145,0,0,0,0,0,0,
191,191,191,191,191,191,191,191,145,145,0,0,0,0,0,0,
191,191,191,191,191,191,191,191,145,145,0,0,0,0,0,0,
191,191,191,191,191,191,191,191,145,145,0,0,0,0,0,0,
145,145,145,145,145,145,145,145,145,145,0,0,0,0,0,0,
145,145,145,145,145,145,145,145,145,145,0,0,0,0,0,0,
145,145,145,145,145,145,145,145,145,145,0,0,0,0,0,0,
145,145,145,145,145,145,145,145,145,145,0,0,0,0,0,0,
145,145,145,145,145,145,145,145,145,145,0,0,0,0,0,0
</chunk>
   <chunk x="-192" y="112" width="16" height="16">
0,0,0,0,0,0,0,0,0,0,145,145,145,145,145,145,
0,0,0,0,0,0,0,0,0,0,145,145,145,145,145,145,
0,0,0,0,0,0,0,0,0,0,145,145,145,145,145,145,
0,0,0,0,0,0,0,0,0,0,145,145,145,145,145,145,
0,0,0,0,0,0,0,0,0,0,145,145,145,145,145,145,
0,0,0,0,0,0,0,0,0,0,145,145,145,145,145,145,
0,0,0,0,0,0,0,0,0,0,145,145,145,145,145,145,
0,0,0,0,0,0,0,0,0,0,145,145,145,145,145,145,
0,0,0,0,0,0,0,0,0,0,145,145,145,145,145,145,
0,0,0,0,0,0,0,0,0,0,145,145,145,145,145,145,
0,0,0,0,0,0,0,0,0,0,145,145,145,145,145,145,
0,0,0,0,0,0,0,0,0,0,145,145,145,145,145,145,
0,0,0,0,0,0,0,0,0,0,145,145,145,145,145,145,
0,0,0,0,0,0,0,0,0,0,145,145,145,145,145,145,
0,0,0,0,0,0,0,0,0,0,145,145,145,145,145,145,
0,0,0,0,0,0,0,0,0,0,145,145,145,145,145,145
</chunk>
   <chunk x="-176" y="112" width="16" height="16">
145,145,145,145,145,145,145,146,101,221,0,0,0,0,0,0,
145,145,145,145,145,145,145,146,101,130,0,0,0,0,0,0,
145,145,145,145,145,145,145,146,101,147,0,0,0,0,0,0,
145,145,145,145,145,145,145,146,101,147,0,0,0,0,0,0,
145,145,145,145,145,145,145,146,101,130,0,0,0,0,0,0,
145,145,145,145,145,145,145,146,101,147,0,0,0,0,0,0,
145,145,145,145,145,145,145,146,101,147,0,0,0,0,0,0,
145,145,145,145,145,145,145,146,101,130,0,0,0,0,0,0,
145,145,145,145,145,191,140,163,101,147,0,0,0,0,0,0,
145,145,145,145,145,163,102,101,101,164,0,0,0,0,0,0,
145,145,191,145,146,102,102,101,101,204,111,112,110,111,112,110,
145,145,191,191,191,129,102,102,102,102,102,102,102,102,102,102,
145,145,191,191,191,191,128,129,102,127,123,123,123,123,123,129,
145,145,145,191,191,145,145,146,102,144,145,145,145,145,145,145,
145,145,145,145,145,191,145,191,128,145,145,145,145,145,145,145,
145,145,145,145,145,145,145,145,145,145,145,145,145,145,145,191
</chunk>
   <chunk x="-160" y="112" width="16" height="16">
0,0,0,0,0,0,0,0,0,0,0,0,0,0,0,0,
0,0,0,0,0,0,0,0,0,0,0,0,0,0,0,0,
0,0,0,0,0,0,0,0,0,0,225,112,110,111,112,110,
0,0,0,0,0,0,0,0,0,138,102,102,102,102,102,102,
0,0,0,0,0,0,0,0,0,0,220,102,102,102,102,102,
0,0,0,0,0,0,0,0,0,0,0,241,242,243,241,242,
0,0,0,0,0,0,0,0,0,0,0,0,0,0,0,0,
0,0,0,0,0,0,0,0,0,0,0,0,0,0,0,0,
0,0,0,0,0,0,0,0,0,0,0,0,0,0,0,0,
0,0,0,0,0,0,0,0,0,0,0,0,0,0,0,0,
111,112,0,0,0,0,0,0,0,0,0,0,0,0,0,0,
102,102,204,0,0,0,0,0,0,0,0,0,0,0,0,0,
102,102,101,204,0,0,0,0,0,0,0,0,0,0,0,0,
128,129,102,101,204,110,111,112,111,112,110,111,112,110,111,112,
145,146,102,102,102,102,102,102,102,102,102,102,102,102,102,102,
145,191,129,127,123,123,123,123,123,123,123,123,123,123,123,123
</chunk>
   <chunk x="-144" y="112" width="16" height="16">
0,0,0,0,0,0,0,110,111,203,102,102,102,102,102,147,
0,0,0,0,0,0,203,102,102,102,102,102,102,102,102,147,
111,112,110,110,111,203,102,102,102,102,102,102,102,102,102,130,
102,102,102,102,102,102,102,102,102,102,102,102,102,102,102,147,
102,102,102,102,102,102,102,102,102,102,102,102,102,102,221,0,
243,242,243,241,242,243,241,242,243,241,242,243,241,242,0,0,
0,0,0,0,0,0,0,0,0,0,0,0,0,0,0,0,
0,0,0,0,0,0,0,0,0,0,0,0,0,0,0,0,
0,0,0,0,0,0,0,0,0,0,0,0,0,0,0,0,
0,0,0,0,0,0,0,0,0,0,0,0,0,0,0,0,
0,0,0,0,0,0,0,0,0,0,0,0,0,0,0,0,
0,0,0,0,0,0,0,0,0,0,0,0,0,0,0,0,
0,0,0,0,0,0,0,0,0,0,0,0,0,0,0,0,
110,111,0,0,0,0,0,0,0,0,0,0,0,0,0,0,
102,102,102,204,112,0,0,0,0,0,0,0,0,0,0,0,
123,129,102,102,102,204,0,0,0,0,0,0,0,0,0,0
</chunk>
   <chunk x="-112" y="112" width="16" height="16">
0,0,0,0,0,0,0,0,0,0,0,0,0,0,121,102,
0,0,0,0,0,0,0,0,0,0,0,0,0,0,138,102,
0,0,0,0,0,0,0,0,0,0,0,0,0,0,155,242,
0,0,0,0,0,0,0,0,0,0,0,0,0,0,0,0,
0,0,0,0,0,0,0,0,0,0,0,0,0,0,0,0,
0,0,0,0,0,0,0,0,0,0,0,0,0,0,0,0,
0,0,0,0,0,0,0,0,0,0,0,0,0,0,0,0,
0,0,0,0,0,0,0,0,0,0,0,0,0,0,0,0,
0,0,0,0,0,0,0,0,0,0,0,0,0,0,0,0,
0,0,0,0,0,0,0,0,0,0,0,0,0,0,0,0,
0,0,0,0,0,0,0,0,0,0,0,0,0,0,0,0,
0,0,0,0,0,0,0,0,0,0,0,0,0,0,0,0,
0,0,0,0,0,0,0,0,0,0,0,0,0,0,0,0,
0,0,0,0,0,0,0,0,0,0,0,0,0,0,0,0,
0,0,0,0,0,0,0,0,0,0,0,0,0,0,0,0,
0,0,0,0,0,0,0,0,0,0,0,0,0,0,0,0
</chunk>
   <chunk x="-96" y="112" width="16" height="16">
102,102,102,102,102,102,125,0,0,0,0,0,0,0,0,0,
102,102,102,102,102,102,125,0,0,0,0,0,0,0,0,0,
243,241,242,243,241,242,159,0,0,0,0,0,0,0,0,0,
0,0,0,0,0,0,0,0,0,0,0,0,0,0,0,0,
0,0,0,0,0,0,0,0,0,0,0,0,0,0,0,0,
0,0,0,0,0,0,0,0,0,0,0,0,0,0,0,0,
0,0,0,0,0,0,0,0,0,0,0,0,0,0,0,0,
0,0,0,0,0,0,0,0,0,0,0,0,0,0,0,0,
0,0,0,0,0,0,0,0,0,0,0,0,0,0,0,0,
0,0,0,0,0,0,0,0,0,0,0,0,0,0,0,0,
0,0,0,0,0,0,0,0,0,0,0,0,0,0,0,0,
0,0,0,0,0,0,0,0,0,0,0,0,0,0,0,0,
0,0,0,0,0,0,0,0,0,0,0,0,0,0,0,0,
0,0,0,0,0,0,0,0,0,0,0,0,0,0,0,0,
0,0,0,0,0,0,0,0,0,0,0,0,0,0,0,0,
0,0,0,0,0,0,0,0,0,0,0,0,0,0,0,0
</chunk>
   <chunk x="-16" y="112" width="16" height="16">
0,0,0,0,0,0,0,0,0,0,0,0,0,0,0,0,
0,104,105,106,106,106,106,106,106,106,106,106,107,108,0,0,
0,121,122,123,123,123,123,123,123,123,123,123,124,125,0,0,
0,138,139,140,140,140,140,140,140,140,140,140,141,142,0,0,
0,155,156,157,157,157,157,157,157,157,157,157,158,159,0,0,
0,0,0,0,0,0,0,0,0,0,0,0,0,0,0,0,
0,0,0,0,0,0,0,0,0,0,0,0,0,0,0,0,
0,0,0,0,0,0,0,0,0,0,0,0,0,0,0,0,
0,0,0,0,0,0,0,0,0,0,0,0,0,0,0,0,
0,0,0,0,0,0,172,173,174,174,174,174,174,174,174,174,
0,0,0,0,0,0,189,190,191,145,145,145,145,145,145,145,
0,0,0,0,0,0,206,207,208,208,208,208,208,208,208,208,
0,0,0,0,0,0,0,0,0,0,0,0,0,0,0,0,
0,0,0,0,0,0,0,0,0,0,0,0,0,0,0,0,
0,0,0,0,0,0,0,0,0,0,0,0,0,0,0,0,
0,0,0,0,0,0,0,0,0,0,0,0,0,0,0,0
</chunk>
   <chunk x="0" y="112" width="16" height="16">
0,0,0,0,0,0,0,0,0,0,0,0,0,0,0,0,
0,0,0,0,0,0,0,0,0,0,0,0,0,0,0,0,
0,0,0,0,0,0,0,0,0,0,0,0,0,0,0,0,
0,0,0,0,0,0,0,0,0,0,0,0,0,0,0,0,
0,0,0,0,0,0,0,0,0,0,0,0,0,0,0,0,
0,0,0,0,0,0,0,0,0,0,0,0,0,0,0,0,
0,0,0,0,0,0,0,0,0,0,0,0,0,0,0,0,
0,0,0,0,0,0,0,0,0,0,0,0,0,0,0,0,
0,0,0,0,0,0,0,0,0,0,0,0,0,0,0,0,
174,174,174,174,174,174,174,174,174,174,174,174,174,174,175,176,
145,145,145,145,191,145,145,191,145,191,145,145,145,145,192,193,
208,208,208,208,208,208,208,208,208,208,208,208,208,208,209,210,
0,0,0,0,0,0,0,0,0,0,0,0,0,0,0,0,
0,0,0,0,0,0,0,0,0,0,0,0,0,0,0,0,
0,0,0,0,0,0,0,0,0,0,0,0,0,0,0,0,
0,0,0,0,0,0,0,0,0,0,0,0,0,0,0,0
</chunk>
   <chunk x="32" y="112" width="16" height="16">
0,0,0,126,102,144,145,145,145,145,145,145,145,145,145,145,
0,0,0,126,102,144,145,145,145,145,145,145,145,145,145,145,
0,0,0,126,102,144,145,145,145,145,145,145,145,145,145,145,
0,0,0,126,102,144,145,145,145,145,145,145,145,145,145,145,
0,0,0,126,102,144,145,145,145,145,145,145,145,145,145,145,
0,0,0,126,102,144,145,145,145,145,145,145,145,145,145,145,
0,0,0,126,102,144,145,145,145,145,145,145,145,145,145,145,
0,0,0,126,102,144,145,145,145,145,145,145,145,145,145,145,
0,0,0,126,102,144,145,145,145,145,145,145,145,145,145,145,
0,0,0,126,102,144,145,145,145,145,145,145,145,145,145,145,
0,0,0,126,102,144,145,145,145,145,145,145,145,145,145,145,
0,0,0,126,102,144,145,145,145,145,145,145,145,145,145,145,
0,0,0,126,102,144,145,145,145,145,145,145,145,145,145,145,
0,0,0,126,102,144,145,145,145,145,145,145,145,145,145,145,
0,0,0,126,102,144,145,145,145,145,145,145,145,145,145,145,
0,0,0,126,102,144,145,145,145,145,145,145,145,145,145,145
</chunk>
   <chunk x="48" y="112" width="16" height="16">
145,145,145,145,145,145,145,145,145,145,0,0,0,0,0,0,
145,145,145,145,145,145,145,145,145,145,0,0,0,0,0,0,
145,145,145,145,145,145,145,145,145,145,0,0,0,0,0,0,
145,145,145,145,145,145,145,145,145,145,0,0,0,0,0,0,
145,145,145,145,145,145,145,145,145,145,0,0,0,0,0,0,
145,145,145,145,145,145,145,145,145,145,0,0,0,0,0,0,
145,145,145,145,145,145,145,145,145,145,0,0,0,0,0,0,
145,145,145,145,145,145,145,145,145,145,0,0,0,0,0,0,
145,145,145,145,145,145,145,145,145,145,0,0,0,0,0,0,
145,145,145,145,145,145,145,145,145,145,0,0,0,0,0,0,
145,145,145,145,145,145,145,145,145,145,0,0,0,0,0,0,
145,145,145,145,145,145,145,145,145,145,0,0,0,0,0,0,
145,145,145,145,145,145,145,145,145,145,0,0,0,0,0,0,
145,145,145,145,145,145,145,145,145,145,0,0,0,0,0,0,
145,145,145,145,145,145,145,145,145,145,0,0,0,0,0,0,
145,145,145,145,145,145,145,145,145,145,0,0,0,0,0,0
</chunk>
   <chunk x="-192" y="128" width="16" height="16">
0,0,0,0,0,0,0,0,0,0,145,145,145,145,145,145,
0,0,0,0,0,0,0,0,0,0,145,145,145,145,145,145,
0,0,0,0,0,0,0,0,0,0,145,145,145,145,145,145,
0,0,0,0,0,0,0,0,0,0,145,145,145,145,145,145,
0,0,0,0,0,0,0,0,0,0,145,145,145,145,145,145,
0,0,0,0,0,0,0,0,0,0,145,145,145,145,145,145,
0,0,0,0,0,0,0,0,0,0,145,145,145,145,145,145,
0,0,0,0,0,0,0,0,0,0,145,145,145,145,145,145,
0,0,0,0,0,0,0,0,0,0,145,145,145,145,145,145,
0,0,0,0,0,0,0,0,0,0,145,145,145,145,145,145,
0,0,0,0,0,0,0,0,0,0,145,145,145,145,145,145,
0,0,0,0,0,0,0,0,0,0,145,145,145,145,145,145,
0,0,0,0,0,0,0,0,0,0,145,145,145,145,145,145,
0,0,0,0,0,0,0,0,0,0,145,145,145,145,145,145,
0,0,0,0,0,0,0,0,0,0,145,145,145,145,145,145,
0,0,0,0,0,0,0,0,0,0,145,145,145,145,145,145
</chunk>
   <chunk x="-176" y="128" width="16" height="16">
145,145,145,145,145,145,145,145,145,145,145,145,145,145,145,145,
145,145,145,145,145,145,145,145,145,145,145,145,145,145,145,145,
145,145,145,145,145,145,145,145,145,145,145,145,145,145,145,145,
145,145,145,145,145,145,145,145,145,145,145,145,145,145,145,145,
145,145,145,145,145,145,145,145,145,145,145,145,145,145,145,145,
145,145,145,145,145,145,145,145,145,145,145,145,145,145,145,145,
145,145,145,145,145,145,145,145,145,145,145,145,145,145,145,145,
145,145,145,145,145,145,145,145,145,145,145,145,145,145,145,145,
145,145,145,145,145,145,145,145,145,145,145,145,145,145,145,145,
145,145,145,145,145,145,145,145,145,145,145,145,145,145,145,145,
145,145,145,145,145,145,145,145,145,145,145,145,145,145,145,145,
145,145,145,145,145,145,145,145,145,145,145,145,145,145,145,145,
145,145,145,145,145,145,145,145,145,145,145,145,145,145,145,145,
145,145,145,145,145,145,145,145,145,145,145,145,145,145,145,145,
145,145,145,145,145,145,145,145,145,145,145,145,145,145,145,145,
145,145,145,145,145,145,145,145,145,145,145,145,145,145,145,145
</chunk>
   <chunk x="-160" y="128" width="16" height="16">
145,145,145,145,145,145,145,145,145,145,145,145,145,145,145,145,
145,145,145,145,145,145,145,145,145,145,145,145,145,145,145,145,
145,145,145,145,145,145,145,145,145,145,145,145,145,145,145,145,
145,145,145,145,145,145,145,145,145,145,145,145,145,145,145,145,
145,145,145,145,145,145,145,145,145,145,145,145,145,145,145,145,
145,145,145,145,145,145,145,145,145,145,145,145,145,145,145,145,
145,145,145,145,145,145,145,145,145,145,145,145,145,145,145,145,
145,145,145,145,145,145,145,145,145,145,145,145,145,145,145,145,
145,145,145,145,145,145,145,145,145,145,145,145,145,145,145,145,
145,145,145,145,145,145,145,145,145,145,145,145,145,145,145,145,
145,145,145,145,145,145,145,145,145,145,145,145,145,145,145,145,
145,145,145,145,145,145,145,145,145,145,145,145,145,145,145,145,
145,145,145,145,145,145,145,145,145,145,145,145,145,145,145,145,
145,145,145,145,145,145,145,145,145,145,145,145,145,145,145,145,
145,145,145,145,145,145,145,145,145,145,145,145,145,145,145,145,
145,145,145,145,145,145,145,145,145,145,145,145,145,145,145,145
</chunk>
   <chunk x="-144" y="128" width="16" height="16">
145,145,128,129,102,101,204,110,111,112,110,111,112,110,111,112,
145,145,145,146,102,101,102,102,102,102,102,102,102,102,102,102,
145,191,145,191,129,102,102,102,102,127,123,123,123,123,123,123,
145,145,145,145,145,128,128,128,128,145,145,145,145,145,145,145,
145,145,145,145,145,145,145,145,145,145,145,145,145,145,145,145,
145,145,145,145,145,145,145,145,145,145,145,145,145,145,145,145,
145,145,145,145,145,145,145,145,145,145,145,145,145,145,145,145,
145,145,145,145,145,145,145,145,145,145,145,145,145,145,145,145,
145,145,145,145,145,145,145,145,145,145,145,145,145,145,145,145,
145,145,145,145,145,145,145,145,145,145,145,145,145,145,145,145,
145,145,145,145,145,145,145,145,145,145,145,145,145,145,145,145,
145,145,145,145,145,145,145,145,145,145,145,145,145,145,145,145,
145,145,145,145,145,145,145,145,145,145,145,145,145,145,145,145,
145,145,145,145,145,145,145,145,145,145,145,145,145,145,145,145,
145,145,145,145,145,145,145,145,145,145,145,145,145,145,145,145,
145,145,145,145,145,145,145,145,145,145,145,145,145,145,145,145
</chunk>
   <chunk x="-128" y="128" width="16" height="16">
110,111,112,110,111,112,110,111,112,110,111,112,110,111,112,110,
102,102,102,102,102,102,102,102,102,102,102,102,102,102,102,102,
123,123,123,123,123,123,123,123,123,123,123,123,123,123,123,123,
145,145,145,145,145,145,145,145,145,145,145,145,145,145,145,145,
145,145,145,145,145,145,145,145,145,145,145,145,145,145,145,145,
145,145,145,145,145,145,145,145,145,145,145,145,145,145,145,145,
145,145,145,145,145,145,145,145,145,145,145,145,145,145,145,145,
145,145,145,145,145,145,145,145,145,145,145,145,145,145,145,145,
145,145,145,145,145,145,145,145,145,145,145,145,145,145,145,145,
145,145,145,145,145,145,145,145,145,145,145,145,145,145,145,145,
145,145,145,145,145,145,145,145,145,145,145,145,145,145,145,145,
145,145,145,145,145,145,145,145,145,145,145,145,145,145,145,145,
145,145,145,145,145,145,145,145,145,145,145,145,145,145,145,145,
145,145,145,145,145,145,145,145,145,145,145,145,145,145,145,145,
145,145,145,145,145,145,145,145,145,145,145,145,145,145,145,145,
145,145,145,145,145,145,145,145,145,145,145,145,145,145,145,145
</chunk>
   <chunk x="-112" y="128" width="16" height="16">
111,112,110,111,112,110,111,112,110,111,112,110,111,112,110,111,
102,102,102,102,102,102,102,102,102,102,102,102,102,102,102,102,
123,123,123,123,123,123,123,123,123,123,123,123,123,123,123,123,
145,145,145,145,145,145,145,145,145,145,145,145,145,145,145,145,
145,145,145,145,145,145,145,145,145,145,145,145,145,145,145,145,
145,145,145,145,145,145,145,145,145,145,145,145,145,145,145,145,
145,145,145,145,145,145,145,145,145,145,145,145,145,145,145,145,
145,145,145,145,145,145,145,145,145,145,145,145,145,145,145,145,
145,145,145,145,145,145,145,145,145,145,145,145,145,145,145,145,
145,145,145,145,145,145,145,145,145,145,145,145,145,145,145,145,
145,145,145,145,145,145,145,145,145,145,145,145,145,145,145,145,
145,145,145,145,145,145,145,145,145,145,145,145,145,145,145,145,
145,145,145,145,145,145,145,145,145,145,145,145,145,145,145,145,
145,145,145,145,145,145,145,145,145,145,145,145,145,145,145,145,
145,145,145,145,145,145,145,145,145,145,145,145,145,145,145,145,
145,145,145,145,145,145,145,145,145,145,145,145,145,145,145,145
</chunk>
   <chunk x="-96" y="128" width="16" height="16">
112,110,111,112,110,111,112,110,111,112,110,111,112,110,111,112,
102,102,102,102,102,102,102,102,102,102,102,102,102,102,102,102,
123,123,123,123,123,123,123,123,123,123,123,123,123,123,123,123,
145,145,145,145,145,145,145,145,145,145,145,145,145,145,145,145,
145,145,145,145,145,145,145,145,145,145,145,145,145,145,145,145,
145,145,145,145,145,145,145,145,145,145,145,145,145,145,145,145,
145,145,145,145,145,145,145,145,145,145,145,145,145,145,145,145,
145,145,145,145,145,145,145,145,145,145,145,145,145,145,145,145,
145,145,145,145,145,145,145,145,145,145,145,145,145,145,145,145,
145,145,145,145,145,145,145,145,145,145,145,145,145,145,145,145,
145,145,145,145,145,145,145,145,145,145,145,145,145,145,145,145,
145,145,145,145,145,145,145,145,145,145,145,145,145,145,145,145,
145,145,145,145,145,145,145,145,145,145,145,145,145,145,145,145,
145,145,145,145,145,145,145,145,145,145,145,145,145,145,145,145,
145,145,145,145,145,145,145,145,145,145,145,145,145,145,145,145,
145,145,145,145,145,145,145,145,145,145,145,145,145,145,145,145
</chunk>
   <chunk x="-80" y="128" width="16" height="16">
110,111,112,110,111,112,110,111,110,111,111,112,108,0,0,0,
102,102,102,102,102,102,102,102,102,102,102,102,125,0,0,0,
123,123,123,123,123,123,123,129,102,102,102,103,142,0,0,0,
145,145,145,145,191,145,145,145,128,129,102,103,164,0,0,0,
145,145,145,145,145,145,145,145,145,146,102,103,130,0,0,0,
145,145,145,145,145,145,145,191,145,191,129,103,147,0,0,0,
145,145,145,145,145,145,145,145,145,191,146,103,164,0,0,0,
145,145,145,145,145,145,145,145,145,145,146,103,130,0,0,0,
145,145,145,145,145,145,145,145,145,145,146,103,147,0,0,0,
145,145,145,145,145,145,145,145,145,145,146,103,164,0,0,0,
145,145,145,145,145,145,145,145,145,145,146,103,130,0,0,0,
145,145,145,145,145,145,145,145,145,145,146,103,147,0,0,0,
145,145,145,145,145,145,145,145,145,145,146,103,164,0,0,0,
145,145,145,145,145,145,145,145,145,145,146,103,130,0,0,0,
145,145,145,145,145,145,145,145,145,145,146,103,147,0,0,0,
145,145,145,145,145,145,145,145,145,145,146,103,164,0,0,0
</chunk>
   <chunk x="-32" y="128" width="16" height="16">
0,0,0,0,104,105,0,0,0,0,0,0,0,0,0,0,
0,0,0,0,121,102,204,0,0,0,0,0,0,0,0,0,
0,0,0,0,138,102,102,204,107,0,0,0,0,0,0,0,
0,0,0,0,143,102,102,102,102,204,0,0,0,0,0,0,
0,0,0,0,138,102,102,102,102,102,204,110,112,111,110,111,
0,0,0,0,143,102,102,102,102,102,102,102,102,102,102,102,
0,0,0,0,138,102,102,127,123,123,123,123,123,123,123,123,
0,0,0,0,143,102,101,144,145,145,191,145,145,145,145,145,
0,0,0,0,138,103,101,144,145,145,145,145,145,145,145,145,
0,0,0,0,143,103,122,191,145,191,145,145,145,145,145,145,
0,0,0,0,138,103,144,145,145,145,145,145,145,145,145,145,
0,0,0,0,143,103,144,145,145,145,145,145,145,145,145,145,
0,0,0,0,138,103,144,145,145,145,145,145,145,145,145,145,
0,0,0,0,143,103,144,145,145,145,145,145,145,145,145,145,
0,0,0,0,138,103,144,145,145,145,145,145,145,145,145,145,
0,0,0,0,143,103,144,145,145,145,145,145,145,145,145,145
</chunk>
   <chunk x="-16" y="128" width="16" height="16">
0,0,0,0,0,0,0,0,0,0,0,0,0,0,0,0,
0,0,0,0,0,0,0,0,0,0,0,0,0,0,0,0,
0,0,0,0,0,0,0,0,0,0,0,0,0,0,0,0,
0,0,0,0,0,0,0,0,0,0,0,0,0,0,0,0,
112,110,111,111,111,111,110,111,110,111,110,111,110,111,110,111,
102,102,102,102,102,102,102,102,102,102,102,102,102,102,102,102,
123,123,123,123,123,123,123,123,123,123,123,123,123,123,129,102,
145,145,145,145,145,145,145,145,191,145,145,191,145,145,145,129,
145,145,145,145,145,145,145,145,145,145,145,145,145,145,145,145,
145,145,145,145,145,145,145,145,145,145,145,145,145,145,191,145,
145,145,145,145,145,145,145,145,145,145,145,145,145,145,145,145,
145,145,145,145,145,145,145,145,145,145,145,145,145,145,145,145,
145,145,145,145,145,145,145,145,145,145,145,145,145,145,145,145,
145,145,145,145,145,145,145,145,145,145,145,145,145,145,145,145,
145,145,145,145,145,191,145,145,145,145,145,145,145,145,145,145,
145,145,145,145,145,145,145,145,145,145,145,145,145,145,145,145
</chunk>
   <chunk x="0" y="128" width="16" height="16">
0,0,0,0,0,0,0,0,0,0,0,0,0,0,0,0,
0,0,0,0,0,0,0,0,0,0,0,0,0,0,0,0,
0,0,0,0,0,0,0,0,0,0,0,0,0,0,0,0,
0,0,0,0,0,0,0,0,0,0,0,0,0,0,0,0,
111,112,108,0,0,0,0,0,0,0,0,0,0,0,0,0,
102,102,125,0,0,0,0,0,0,0,0,0,0,0,0,0,
102,102,142,0,0,0,0,0,0,0,0,0,0,0,0,0,
102,102,204,105,106,105,110,111,110,111,111,112,108,0,0,0,
129,102,102,102,102,102,102,102,102,102,102,102,125,0,0,0,
191,123,123,123,123,123,123,123,123,129,103,102,142,0,0,0,
191,191,145,145,145,145,145,145,145,145,129,102,204,105,106,107,
191,191,145,145,145,145,145,145,145,145,146,102,102,102,102,102,
191,191,145,145,145,145,145,145,145,145,191,123,123,123,123,123,
145,145,145,145,145,145,145,145,145,145,145,145,145,145,145,145,
145,145,145,145,145,145,145,145,145,145,145,145,145,145,145,145,
145,145,145,145,145,145,145,145,145,145,145,145,145,145,145,145
</chunk>
   <chunk x="16" y="128" width="16" height="16">
0,0,0,0,0,0,0,0,0,0,0,0,0,0,0,0,
0,0,0,0,0,0,0,0,0,0,0,0,0,0,0,0,
0,0,0,0,0,0,0,0,0,0,0,0,0,0,0,0,
0,0,0,0,0,0,0,0,0,0,0,0,0,0,0,0,
0,0,0,0,0,0,0,0,0,0,0,0,0,0,0,0,
0,0,0,0,0,0,0,0,0,0,0,0,0,0,0,0,
0,0,0,0,0,0,0,0,0,0,0,0,0,0,0,0,
0,0,0,0,0,0,0,0,0,0,0,0,0,0,0,0,
0,0,0,0,0,0,0,0,0,0,0,0,0,0,0,0,
0,0,0,0,0,0,0,0,0,0,0,0,0,0,0,0,
105,106,107,105,106,107,105,106,107,105,106,107,105,106,105,106,
102,102,102,102,102,102,102,102,102,102,102,102,102,102,102,102,
123,123,123,123,123,123,123,123,123,123,123,123,123,123,123,123,
145,145,145,145,145,145,145,145,145,145,145,145,145,145,145,145,
145,145,145,145,145,145,145,145,145,145,145,145,145,145,145,145,
145,145,145,145,145,145,145,145,145,145,145,145,145,145,145,145
</chunk>
   <chunk x="32" y="128" width="16" height="16">
0,0,0,126,102,144,145,145,145,145,145,145,145,145,145,145,
0,0,0,126,102,144,145,145,145,145,145,145,145,145,145,145,
0,0,0,126,102,144,145,145,145,145,145,145,145,145,145,145,
0,0,0,126,102,144,145,145,145,145,145,145,145,145,145,145,
0,0,0,126,102,144,145,145,145,145,145,145,145,145,145,145,
0,0,0,126,102,144,145,145,145,145,145,145,145,145,145,145,
0,104,105,106,102,144,145,145,145,145,145,145,145,145,145,145,
0,121,102,102,145,145,145,145,145,145,145,145,145,145,145,145,
0,138,102,127,145,145,145,145,145,145,145,145,145,145,145,145,
0,121,101,144,145,145,145,145,145,145,145,145,145,145,145,145,
107,203,101,144,145,145,145,145,145,145,145,145,145,145,145,145,
102,102,122,191,145,145,145,145,145,145,145,145,145,145,145,145,
123,123,145,145,145,145,145,145,145,145,145,145,145,145,145,145,
145,145,145,145,145,145,145,145,145,145,145,145,145,145,145,145,
145,145,145,145,145,145,145,145,145,145,145,145,145,145,145,145,
145,145,145,145,145,145,145,145,145,145,145,145,145,145,145,145
</chunk>
   <chunk x="48" y="128" width="16" height="16">
145,145,145,145,145,145,145,145,145,145,0,0,0,0,0,0,
145,145,145,145,145,145,145,145,145,145,0,0,0,0,0,0,
145,145,145,145,145,145,145,145,145,145,0,0,0,0,0,0,
145,145,145,145,145,145,145,145,145,145,0,0,0,0,0,0,
145,145,145,145,145,145,145,145,145,145,0,0,0,0,0,0,
145,145,145,145,145,145,145,145,145,145,0,0,0,0,0,0,
145,145,145,145,145,145,145,145,145,145,0,0,0,0,0,0,
145,145,145,145,145,145,145,145,145,145,0,0,0,0,0,0,
145,145,145,145,145,145,145,145,145,145,0,0,0,0,0,0,
145,145,145,145,145,145,145,145,145,145,0,0,0,0,0,0,
145,145,145,145,145,145,145,145,145,145,0,0,0,0,0,0,
145,145,145,145,145,145,145,145,145,145,0,0,0,0,0,0,
145,145,145,145,145,145,145,145,145,145,0,0,0,0,0,0,
145,145,145,145,145,145,145,145,145,145,0,0,0,0,0,0,
145,145,145,145,145,145,145,145,145,145,0,0,0,0,0,0,
145,145,145,145,145,145,145,145,145,145,0,0,0,0,0,0
</chunk>
   <chunk x="-192" y="144" width="16" height="16">
0,0,0,0,0,0,0,0,0,0,145,145,145,145,145,145,
0,0,0,0,0,0,0,0,0,0,145,145,145,145,145,145,
0,0,0,0,0,0,0,0,0,0,145,145,145,145,145,145,
0,0,0,0,0,0,0,0,0,0,145,145,145,145,145,145,
0,0,0,0,0,0,0,0,0,0,145,145,145,145,145,145,
0,0,0,0,0,0,0,0,0,0,145,145,145,145,145,145,
0,0,0,0,0,0,0,0,0,0,145,145,145,145,145,145,
0,0,0,0,0,0,0,0,0,0,145,145,145,145,145,145,
0,0,0,0,0,0,0,0,0,0,145,145,145,145,145,145,
0,0,0,0,0,0,0,0,0,0,145,145,145,145,145,145,
0,0,0,0,0,0,0,0,0,0,145,145,145,145,145,145,
0,0,0,0,0,0,0,0,0,0,145,145,145,145,145,145,
0,0,0,0,0,0,0,0,0,0,145,145,145,145,145,145,
0,0,0,0,0,0,0,0,0,0,145,145,145,145,145,145,
0,0,0,0,0,0,0,0,0,0,145,145,145,145,145,145,
0,0,0,0,0,0,0,0,0,0,145,145,145,145,145,145
</chunk>
   <chunk x="-176" y="144" width="16" height="16">
145,145,145,145,145,145,145,145,145,145,145,145,145,145,145,145,
145,145,145,145,145,145,145,145,145,145,145,145,145,145,145,145,
145,145,145,145,145,145,145,145,145,145,145,145,145,145,145,145,
145,145,145,145,145,145,145,145,145,145,145,145,145,145,145,145,
145,145,145,145,145,145,145,145,145,145,145,145,145,145,145,145,
145,145,145,145,145,145,145,145,145,145,145,145,145,145,145,145,
145,145,145,145,145,145,145,145,145,145,145,145,145,145,145,145,
145,145,145,145,145,145,145,145,145,145,145,145,145,145,145,145,
145,145,145,145,145,145,145,145,145,145,145,145,145,145,145,145,
145,145,145,145,145,145,145,145,145,145,145,145,145,145,145,145,
145,145,145,145,145,145,145,145,145,145,145,145,145,145,145,145,
145,145,145,145,145,145,145,145,145,145,145,145,145,145,145,145,
145,145,145,145,145,145,145,145,145,145,145,145,145,145,145,145,
145,145,145,145,145,145,145,145,145,145,145,145,145,145,145,145,
145,145,145,145,145,145,145,145,145,145,145,145,145,145,145,145,
145,145,145,145,145,145,145,145,145,145,145,145,145,145,145,145
</chunk>
   <chunk x="-160" y="144" width="16" height="16">
145,145,145,145,145,145,145,145,145,145,145,145,145,145,145,145,
145,145,145,145,145,145,145,145,145,145,145,145,145,145,145,145,
145,145,145,145,145,145,145,145,145,145,145,145,145,145,145,145,
145,145,145,145,145,145,145,145,145,145,145,145,145,145,145,145,
145,145,145,145,145,145,145,145,145,145,145,145,145,145,145,145,
145,145,145,145,145,145,145,145,145,145,145,145,145,145,145,145,
145,145,145,145,145,145,145,145,145,145,145,145,145,145,145,145,
145,145,145,145,145,145,145,145,145,145,145,145,145,145,145,145,
145,145,145,145,145,145,145,145,145,145,145,145,145,145,145,145,
145,145,145,145,145,145,145,145,145,145,145,145,145,145,145,145,
145,145,145,145,145,145,145,145,145,145,145,145,145,145,145,145,
145,145,145,145,145,145,145,145,145,145,145,145,145,145,145,145,
145,145,145,145,145,145,145,145,145,145,145,145,145,145,145,145,
145,145,145,145,145,145,145,145,145,145,145,145,145,145,145,145,
145,145,145,145,145,145,145,145,145,145,145,145,145,145,145,145,
145,145,145,145,145,145,145,145,145,145,145,145,145,145,145,145
</chunk>
   <chunk x="-144" y="144" width="16" height="16">
145,145,145,145,145,145,145,145,145,145,145,145,145,145,145,145,
145,145,145,145,145,145,145,145,145,145,145,145,145,145,145,145,
145,145,145,145,145,145,145,145,145,145,145,145,145,145,145,145,
145,145,145,145,145,145,145,145,145,145,145,145,145,145,145,145,
145,145,145,145,145,145,145,145,145,145,145,145,145,145,145,145,
145,145,145,145,145,145,145,145,145,145,145,145,145,145,145,145,
145,145,145,145,145,145,145,145,145,145,145,145,145,145,145,145,
145,145,145,145,145,145,145,145,145,145,145,145,145,145,145,145,
145,145,145,145,145,145,145,145,145,145,145,145,145,145,145,145,
145,145,145,145,145,145,145,145,145,145,145,145,145,145,145,145,
145,145,145,145,145,145,145,145,145,145,145,145,145,145,145,145,
145,145,145,145,145,145,145,145,145,145,145,145,145,145,145,145,
145,145,145,145,145,145,145,145,145,145,145,145,145,145,145,145,
145,145,145,145,145,145,145,145,145,145,145,145,145,145,145,145,
145,145,145,145,145,145,145,145,145,145,145,145,145,145,145,145,
145,145,145,145,145,145,145,145,145,145,145,145,145,145,145,145
</chunk>
   <chunk x="-128" y="144" width="16" height="16">
145,145,145,145,145,145,145,145,145,145,145,145,145,145,145,145,
145,145,145,145,145,145,145,145,145,145,145,145,145,145,145,145,
145,145,145,145,145,145,145,145,145,145,145,145,145,145,145,145,
145,145,145,145,145,145,145,145,145,145,145,145,145,145,145,145,
145,145,145,145,145,145,145,145,145,145,145,145,145,145,145,145,
145,145,145,145,145,145,145,145,145,145,145,145,145,145,145,145,
145,145,145,145,145,145,145,145,145,145,145,145,145,145,145,145,
145,145,145,145,145,145,145,145,145,145,145,145,145,145,145,145,
145,145,145,145,145,145,145,145,145,145,145,145,145,145,145,145,
145,145,145,145,145,145,145,145,145,145,145,145,145,145,145,145,
145,145,145,145,145,145,145,145,145,145,145,145,145,145,145,145,
145,145,145,145,145,145,145,145,145,145,145,145,145,145,145,145,
145,145,145,145,145,145,145,145,145,145,145,145,145,145,145,145,
145,145,145,145,145,145,145,145,145,145,145,145,145,145,145,145,
145,145,145,145,145,145,145,145,145,145,145,145,145,145,145,145,
145,145,145,145,145,145,145,145,145,145,145,145,145,145,145,145
</chunk>
   <chunk x="-112" y="144" width="16" height="16">
145,145,145,145,145,145,145,145,145,145,145,145,145,145,145,145,
145,145,145,145,145,145,145,145,145,145,145,145,145,145,145,145,
145,145,145,145,145,145,145,145,145,145,145,145,145,145,145,145,
145,145,145,145,145,145,145,145,145,145,145,145,145,145,145,145,
145,145,145,145,145,145,145,145,145,145,145,145,145,145,145,145,
145,145,145,145,145,145,145,145,145,145,145,145,145,145,145,145,
145,145,145,145,145,145,145,145,145,145,145,145,145,145,145,145,
145,145,145,145,145,145,145,145,145,145,145,145,145,145,145,145,
145,145,145,145,145,145,145,145,145,145,145,145,145,145,145,145,
145,145,145,145,145,145,145,145,145,145,145,145,145,145,145,145,
145,145,145,145,145,145,145,145,145,145,145,145,145,145,145,145,
145,145,145,145,145,145,145,145,145,145,145,145,145,145,145,145,
145,145,145,145,145,145,145,145,145,145,145,145,145,145,145,145,
145,145,145,145,145,145,145,145,145,145,145,145,145,145,145,145,
145,145,145,145,145,145,145,145,145,145,145,145,145,145,145,145,
145,145,145,145,145,145,145,145,145,145,145,145,145,145,145,145
</chunk>
   <chunk x="-96" y="144" width="16" height="16">
145,145,145,145,145,145,145,145,145,145,145,145,145,145,145,145,
145,145,145,145,145,145,145,145,145,145,145,145,145,145,145,145,
145,145,145,145,145,145,145,145,145,145,145,145,145,145,145,145,
145,145,145,145,145,145,145,145,145,145,145,145,145,145,145,145,
145,145,145,145,145,145,145,145,145,145,145,145,145,145,145,145,
145,145,145,145,145,145,145,145,145,145,145,145,145,145,145,145,
145,145,145,145,145,145,145,145,145,145,145,145,145,145,145,145,
145,145,145,145,145,145,145,145,145,145,145,145,145,145,145,145,
145,145,145,145,145,145,145,145,145,145,145,145,145,145,145,145,
145,145,145,145,145,145,145,145,145,145,145,145,145,145,145,145,
145,145,145,145,145,145,145,145,145,145,145,145,145,145,145,145,
145,145,145,145,145,145,145,145,145,145,145,145,145,145,145,145,
145,145,145,145,145,145,145,145,145,145,145,145,145,145,145,145,
145,145,145,145,145,145,145,145,145,145,145,145,145,145,145,145,
145,145,145,145,145,145,145,145,145,145,145,145,145,145,145,145,
145,145,145,145,145,145,145,145,145,145,145,145,145,145,145,145
</chunk>
   <chunk x="-80" y="144" width="16" height="16">
145,145,145,145,145,145,145,145,145,145,146,103,130,0,0,0,
145,145,145,145,145,145,145,145,145,145,146,103,147,0,0,0,
145,145,145,145,145,145,145,145,145,145,146,103,164,0,0,0,
145,145,145,145,145,145,145,145,145,145,146,103,204,110,111,112,
145,145,145,145,145,145,145,145,145,145,146,102,102,102,102,102,
145,145,145,145,145,145,145,145,145,145,191,123,123,123,123,123,
145,145,145,145,145,145,145,145,145,145,145,145,145,145,145,145,
145,145,145,145,145,145,145,145,145,145,145,145,145,145,145,145,
145,145,145,145,145,145,145,145,145,145,145,145,145,145,145,145,
145,145,145,145,145,145,145,145,145,145,145,145,145,145,145,145,
145,145,145,145,145,145,145,145,145,145,145,145,145,145,145,145,
145,145,145,145,145,145,145,145,145,145,145,145,145,145,145,145,
145,145,145,145,145,145,145,145,145,145,145,145,145,145,145,145,
145,145,145,145,145,145,145,145,145,145,145,145,145,145,145,145,
145,145,145,145,145,145,145,145,145,145,145,145,145,145,145,145,
145,145,145,145,145,145,145,145,145,145,145,145,145,145,145,145
</chunk>
   <chunk x="-64" y="144" width="16" height="16">
0,0,0,0,0,0,0,0,0,0,0,0,0,0,0,0,
0,0,0,0,0,0,0,0,0,0,0,0,0,0,0,0,
0,0,0,0,0,0,0,0,0,0,0,0,0,0,0,0,
111,112,110,111,112,110,111,112,110,111,112,110,111,112,110,111,
102,102,102,102,102,102,102,102,102,102,102,102,102,102,102,102,
123,123,123,123,123,123,123,123,123,123,123,123,123,123,123,123,
145,145,145,145,145,145,145,145,145,145,145,145,145,145,145,145,
145,145,145,145,145,145,145,145,145,145,145,145,145,145,145,145,
145,145,145,145,145,145,145,145,145,145,145,145,145,145,145,145,
145,145,145,145,145,145,145,145,145,145,145,145,145,145,145,145,
145,145,145,145,145,145,145,145,145,145,145,145,145,145,145,145,
145,145,145,145,145,145,145,145,145,145,145,145,145,145,145,145,
145,145,145,145,145,145,145,145,145,145,145,145,145,145,145,145,
145,145,145,145,145,145,145,145,145,145,145,145,145,145,145,145,
145,145,145,145,145,145,145,145,145,145,145,145,145,145,145,145,
145,145,145,145,145,145,145,145,145,145,145,145,145,145,145,145
</chunk>
   <chunk x="-48" y="144" width="16" height="16">
0,0,0,0,0,0,0,0,0,0,0,0,0,0,0,0,
0,0,0,0,0,0,0,0,0,0,0,0,0,0,0,0,
0,0,0,0,0,0,0,0,0,0,0,0,0,0,0,0,
112,110,111,112,110,111,112,110,111,112,110,111,112,110,111,112,
102,102,102,102,102,102,102,102,102,102,102,102,102,102,102,102,
123,123,123,123,123,123,123,123,123,123,123,123,123,123,123,123,
145,145,145,145,145,145,145,145,145,145,145,145,145,145,145,145,
145,145,145,145,145,145,145,145,145,145,145,145,145,145,145,145,
145,145,145,145,145,145,145,145,145,145,145,145,145,145,145,145,
145,145,145,145,145,145,145,145,145,145,145,145,145,145,145,145,
145,145,145,145,145,145,145,145,145,145,145,145,145,145,145,145,
145,145,145,145,145,145,145,145,145,145,145,145,145,145,145,145,
145,145,145,145,145,145,145,145,145,145,145,145,145,145,145,145,
145,145,145,145,145,145,145,145,145,145,145,145,145,145,145,145,
145,145,145,145,145,145,145,145,145,145,145,145,145,145,145,145,
145,145,145,145,145,145,145,145,145,145,145,145,145,145,145,145
</chunk>
   <chunk x="-32" y="144" width="16" height="16">
0,0,0,0,138,103,144,145,145,145,145,145,145,145,145,145,
0,0,0,0,143,103,144,145,145,145,145,145,145,145,145,145,
0,0,0,0,160,101,144,145,145,145,145,145,145,145,145,145,
110,111,112,112,203,101,144,145,145,145,145,145,145,145,145,145,
102,102,102,102,102,122,145,145,145,145,145,145,145,145,145,145,
123,123,123,123,123,145,145,145,145,145,145,145,145,145,145,145,
145,145,145,145,145,145,145,145,145,145,145,145,145,145,145,145,
145,145,145,145,145,145,145,145,145,145,145,145,145,145,145,145,
145,145,145,145,145,145,145,145,145,145,145,145,145,145,145,145,
145,145,145,145,145,145,145,145,145,145,145,145,145,145,145,145,
145,145,145,145,145,145,145,145,145,145,145,145,145,145,145,145,
145,145,145,145,145,145,145,145,145,145,145,145,145,145,145,145,
145,145,145,145,145,145,145,145,145,145,145,145,145,145,145,145,
145,145,145,145,145,145,145,145,145,145,145,145,145,145,145,145,
145,145,145,145,145,145,145,145,145,145,145,145,145,145,145,145,
145,145,145,145,145,145,145,145,145,145,145,145,145,145,145,145
</chunk>
   <chunk x="-16" y="144" width="16" height="16">
145,145,145,145,145,145,145,145,145,145,145,145,145,145,145,145,
145,145,145,145,145,145,145,145,145,145,145,145,145,145,145,145,
145,145,145,145,145,145,145,145,145,145,145,145,145,145,145,145,
145,145,145,145,145,145,145,145,145,145,145,145,145,145,145,145,
145,145,145,145,145,145,145,145,145,145,145,145,145,145,145,145,
145,145,145,145,145,145,145,145,145,145,145,145,145,145,145,145,
145,145,145,145,145,145,145,145,145,145,145,145,145,145,145,145,
145,145,145,145,145,145,145,145,145,145,145,145,145,145,145,145,
145,145,145,145,145,145,145,145,145,145,145,145,145,145,145,145,
145,145,145,145,145,145,145,145,145,145,145,145,145,145,145,145,
145,145,145,145,145,145,145,145,145,145,145,145,145,145,145,145,
145,145,145,145,145,145,145,145,145,145,145,145,145,145,145,145,
145,145,145,145,145,145,145,145,145,145,145,145,145,145,145,145,
145,145,145,145,145,145,145,145,145,145,145,145,145,145,145,145,
145,145,145,145,145,145,145,145,145,145,145,145,145,145,145,145,
145,145,145,145,145,145,145,145,145,145,145,145,145,145,145,145
</chunk>
   <chunk x="0" y="144" width="16" height="16">
145,145,145,145,145,145,145,145,145,145,145,145,145,145,145,145,
145,145,145,145,145,145,145,145,145,145,145,145,145,145,145,145,
145,145,145,145,145,145,145,145,145,145,145,145,145,145,145,145,
145,145,145,145,145,145,145,145,145,145,145,145,145,145,145,145,
145,145,145,145,145,145,145,145,145,145,145,145,145,145,145,145,
145,145,145,145,145,145,145,145,145,145,145,145,145,145,145,145,
145,145,145,145,145,145,145,145,145,145,145,145,145,145,145,145,
145,145,145,145,145,145,145,145,145,145,145,145,145,145,145,145,
145,145,145,145,145,145,145,145,145,145,145,145,145,145,145,145,
145,145,145,145,145,145,145,145,145,145,145,145,145,145,145,145,
145,145,145,145,145,145,145,145,145,145,145,145,145,145,145,145,
145,145,145,145,145,145,145,145,145,145,145,145,145,145,145,145,
145,145,145,145,145,145,145,145,145,145,145,145,145,145,145,145,
145,145,145,145,145,145,145,145,145,145,145,145,145,145,145,145,
145,145,145,145,145,145,145,145,145,145,145,145,145,145,145,145,
145,145,145,145,145,145,145,145,145,145,145,145,145,145,145,145
</chunk>
   <chunk x="16" y="144" width="16" height="16">
145,145,145,145,145,145,145,145,145,145,145,145,145,145,145,145,
145,145,145,145,145,145,145,145,145,145,145,145,145,145,145,145,
145,145,145,145,145,145,145,145,145,145,145,145,145,145,145,145,
145,145,145,145,145,145,145,145,145,145,145,145,145,145,145,145,
145,145,145,145,145,145,145,145,145,145,145,145,145,145,145,145,
145,145,145,145,145,145,145,145,145,145,145,145,145,145,145,145,
145,145,145,145,145,145,145,145,145,145,145,145,145,145,145,145,
145,145,145,145,145,145,145,145,145,145,145,145,145,145,145,145,
145,145,145,145,145,145,145,145,145,145,145,145,145,145,145,145,
145,145,145,145,145,145,145,145,145,145,145,145,145,145,145,145,
145,145,145,145,145,145,145,145,145,145,145,145,145,145,145,145,
145,145,145,145,145,145,145,145,145,145,145,145,145,145,145,145,
145,145,145,145,145,145,145,145,145,145,145,145,145,145,145,145,
145,145,145,145,145,145,145,145,145,145,145,145,145,145,145,145,
145,145,145,145,145,145,145,145,145,145,145,145,145,145,145,145,
145,145,145,145,145,145,145,145,145,145,145,145,145,145,145,145
</chunk>
   <chunk x="32" y="144" width="16" height="16">
145,145,145,145,145,145,145,145,145,145,145,145,145,145,145,145,
145,145,145,145,145,145,145,145,145,145,145,145,145,145,145,145,
145,145,145,145,145,145,145,145,145,145,145,145,145,145,145,145,
145,145,145,145,145,145,145,145,145,145,145,145,145,145,145,145,
145,145,145,145,145,145,145,145,145,145,145,145,145,145,145,145,
145,145,145,145,145,145,145,145,145,145,145,145,145,145,145,145,
145,145,145,145,145,145,145,145,145,145,145,145,145,145,145,145,
145,145,145,145,145,145,145,145,145,145,145,145,145,145,145,145,
145,145,145,145,145,145,145,145,145,145,145,145,145,145,145,145,
145,145,145,145,145,145,145,145,145,145,145,145,145,145,145,145,
145,145,145,145,145,145,145,145,145,145,145,145,145,145,145,145,
145,145,145,145,145,145,145,145,145,145,145,145,145,145,145,145,
145,145,145,145,145,145,145,145,145,145,145,145,145,145,145,145,
145,145,145,145,145,145,145,145,145,145,145,145,145,145,145,145,
145,145,145,145,145,145,145,145,145,145,145,145,145,145,145,145,
145,145,145,145,145,145,145,145,145,145,145,145,145,145,145,145
</chunk>
   <chunk x="48" y="144" width="16" height="16">
145,145,145,145,145,145,145,145,145,145,0,0,0,0,0,0,
145,145,145,145,145,145,145,145,145,145,0,0,0,0,0,0,
145,145,145,145,145,145,145,145,145,145,0,0,0,0,0,0,
145,145,145,145,145,145,145,145,145,145,0,0,0,0,0,0,
145,145,145,145,145,145,145,145,145,145,0,0,0,0,0,0,
145,145,145,145,145,145,145,145,145,145,0,0,0,0,0,0,
145,145,145,145,145,145,145,145,145,145,0,0,0,0,0,0,
145,145,145,145,145,145,145,145,145,145,0,0,0,0,0,0,
145,145,145,145,145,145,145,145,145,145,0,0,0,0,0,0,
145,145,145,145,145,145,145,145,145,145,0,0,0,0,0,0,
145,145,145,145,145,145,145,145,145,145,0,0,0,0,0,0,
145,145,145,145,145,145,145,145,145,145,0,0,0,0,0,0,
145,145,145,145,145,145,145,145,145,145,0,0,0,0,0,0,
145,145,145,145,145,145,145,145,145,145,0,0,0,0,0,0,
145,145,145,145,145,145,145,145,145,145,0,0,0,0,0,0,
145,145,145,145,145,145,145,145,145,145,0,0,0,0,0,0
</chunk>
  </data>
 </layer>
 <layer id="2" name="Exits" width="30" height="20" visible="0">
  <data encoding="csv">
   <chunk x="16" y="-48" width="16" height="16">
0,0,0,0,0,0,0,0,0,0,0,0,0,0,0,0,
0,0,0,0,0,0,0,0,0,0,0,0,0,0,0,0,
0,0,0,0,0,0,0,0,0,0,0,0,0,0,0,0,
0,0,0,0,0,0,0,0,0,0,0,0,0,0,0,0,
0,0,0,0,0,0,0,0,0,0,0,0,0,0,0,0,
0,0,0,0,0,0,0,0,0,0,0,0,0,0,0,0,
0,0,0,0,0,0,0,0,0,0,0,0,0,0,0,0,
0,0,0,0,0,0,0,0,0,0,0,0,0,0,0,0,
0,0,0,0,0,0,0,0,0,0,0,0,0,0,0,0,
0,0,0,0,0,0,0,0,0,0,0,0,0,0,0,0,
0,0,0,0,0,0,0,0,0,0,0,0,0,0,0,0,
0,0,0,0,0,0,0,0,0,0,0,0,0,0,0,0,
0,0,0,0,0,0,0,0,0,0,0,0,0,0,0,0,
0,0,0,0,0,0,0,0,0,0,0,0,13,13,13,13,
0,0,0,0,13,13,13,13,13,13,13,13,13,13,13,13,
0,0,0,0,13,13,13,13,13,13,13,13,13,13,13,13
</chunk>
   <chunk x="32" y="-48" width="16" height="16">
0,0,0,0,0,0,0,0,0,0,0,0,0,0,0,0,
0,0,0,0,0,0,0,0,0,0,0,0,0,0,0,0,
0,0,0,0,0,0,0,0,0,0,0,0,0,0,0,0,
0,0,0,0,0,0,0,0,0,0,0,0,0,0,0,0,
0,0,0,0,0,0,0,0,0,0,0,0,0,0,0,0,
0,0,0,0,0,0,0,0,0,0,0,0,0,0,0,0,
0,0,0,0,0,0,0,0,0,0,0,0,0,0,0,0,
0,0,0,0,0,0,0,0,0,0,0,0,0,0,0,0,
0,0,0,0,0,0,0,0,0,0,0,0,0,0,0,0,
0,0,0,0,0,0,0,0,0,0,0,0,0,0,0,0,
0,0,0,0,0,0,0,0,0,0,0,0,0,0,0,0,
0,0,0,0,0,0,0,0,0,0,0,0,0,0,0,0,
0,0,0,0,0,0,0,0,0,0,0,0,0,0,0,0,
13,13,13,13,13,13,13,13,13,13,13,13,13,13,13,13,
13,13,13,13,13,13,13,13,13,13,13,13,13,13,13,13,
13,13,13,13,13,13,13,13,13,13,13,13,13,13,13,13
</chunk>
   <chunk x="48" y="-48" width="16" height="16">
0,0,0,0,0,0,0,0,0,0,0,0,0,0,0,0,
0,0,0,0,0,0,0,0,0,0,0,0,0,0,0,0,
0,0,0,0,0,0,0,0,0,0,0,0,0,0,0,0,
0,0,0,0,0,0,0,0,0,0,0,0,0,0,0,0,
0,0,0,0,0,0,0,0,0,0,0,0,0,0,0,0,
0,0,0,0,0,0,0,0,0,0,0,0,0,0,0,0,
0,0,0,0,0,0,0,0,0,0,0,0,0,0,0,0,
0,0,0,0,0,0,0,0,0,0,0,0,0,0,0,0,
0,0,0,0,0,0,0,0,0,0,0,0,0,0,0,0,
0,0,0,0,0,0,0,0,0,0,0,0,0,0,0,0,
0,0,0,0,0,0,0,0,0,0,0,0,0,0,0,0,
0,0,0,0,0,0,0,0,0,0,0,0,0,0,0,0,
0,0,0,0,0,0,0,0,0,0,0,0,0,0,0,0,
13,13,13,13,13,13,13,13,13,13,0,0,0,0,0,0,
13,13,13,13,13,13,13,13,13,13,0,0,0,0,0,0,
13,13,13,13,13,13,13,13,13,13,0,0,0,0,0,0
</chunk>
   <chunk x="16" y="-32" width="16" height="16">
0,0,0,0,13,13,13,13,13,13,13,13,13,13,13,13,
0,0,0,0,13,13,13,13,13,13,13,13,13,13,13,13,
0,0,0,0,13,13,13,13,13,13,13,13,13,13,13,13,
0,0,0,0,13,13,13,13,13,13,13,13,13,13,13,13,
0,0,0,0,13,13,13,13,13,13,13,13,13,13,13,13,
0,0,0,0,13,13,13,13,13,13,13,13,13,13,13,13,
0,0,0,0,13,13,13,13,13,13,13,13,13,13,13,13,
0,0,0,0,0,0,0,0,0,0,0,0,0,0,0,0,
0,0,0,0,0,0,0,0,0,0,0,0,0,0,0,0,
0,0,0,0,0,0,0,0,0,0,0,0,0,0,0,0,
0,0,0,0,0,0,0,0,0,0,0,0,0,0,0,0,
0,0,0,0,0,0,0,0,0,0,0,0,0,0,0,0,
0,0,0,0,0,0,0,0,0,0,0,0,0,0,0,0,
0,0,0,0,0,0,0,0,0,0,0,0,0,0,0,0,
0,0,0,0,0,0,0,0,0,0,0,0,0,0,0,0,
0,0,0,0,0,0,0,0,0,0,0,0,0,0,0,0
</chunk>
   <chunk x="32" y="-32" width="16" height="16">
13,13,13,13,13,13,13,13,13,13,13,13,13,13,13,13,
13,13,13,13,13,13,13,13,13,13,13,13,13,13,13,13,
13,13,13,13,13,13,13,13,13,13,13,13,13,13,13,13,
13,13,13,13,13,13,13,13,13,13,13,13,13,13,13,13,
13,13,13,13,13,13,13,13,13,13,13,13,13,13,13,13,
13,13,13,13,13,13,13,13,13,13,13,13,13,13,13,13,
13,13,13,13,13,13,13,13,13,13,13,13,13,13,13,13,
0,0,0,0,0,0,0,0,0,0,0,0,0,0,0,0,
0,0,0,0,0,0,0,0,0,0,0,0,0,0,0,0,
0,0,0,0,0,0,0,0,0,0,0,0,0,0,0,0,
0,0,0,0,0,0,0,0,0,0,0,0,0,0,0,0,
0,0,0,0,0,0,0,0,0,0,0,0,0,0,0,0,
0,0,0,0,0,0,0,0,0,0,0,0,0,0,0,0,
0,0,0,0,0,0,0,0,0,0,0,0,0,0,0,0,
0,0,0,0,0,0,0,0,0,0,0,0,0,0,0,0,
0,0,0,0,0,0,0,0,0,0,0,0,0,0,0,0
</chunk>
   <chunk x="48" y="-32" width="16" height="16">
13,13,13,13,13,13,13,13,13,13,0,0,0,0,0,0,
13,13,13,13,13,13,13,13,13,13,0,0,0,0,0,0,
13,13,13,13,13,13,13,13,13,13,0,0,0,0,0,0,
13,13,13,13,13,13,13,13,13,13,0,0,0,0,0,0,
13,13,13,13,13,13,13,13,13,13,0,0,0,0,0,0,
13,13,13,13,13,13,13,13,13,13,0,0,0,0,0,0,
13,13,13,13,13,13,13,13,13,13,0,0,0,0,0,0,
0,0,0,0,0,0,0,0,0,0,0,0,0,0,0,0,
0,0,0,0,0,0,0,0,0,0,0,0,0,0,0,0,
0,0,0,0,0,0,0,0,0,0,0,0,0,0,0,0,
0,0,0,0,0,0,0,0,0,0,0,0,0,0,0,0,
0,0,0,0,0,0,0,0,0,0,0,0,0,0,0,0,
0,0,0,0,0,0,0,0,0,0,0,0,0,0,0,0,
0,0,0,0,0,0,0,0,0,0,0,0,0,0,0,0,
0,0,0,0,0,0,0,0,0,0,0,0,0,0,0,0,
0,0,0,0,0,0,0,0,0,0,0,0,0,0,0,0
</chunk>
   <chunk x="-16" y="-16" width="16" height="16">
0,0,0,0,0,0,0,0,0,0,0,0,0,0,0,0,
0,0,0,0,0,0,0,0,0,0,0,0,0,0,0,0,
0,0,0,0,0,0,0,0,0,0,0,0,0,0,0,0,
0,0,0,0,0,0,0,0,0,0,0,0,0,0,0,0,
0,0,0,0,0,0,0,0,0,0,0,0,0,0,0,0,
0,0,0,0,0,0,0,0,0,0,0,0,0,0,0,0,
0,13,13,13,13,13,13,13,0,0,0,0,0,0,0,0,
0,13,13,13,13,13,13,13,0,0,0,0,0,0,0,0,
0,13,13,13,13,13,13,13,0,0,0,0,0,0,0,0,
0,13,13,13,13,13,13,13,0,0,0,0,0,0,0,0,
0,13,13,13,13,13,13,13,0,0,0,0,0,0,0,0,
0,13,13,13,13,13,13,13,0,0,0,0,0,0,0,0,
0,13,13,13,13,13,13,13,0,0,0,0,0,0,0,0,
0,13,13,13,13,13,13,13,0,0,0,0,0,0,0,0,
0,0,0,0,0,0,0,0,0,0,0,0,0,0,0,0,
0,0,0,0,0,0,0,0,0,0,0,0,0,0,0,0
</chunk>
   <chunk x="-32" y="16" width="16" height="16">
0,0,0,0,0,0,0,0,0,0,0,0,0,0,0,0,
0,0,0,0,0,0,0,0,0,0,0,0,0,0,0,0,
0,0,0,0,0,0,0,0,0,0,0,0,0,0,0,0,
0,0,0,0,0,0,0,0,0,0,0,0,0,0,0,0,
0,0,0,0,0,0,0,0,0,0,0,0,0,0,0,0,
0,0,0,0,0,0,0,0,0,0,0,0,0,0,0,0,
0,0,0,0,0,0,0,0,0,0,0,0,0,0,0,0,
0,0,0,0,0,0,0,0,0,0,0,0,0,0,0,0,
0,0,0,0,0,0,0,0,0,0,0,0,0,0,0,0,
0,0,0,0,0,0,0,0,0,0,0,0,0,0,0,0,
0,0,0,0,0,0,0,0,0,0,0,0,0,0,0,0,
0,0,0,0,0,0,0,0,0,0,0,0,0,0,0,0,
0,0,0,0,0,0,0,0,0,0,0,0,0,0,0,0,
0,0,0,0,0,0,0,0,0,0,0,0,0,0,0,0,
0,0,0,0,0,0,0,0,0,0,0,0,0,0,0,0,
0,0,13,13,13,13,13,0,0,0,0,0,0,0,0,0
</chunk>
   <chunk x="-32" y="32" width="16" height="16">
0,0,13,13,13,13,13,0,0,0,0,0,0,0,0,0,
0,0,13,13,13,13,13,0,0,0,0,0,0,0,0,0,
0,0,13,13,13,13,13,0,0,0,0,0,0,0,0,0,
0,0,13,13,13,13,13,0,0,0,0,0,0,0,0,0,
0,0,13,13,13,13,13,0,0,0,0,0,0,0,0,0,
0,0,13,13,13,13,13,0,0,0,0,0,0,0,0,0,
0,0,0,0,0,0,0,0,0,0,0,0,0,0,0,0,
0,0,0,0,0,0,0,0,0,0,0,0,0,0,0,0,
0,0,0,0,0,0,0,0,0,0,0,0,0,0,0,0,
0,0,0,0,0,0,0,0,0,0,0,0,0,0,0,0,
0,0,0,0,0,0,0,0,0,0,0,0,0,0,0,0,
0,0,0,0,0,0,0,0,0,0,0,0,0,0,0,0,
0,0,0,0,0,0,0,0,0,0,0,0,0,0,0,0,
0,0,0,0,0,0,0,0,0,0,0,0,0,0,0,0,
0,0,0,0,0,0,0,0,0,0,0,0,0,0,0,0,
0,0,0,0,0,0,0,0,0,0,0,0,0,0,0,0
</chunk>
  </data>
 </layer>
 <layer id="3" name="Hidden Collections (Optional)" width="30" height="20" visible="0">
  <data encoding="csv">
   <chunk x="-160" y="0" width="16" height="16">
0,0,0,0,0,0,0,0,0,0,0,0,0,0,0,0,
0,0,0,0,0,0,0,0,0,0,0,0,0,0,0,0,
0,0,0,0,0,0,0,0,0,0,0,0,0,0,0,0,
0,0,0,0,0,0,0,0,0,0,0,0,0,0,0,0,
0,0,0,0,0,0,0,0,0,0,0,0,0,0,0,0,
0,0,0,0,0,0,0,0,0,0,0,0,0,0,0,0,
0,0,0,0,0,0,0,0,0,0,0,0,0,0,0,0,
0,0,0,0,0,0,0,0,0,0,0,0,0,0,0,0,
0,0,0,0,0,0,0,0,0,0,0,0,0,0,0,0,
0,0,0,0,0,0,0,0,0,0,0,0,0,0,0,0,
0,0,0,0,0,13,13,13,13,13,13,13,13,13,13,13,
0,0,0,0,0,13,13,13,13,13,13,13,13,13,13,13,
0,0,0,0,0,13,13,13,13,13,13,13,13,13,13,13,
0,0,0,0,0,13,13,13,13,13,13,13,13,13,13,13,
0,0,0,0,0,13,13,13,13,13,13,13,13,13,13,13,
0,0,0,0,0,13,13,13,13,13,13,13,13,13,13,13
</chunk>
   <chunk x="-144" y="0" width="16" height="16">
0,0,0,0,0,0,0,0,0,0,0,0,0,0,0,0,
0,0,0,0,0,0,0,0,0,0,0,0,0,0,0,0,
0,0,0,0,0,0,0,0,0,0,0,0,0,0,0,0,
0,0,0,0,0,0,0,0,0,0,0,0,0,0,0,0,
0,0,0,0,0,0,0,0,0,0,0,0,0,0,0,0,
0,0,0,0,0,0,0,0,0,0,0,0,0,0,0,0,
0,0,0,0,0,0,0,0,0,0,0,0,0,0,0,0,
0,0,0,0,0,0,0,0,0,0,0,0,0,0,0,0,
0,0,0,0,0,0,0,0,0,0,0,0,0,0,0,0,
0,0,0,0,0,0,0,0,0,0,0,0,0,0,0,0,
13,13,13,0,0,0,0,0,0,0,0,0,0,0,0,0,
13,13,13,0,0,0,0,0,0,0,0,0,0,0,0,0,
13,13,13,0,0,0,0,0,0,0,0,0,0,0,0,0,
13,13,13,0,0,0,0,0,0,0,0,0,0,0,0,0,
13,13,13,0,0,0,0,0,0,0,0,0,0,0,0,0,
13,13,13,0,0,0,0,0,0,0,0,0,0,0,0,0
</chunk>
   <chunk x="-160" y="16" width="16" height="16">
0,0,0,0,0,13,13,13,13,13,13,13,13,13,13,13,
0,0,0,0,0,13,13,13,13,13,13,13,13,13,13,13,
0,0,0,0,0,0,0,0,0,0,0,0,0,0,0,0,
0,0,0,0,0,0,0,0,0,0,0,0,0,0,0,0,
0,0,0,0,0,0,0,0,0,0,0,0,0,0,0,0,
0,0,0,0,0,0,0,0,0,0,0,0,0,0,0,0,
0,0,0,0,0,0,0,0,0,0,0,0,0,0,0,0,
0,0,0,0,0,0,0,0,0,0,0,0,0,0,0,0,
0,0,0,0,0,0,0,0,0,0,0,0,0,0,0,0,
0,0,0,0,0,0,0,0,0,0,0,0,0,0,0,0,
0,0,0,0,0,0,0,0,0,0,0,0,0,0,0,0,
0,0,0,0,0,0,0,0,0,0,0,0,0,0,0,0,
0,0,0,0,0,0,0,0,0,0,0,0,0,0,0,0,
0,0,0,0,0,0,0,0,0,0,0,0,0,0,0,0,
0,0,0,0,0,0,0,0,0,0,0,0,0,0,0,0,
0,0,0,0,0,0,0,0,0,0,0,0,0,0,0,0
</chunk>
   <chunk x="-144" y="16" width="16" height="16">
13,13,13,0,0,0,0,0,0,0,0,0,0,0,0,0,
13,13,13,0,0,0,0,0,0,0,0,0,0,0,0,0,
0,0,0,0,0,0,0,0,0,0,0,0,0,0,0,0,
0,0,0,0,0,0,0,0,0,0,0,0,0,0,0,0,
0,0,0,0,0,0,0,0,0,0,0,0,0,0,0,0,
0,0,0,0,0,0,0,0,0,0,0,0,0,0,0,0,
0,0,0,0,0,0,0,0,0,0,0,0,0,0,0,0,
0,0,0,0,0,0,0,0,0,0,0,0,0,0,0,0,
0,0,0,0,0,0,0,0,0,0,0,0,0,0,0,0,
0,0,0,0,0,0,0,0,0,0,0,0,0,0,0,0,
0,0,0,0,0,0,0,0,0,0,0,0,0,0,0,0,
0,0,0,0,0,0,0,0,0,0,0,0,0,0,0,0,
0,0,0,0,0,0,0,0,0,0,0,0,0,0,0,0,
0,0,0,0,0,0,0,0,0,0,0,0,0,0,0,0,
0,0,0,0,0,0,0,0,0,0,0,0,0,0,0,0,
0,0,0,0,0,0,0,0,0,0,0,0,0,0,0,0
</chunk>
   <chunk x="-144" y="64" width="16" height="16">
0,0,0,0,0,0,0,0,0,0,0,0,0,0,0,0,
0,0,13,13,13,13,13,13,13,13,13,0,0,0,0,0,
0,0,13,13,13,13,13,13,13,13,13,0,0,0,0,0,
0,0,13,13,13,13,13,13,13,13,13,0,0,0,0,0,
0,0,13,13,13,13,13,13,13,13,13,0,0,0,0,0,
0,0,13,13,13,13,13,13,13,13,13,0,0,0,0,0,
0,0,0,0,0,0,0,0,0,0,0,0,0,0,0,0,
0,0,0,0,0,0,0,0,0,0,0,0,0,0,0,0,
0,0,0,0,0,0,0,0,0,0,0,0,0,0,0,0,
0,0,0,0,0,0,0,0,0,0,0,0,0,0,0,0,
0,0,0,0,0,0,0,0,0,0,0,0,0,0,0,0,
0,0,0,0,0,0,0,0,0,0,0,0,0,0,0,0,
0,0,0,0,0,0,0,0,0,0,0,0,0,0,0,0,
0,0,0,0,0,0,0,0,0,0,0,0,0,0,0,0,
0,0,0,0,0,0,0,0,0,0,0,0,0,0,0,0,
0,0,0,0,0,0,0,0,0,0,0,0,0,0,0,0
</chunk>
   <chunk x="-96" y="64" width="16" height="16">
0,0,0,0,0,0,0,0,0,0,0,0,0,0,0,0,
0,0,0,0,0,0,0,0,0,0,0,0,0,0,0,0,
0,0,0,0,0,0,0,0,0,0,0,0,0,0,0,0,
0,0,0,0,0,0,0,0,0,0,0,0,0,0,0,0,
0,0,0,0,0,0,0,0,0,0,0,0,0,0,0,0,
0,0,0,0,0,0,0,0,0,0,0,0,0,0,0,0,
0,0,0,0,0,0,0,0,0,0,0,0,0,0,0,0,
0,0,0,0,0,0,0,0,0,0,0,0,0,0,0,0,
0,0,0,0,0,0,0,0,0,0,0,0,0,0,0,0,
0,0,0,0,0,0,0,0,0,0,0,0,0,0,0,0,
0,0,0,0,13,13,13,13,13,13,13,13,13,13,13,13,
0,0,0,0,13,13,13,13,13,13,13,13,13,13,13,13,
0,0,0,0,13,13,13,13,13,13,13,13,13,13,13,13,
0,0,0,0,13,13,13,13,13,13,13,13,13,13,13,13,
0,0,0,0,13,13,13,13,13,13,13,13,13,13,13,13,
0,0,0,0,13,13,13,13,13,13,13,13,13,13,13,13
</chunk>
   <chunk x="-80" y="64" width="16" height="16">
0,0,0,0,0,0,0,0,0,0,0,0,0,0,0,0,
0,0,0,0,0,0,0,0,0,0,0,0,0,0,0,0,
0,0,0,0,0,0,0,0,0,0,0,0,0,0,0,0,
0,0,0,0,0,0,0,0,0,0,0,0,0,0,0,0,
0,0,0,0,0,0,0,0,0,0,0,0,0,0,0,0,
0,0,0,0,0,0,0,0,0,0,0,0,0,0,0,0,
0,0,0,0,0,0,0,0,0,0,0,0,0,0,0,0,
0,0,0,0,0,0,0,0,0,0,0,0,0,0,0,0,
0,0,0,0,0,0,0,0,0,0,0,0,0,0,0,0,
0,0,0,0,0,0,0,0,0,0,0,0,0,0,0,0,
13,13,13,13,13,13,13,13,13,13,13,13,13,13,13,13,
13,13,13,13,13,13,13,13,13,13,13,13,13,13,13,13,
13,13,13,13,13,13,13,13,13,13,13,13,13,13,13,13,
13,13,13,13,13,13,13,13,13,13,13,13,13,13,13,13,
13,13,13,13,13,13,13,13,13,13,13,13,13,13,13,13,
13,13,13,13,13,13,13,13,13,13,13,13,13,13,13,13
</chunk>
   <chunk x="-64" y="64" width="16" height="16">
0,0,0,0,0,0,0,0,0,0,0,0,0,0,0,0,
0,0,0,0,0,0,0,0,0,0,0,0,0,0,0,0,
0,0,0,0,0,0,0,0,0,0,0,0,0,0,0,0,
0,0,0,0,0,0,0,0,0,0,0,0,0,0,0,0,
0,0,0,0,0,0,0,0,0,0,0,0,0,0,0,0,
0,0,0,0,0,0,0,0,0,0,0,0,0,0,0,0,
0,0,0,0,0,0,0,0,0,0,0,0,0,0,0,0,
0,0,0,0,0,0,0,0,0,0,0,0,0,0,0,0,
0,0,0,0,0,0,0,0,0,0,0,0,0,0,0,0,
0,0,0,0,0,0,0,0,0,0,0,0,0,0,0,0,
13,13,13,13,13,0,0,0,0,0,0,0,0,0,0,0,
13,13,13,13,13,0,0,0,0,0,0,0,0,0,0,0,
13,13,13,13,13,0,0,0,0,0,0,0,0,0,0,0,
13,13,13,13,13,0,0,0,0,0,0,0,0,0,0,0,
13,13,13,13,13,0,0,0,0,0,0,0,0,0,0,0,
13,13,13,13,13,0,0,0,0,0,0,0,0,0,0,0
</chunk>
   <chunk x="-96" y="80" width="16" height="16">
0,0,0,0,13,13,13,13,13,13,13,13,13,13,13,13,
0,0,0,0,13,13,13,13,13,13,13,13,13,13,13,13,
0,0,0,0,13,13,13,13,13,13,13,13,13,13,13,13,
0,0,0,0,0,0,0,0,0,0,0,0,0,0,0,0,
0,0,0,0,0,0,0,0,0,0,0,0,0,0,0,0,
0,0,0,0,0,0,0,0,0,0,0,0,0,0,0,0,
0,0,0,0,0,0,0,0,0,0,0,0,0,0,0,0,
0,0,0,0,0,0,0,0,0,0,0,0,0,0,0,0,
0,0,0,0,0,0,0,0,0,0,0,0,0,0,0,0,
0,0,0,0,0,0,0,0,0,0,0,0,0,0,0,0,
0,0,0,0,0,0,0,0,0,0,0,0,0,0,0,0,
0,0,0,0,0,0,0,0,0,0,0,0,0,0,0,0,
0,0,0,0,0,0,0,0,0,0,0,0,0,0,0,0,
0,0,0,0,0,0,0,0,0,0,0,0,0,0,0,0,
0,0,0,0,0,0,0,0,0,0,0,0,0,0,0,0,
0,0,0,0,0,0,0,0,0,0,0,0,0,0,0,0
</chunk>
   <chunk x="-80" y="80" width="16" height="16">
13,13,13,13,13,13,13,13,13,13,13,13,13,13,13,13,
13,13,13,13,13,13,13,13,13,13,13,13,13,13,13,13,
13,13,13,13,13,13,13,13,13,13,13,13,13,13,13,13,
0,0,0,0,0,0,0,0,0,0,0,0,0,0,0,0,
0,0,0,0,0,0,0,0,0,0,0,0,0,0,0,0,
0,0,0,0,0,0,0,0,0,0,0,0,0,0,0,0,
0,0,0,0,0,0,0,0,0,0,0,0,0,0,0,0,
0,0,0,0,0,0,0,0,0,0,0,0,0,0,0,0,
0,0,0,0,0,0,0,0,0,0,0,0,0,0,0,0,
0,0,0,0,0,0,0,0,0,0,0,0,0,0,0,0,
0,0,0,0,0,0,0,0,0,0,0,0,0,0,0,0,
0,0,0,0,0,0,0,0,0,0,0,0,0,0,0,0,
0,0,0,0,0,0,0,0,0,0,0,0,0,0,0,0,
0,0,0,0,0,0,0,0,0,0,0,0,0,0,0,0,
0,0,0,0,0,0,0,0,0,0,0,0,0,0,0,0,
0,0,0,0,0,0,0,0,0,0,0,0,0,0,0,0
</chunk>
   <chunk x="-64" y="80" width="16" height="16">
13,13,13,13,13,0,0,0,0,0,0,0,0,0,0,0,
13,13,13,13,13,0,0,0,0,0,0,0,0,0,0,0,
13,13,13,13,13,0,0,0,0,0,0,0,0,0,0,0,
0,0,0,0,0,0,0,0,0,0,0,0,0,0,0,0,
0,0,0,0,0,0,0,0,0,0,0,0,0,0,0,0,
0,0,0,0,0,0,0,0,0,0,0,0,0,0,0,0,
0,0,0,0,0,0,0,0,0,0,0,0,0,0,0,0,
0,0,0,0,0,0,0,0,0,0,0,0,0,0,0,0,
0,0,0,0,0,0,0,0,0,0,0,0,0,0,0,0,
0,0,0,0,0,0,0,0,0,0,0,0,0,0,0,0,
0,0,0,0,0,0,0,0,0,0,0,0,0,0,0,0,
0,0,0,0,0,0,0,0,0,0,0,0,0,0,0,0,
0,0,0,0,0,0,0,0,0,0,0,0,0,0,0,0,
0,0,0,0,0,0,0,0,0,0,0,0,0,0,0,0,
0,0,0,0,0,0,0,0,0,0,0,0,0,0,0,0,
0,0,0,0,0,0,0,0,0,0,0,0,0,0,0,0
</chunk>
  </data>
 </layer>
</map>
