<?xml version="1.0" encoding="UTF-8"?>
<map version="1.10" tiledversion="1.10.2" orientation="orthogonal" renderorder="right-down" width="30" height="20" tilewidth="32" tileheight="32" infinite="1" nextlayerid="7" nextobjectid="1">
 <tileset firstgid="1" source="BlockoutTileSetLvel01.tsx"/>
 <tileset firstgid="36" source="CyanMoss.tsx"/>
 <tileset firstgid="100" source="DarkBlueMoss.tsx"/>
 <tileset firstgid="164" source="GreenMoss.tsx"/>
 <layer id="1" name="Blockout" width="30" height="20" visible="0">
  <data encoding="csv">
   <chunk x="-32" y="-32" width="16" height="16">
0,0,0,0,0,0,0,0,0,0,0,0,0,0,0,0,
0,0,0,0,0,0,0,0,0,0,0,0,0,0,0,0,
0,0,0,0,0,0,0,0,0,0,0,0,0,0,0,0,
0,0,0,0,0,0,0,0,0,0,0,0,0,0,0,0,
0,0,0,0,0,0,0,0,0,0,0,0,0,0,0,0,
0,0,0,0,0,0,0,0,0,0,0,0,0,0,0,0,
0,0,0,0,0,0,0,0,0,0,0,0,0,0,0,0,
0,0,0,0,0,0,0,17,17,17,17,17,17,17,17,17,
0,0,0,0,0,0,0,17,17,17,17,17,17,17,17,17,
0,0,0,0,0,0,0,17,17,17,17,17,17,17,17,17,
0,0,0,0,0,0,0,17,17,17,17,17,17,17,17,17,
0,0,0,0,0,0,0,0,0,0,0,0,0,0,0,0,
0,0,0,0,0,0,0,0,0,0,0,0,0,0,0,0,
0,0,0,0,0,0,0,0,0,0,0,0,0,0,0,0,
0,0,0,0,0,0,0,0,0,0,0,0,0,0,0,0,
0,0,0,0,0,0,0,0,0,0,0,0,0,0,0,0
</chunk>
   <chunk x="-16" y="-32" width="16" height="16">
0,0,0,0,0,0,0,0,0,0,0,0,0,0,0,0,
0,0,0,0,0,0,0,0,0,0,0,0,0,0,0,0,
0,0,0,0,0,0,0,0,0,0,0,0,0,0,0,0,
0,0,0,0,0,0,0,0,0,0,0,0,0,0,0,0,
0,0,0,0,0,0,0,0,0,0,0,0,0,0,0,0,
0,0,0,0,0,0,0,0,0,0,0,0,0,0,0,0,
0,0,0,0,0,0,0,0,0,0,0,0,0,0,0,0,
17,17,17,17,17,17,17,17,17,17,17,17,17,17,17,17,
17,17,17,17,17,17,17,17,17,17,17,17,17,17,17,17,
17,17,17,17,17,17,17,17,17,17,17,17,17,17,17,17,
17,17,17,17,17,17,17,17,17,17,17,17,17,17,17,17,
0,0,0,0,0,0,0,0,0,0,0,0,0,0,0,0,
0,0,0,0,0,0,0,0,0,0,0,0,0,0,0,0,
0,0,0,0,0,0,0,0,0,0,0,0,0,0,0,0,
0,0,0,0,0,0,0,0,0,0,0,0,0,0,0,0,
0,0,0,0,0,0,0,0,0,0,0,0,0,0,0,0
</chunk>
   <chunk x="0" y="-32" width="16" height="16">
0,0,0,0,0,0,0,0,0,0,0,0,0,0,0,0,
0,0,0,0,0,0,0,0,0,0,0,0,0,0,0,0,
0,0,0,0,0,0,0,0,0,0,0,0,0,0,0,0,
0,0,0,0,0,0,0,0,0,0,0,0,0,0,0,0,
0,0,0,0,0,0,0,0,0,0,0,0,0,0,0,0,
0,0,0,0,0,0,0,0,0,0,0,0,0,0,0,0,
0,0,0,0,0,0,0,0,0,0,0,0,0,0,0,0,
17,17,17,17,17,17,17,17,17,17,17,17,17,17,17,17,
17,17,17,17,17,17,17,17,17,17,17,17,17,17,17,17,
17,17,17,17,17,17,17,17,17,17,17,17,17,17,17,17,
17,17,17,17,17,17,17,17,17,17,17,17,17,17,17,17,
0,0,0,0,0,0,0,0,0,0,0,0,0,0,0,0,
0,0,0,0,0,0,0,0,0,0,0,0,0,0,0,0,
0,0,0,0,0,0,0,0,0,0,0,0,0,0,0,0,
0,0,0,0,0,0,0,0,0,0,0,0,0,0,0,0,
0,0,0,0,0,0,0,0,0,0,0,0,0,0,0,0
</chunk>
   <chunk x="16" y="-32" width="16" height="16">
0,0,0,0,0,0,0,0,0,0,0,0,0,0,0,0,
0,0,0,0,0,0,0,0,0,0,0,0,0,0,0,0,
0,0,0,0,0,0,0,0,0,0,0,0,0,0,0,0,
0,0,0,0,0,0,0,0,0,0,0,0,0,0,0,0,
0,0,0,0,0,0,0,0,0,0,0,0,0,0,0,0,
0,0,0,0,0,0,0,0,0,0,0,0,0,0,0,0,
0,0,0,0,0,0,0,0,0,0,0,0,0,0,0,0,
17,17,17,17,17,17,17,17,17,17,17,17,17,17,17,17,
17,17,17,17,17,17,17,17,17,17,17,17,17,17,17,17,
17,17,17,17,17,17,17,17,17,17,17,17,17,17,17,17,
17,17,17,17,17,17,17,17,17,17,17,17,17,17,17,17,
0,0,0,0,0,0,0,0,0,0,0,0,0,0,0,0,
0,0,0,0,0,0,0,0,0,0,0,0,0,0,0,0,
0,0,0,0,0,0,0,0,0,0,0,0,0,0,0,0,
0,0,0,0,0,0,0,0,0,0,0,0,0,0,0,0,
0,0,0,0,0,0,0,0,0,0,0,0,0,0,0,0
</chunk>
   <chunk x="32" y="-32" width="16" height="16">
0,0,0,0,0,0,0,0,0,0,0,0,0,0,0,0,
0,0,0,0,0,0,0,0,0,0,0,0,0,0,0,0,
0,0,0,0,0,0,0,0,0,0,0,0,0,0,0,0,
0,0,0,0,0,0,0,0,0,0,0,0,0,0,0,0,
0,0,0,0,0,0,0,0,0,0,0,0,0,0,0,0,
0,0,0,0,0,0,0,0,0,0,0,0,0,0,0,0,
0,0,0,0,0,0,0,0,0,0,0,0,0,0,0,0,
17,17,17,17,17,17,17,17,17,17,17,17,17,17,17,17,
17,17,17,17,17,17,17,17,17,17,17,17,17,17,17,17,
17,17,17,17,17,17,17,17,17,17,17,17,17,17,17,17,
17,17,17,17,17,17,17,17,17,17,17,17,17,17,17,17,
0,0,0,0,0,0,0,0,0,0,0,0,0,0,0,0,
0,0,0,0,0,0,0,0,0,0,0,0,0,0,0,0,
0,0,0,0,0,0,0,0,0,0,0,0,0,0,0,0,
0,0,0,0,0,0,0,0,0,0,0,0,0,0,0,0,
0,0,0,0,0,0,0,0,0,0,0,0,0,0,0,0
</chunk>
   <chunk x="48" y="-32" width="16" height="16">
0,0,0,0,0,0,0,0,0,0,0,0,0,0,0,0,
0,0,0,0,0,0,0,0,0,0,0,0,0,0,0,0,
0,0,0,0,0,0,0,0,0,0,0,0,0,0,0,0,
0,0,0,0,0,0,0,0,0,0,0,0,0,0,0,0,
0,0,0,0,0,0,0,0,0,0,0,0,0,0,0,0,
0,0,0,0,0,0,0,0,0,0,0,0,0,0,0,0,
0,0,0,0,0,0,0,0,0,0,0,0,0,0,0,0,
17,17,17,17,17,17,17,17,17,17,17,17,17,17,17,17,
17,17,17,17,17,17,17,17,17,17,17,17,17,17,17,17,
17,17,17,17,17,17,17,17,17,17,17,17,17,17,17,17,
17,17,17,17,17,17,17,17,17,17,17,17,17,17,17,17,
0,0,0,0,0,0,0,0,0,0,0,17,17,17,17,17,
0,0,0,0,0,0,0,0,0,0,0,17,17,17,17,17,
0,0,0,0,0,0,0,0,0,0,0,17,17,17,17,17,
0,0,0,0,0,0,0,0,0,0,0,17,17,17,17,17,
0,0,0,0,0,0,0,0,0,0,0,17,17,17,17,17
</chunk>
   <chunk x="64" y="-32" width="16" height="16">
0,0,0,0,0,0,0,0,0,0,0,0,0,0,0,0,
0,0,0,0,0,0,0,0,0,0,0,0,0,0,0,0,
0,0,0,0,0,0,0,0,0,0,0,0,0,0,0,0,
0,0,0,0,0,0,0,0,0,0,0,0,0,0,0,0,
0,0,0,0,0,0,0,0,0,0,0,0,0,0,0,0,
0,0,0,0,0,0,0,0,0,0,0,0,0,0,0,0,
0,0,0,0,0,0,0,0,0,0,0,0,0,0,0,0,
17,17,17,17,17,17,17,17,17,17,17,17,17,17,17,17,
17,17,17,17,17,17,17,17,17,17,17,17,17,17,17,17,
17,17,17,17,17,17,17,17,17,17,17,17,17,17,17,17,
17,17,17,17,17,17,17,17,17,17,17,17,17,17,17,17,
17,17,17,17,17,17,17,0,0,0,0,0,0,0,0,0,
17,17,17,17,17,17,17,0,0,0,0,0,0,0,0,0,
17,17,17,17,17,17,17,0,0,0,0,0,0,0,0,0,
17,17,17,17,17,17,17,0,0,0,0,0,0,0,0,0,
17,17,17,17,17,17,17,0,0,0,0,0,0,0,0,0
</chunk>
   <chunk x="80" y="-32" width="16" height="16">
0,0,0,0,0,0,0,0,0,0,0,0,0,0,0,0,
0,0,0,0,0,0,0,0,0,0,0,0,0,0,0,0,
0,0,0,0,0,0,0,0,0,0,0,0,0,0,0,0,
0,0,0,0,0,0,0,0,0,0,0,0,0,0,0,0,
0,0,0,0,0,0,0,0,0,0,0,0,0,0,0,0,
0,0,0,0,0,0,0,0,0,0,0,0,0,0,0,0,
0,0,0,0,0,0,0,0,0,0,0,0,0,0,0,0,
17,17,17,17,17,17,17,17,17,17,17,17,17,17,17,17,
17,17,17,17,17,17,17,17,17,17,17,17,17,17,17,17,
17,17,17,17,17,17,17,17,17,17,17,17,17,17,17,17,
17,17,17,17,17,17,17,17,17,17,17,17,17,17,17,17,
0,0,0,0,0,0,0,0,0,0,0,0,0,0,0,0,
0,0,0,0,0,0,0,0,0,0,0,0,0,0,0,0,
0,0,0,0,0,0,0,0,0,0,0,0,0,0,0,0,
0,0,0,0,0,0,0,0,0,0,0,0,0,0,0,0,
0,0,0,0,0,0,0,0,0,0,0,0,0,0,0,0
</chunk>
   <chunk x="96" y="-32" width="16" height="16">
0,0,0,0,0,0,0,0,0,0,0,0,0,0,0,0,
0,0,0,0,0,0,0,0,0,0,0,0,0,0,0,0,
0,0,0,0,0,0,0,0,0,0,0,0,0,0,0,0,
0,0,0,0,0,0,0,0,0,0,0,0,0,0,0,0,
0,0,0,0,0,0,0,0,0,0,0,0,0,0,0,0,
0,0,0,0,0,0,0,0,0,0,0,0,0,0,0,0,
0,0,0,0,0,0,0,0,0,0,0,0,0,0,0,0,
17,17,17,17,17,17,17,17,17,17,17,17,17,17,17,17,
17,17,17,17,17,17,17,17,17,17,17,17,17,17,17,17,
17,17,17,17,17,17,17,17,17,17,17,17,17,17,17,17,
17,17,17,17,17,17,17,17,17,17,17,17,17,17,17,17,
0,0,0,0,0,0,0,0,0,0,0,0,0,0,0,0,
0,0,0,0,0,0,0,0,0,0,0,0,0,0,0,0,
0,0,0,0,0,0,0,0,0,0,0,0,0,0,0,0,
0,0,0,0,0,0,0,0,0,0,0,0,0,0,0,0,
0,0,0,0,0,0,0,0,0,0,0,0,0,0,0,0
</chunk>
   <chunk x="112" y="-32" width="16" height="16">
0,0,0,0,0,0,0,0,0,0,0,0,0,0,0,0,
0,0,0,0,0,0,0,0,0,0,0,0,0,0,0,0,
0,0,0,0,0,0,0,0,0,0,0,0,0,0,0,0,
0,0,0,0,0,0,0,0,0,0,0,0,0,0,0,0,
0,0,0,0,0,0,0,0,0,0,0,0,0,0,0,0,
0,0,0,0,0,0,0,0,0,0,0,0,0,0,0,0,
0,0,0,0,0,0,0,0,0,0,0,0,0,0,0,0,
17,17,17,17,17,17,17,17,17,17,17,17,17,17,17,17,
17,17,17,17,17,17,17,17,17,17,17,17,17,17,17,17,
17,17,17,17,17,17,17,17,17,17,17,17,17,17,17,17,
17,17,17,17,17,17,17,17,17,17,17,17,17,17,17,17,
0,0,0,0,0,17,17,17,17,17,17,17,17,17,17,17,
0,0,0,0,0,17,17,17,17,17,17,17,17,17,17,17,
0,0,0,0,0,17,17,17,17,17,17,17,17,17,17,17,
0,0,0,0,0,17,17,17,17,17,17,17,17,17,17,17,
0,0,0,0,0,17,17,17,17,17,17,17,17,17,17,17
</chunk>
   <chunk x="128" y="-32" width="16" height="16">
0,0,0,0,0,0,0,0,0,0,0,0,0,0,0,0,
0,0,0,0,0,0,0,0,0,0,0,0,0,0,0,0,
0,0,0,0,0,0,0,0,0,0,0,0,0,0,0,0,
0,0,0,0,0,0,0,0,0,0,0,0,0,0,0,0,
0,0,0,0,0,0,0,0,0,0,0,0,0,0,0,0,
0,0,0,0,0,0,0,0,0,0,0,0,0,0,0,0,
0,0,0,0,0,0,0,0,0,0,0,0,0,0,0,0,
17,17,17,17,17,17,17,17,17,17,17,17,17,17,17,17,
17,17,17,17,17,17,17,17,17,17,17,17,17,17,17,17,
17,17,17,17,17,17,17,17,17,17,17,17,17,17,17,17,
17,17,17,17,17,17,17,17,17,17,17,17,17,17,17,17,
17,17,17,17,17,17,17,17,17,17,17,17,17,17,17,17,
17,17,17,17,17,17,17,17,17,17,17,17,17,17,17,17,
17,17,17,17,17,17,17,17,17,17,17,17,17,17,17,17,
17,17,17,17,17,17,17,17,17,17,17,17,17,17,17,17,
17,17,17,17,17,17,17,17,17,17,17,17,17,17,17,17
</chunk>
   <chunk x="144" y="-32" width="16" height="16">
0,0,0,0,0,0,0,0,0,0,0,0,0,0,0,0,
0,0,0,0,0,0,0,0,0,0,0,0,0,0,0,0,
0,0,0,0,0,0,0,0,0,0,0,0,0,0,0,0,
0,0,0,0,0,0,0,0,0,0,0,0,0,0,0,0,
0,0,0,0,0,0,0,0,0,0,0,0,0,0,0,0,
0,0,0,0,0,0,0,0,0,0,0,0,0,0,0,0,
0,0,0,0,0,0,0,0,0,0,0,0,0,0,0,0,
17,17,17,17,17,17,17,17,17,17,17,17,17,17,17,17,
17,17,17,17,17,17,17,17,17,17,17,17,17,17,17,17,
17,17,17,17,17,17,17,17,17,17,17,17,17,17,17,17,
17,17,17,17,17,17,17,17,17,17,17,17,17,17,17,17,
17,17,17,17,17,17,17,17,17,17,17,17,17,17,17,17,
17,17,17,17,17,17,17,17,17,17,17,17,17,17,17,17,
17,17,17,17,17,17,17,17,17,17,17,17,17,17,17,17,
17,17,17,17,17,17,17,17,17,17,17,17,17,17,17,17,
17,17,17,17,17,17,17,17,17,17,17,17,17,17,17,17
</chunk>
   <chunk x="160" y="-32" width="16" height="16">
0,0,0,0,0,0,0,0,0,0,0,0,0,0,0,0,
0,0,0,0,0,0,0,0,0,0,0,0,0,0,0,0,
0,0,0,0,0,0,0,0,0,0,0,0,0,0,0,0,
0,0,0,0,0,0,0,0,0,0,0,0,0,0,0,0,
0,0,0,0,0,0,0,0,0,0,0,0,0,0,0,0,
0,0,0,0,0,0,0,0,0,0,0,0,0,0,0,0,
0,0,0,0,0,0,0,0,0,0,0,0,0,0,0,0,
17,17,17,17,17,17,17,17,17,17,17,17,17,0,0,0,
17,17,17,17,17,17,17,17,17,17,17,17,17,0,0,0,
17,17,17,17,17,17,17,17,17,17,17,17,17,0,0,0,
17,17,17,17,17,17,17,17,17,17,17,17,17,0,0,0,
17,17,17,17,17,17,17,17,17,17,17,17,17,0,0,0,
17,17,17,17,17,17,17,17,17,17,17,17,17,0,0,0,
17,17,17,17,17,17,17,17,17,17,17,17,17,0,0,0,
17,17,17,17,17,17,17,17,17,17,17,17,17,0,0,0,
17,17,17,17,17,17,17,17,17,17,17,17,17,0,0,0
</chunk>
   <chunk x="-16" y="-16" width="16" height="16">
0,0,0,0,0,0,0,0,0,0,0,0,0,0,0,0,
0,0,0,0,0,0,0,0,0,0,0,0,0,0,0,0,
0,0,0,0,0,0,0,0,0,0,0,0,0,0,0,0,
0,0,0,0,0,0,0,0,0,0,0,0,0,0,0,0,
0,0,0,0,0,0,0,0,0,0,0,0,0,0,0,0,
0,0,0,0,0,0,0,0,0,0,0,0,0,0,0,0,
0,0,0,0,0,0,0,0,0,0,0,0,0,0,0,0,
0,0,0,0,0,0,0,0,0,0,0,0,0,0,0,0,
0,0,0,0,0,0,0,0,0,0,0,0,0,0,0,0,
0,0,0,0,0,0,0,0,0,0,0,0,0,0,0,0,
0,0,0,0,0,0,0,0,0,0,0,0,0,0,0,0,
0,0,0,0,0,0,0,0,0,0,0,0,0,0,0,0,
0,0,0,0,0,0,0,0,0,0,0,0,0,0,0,0,
0,0,0,0,0,0,0,0,0,0,0,0,0,0,0,17,
0,0,0,0,0,0,0,0,0,0,0,0,0,0,17,17,
0,0,0,0,0,0,0,0,0,0,0,0,0,17,17,17
</chunk>
   <chunk x="0" y="-16" width="16" height="16">
0,0,0,0,0,0,0,0,0,0,0,0,0,0,0,0,
0,0,0,0,0,0,0,0,0,0,0,0,0,0,0,0,
0,0,0,0,0,0,0,0,0,0,0,0,0,0,0,0,
0,0,0,0,0,0,0,0,0,0,0,0,0,0,0,0,
0,0,0,0,0,0,0,0,0,0,0,0,0,0,0,0,
0,0,0,0,0,0,0,0,0,0,0,0,0,0,0,0,
0,0,0,0,0,0,0,0,0,0,0,0,0,0,0,0,
0,0,0,0,0,0,0,0,0,0,0,0,0,0,0,0,
0,0,0,0,0,0,0,0,0,0,0,0,0,0,0,0,
0,0,0,0,0,0,0,0,0,0,0,0,0,0,0,0,
0,0,0,0,0,0,0,0,0,0,0,0,0,0,0,0,
0,0,0,0,0,0,0,0,0,0,0,0,0,0,0,0,
17,17,17,17,17,17,17,17,17,17,17,17,17,17,17,17,
17,17,17,17,17,17,17,17,17,17,17,17,17,17,17,17,
17,17,17,17,17,17,17,17,17,17,17,17,17,17,17,17,
17,17,17,17,17,17,17,17,17,17,17,17,17,17,17,17
</chunk>
   <chunk x="16" y="-16" width="16" height="16">
0,0,0,0,0,0,0,0,0,0,0,0,0,0,0,0,
0,0,0,0,0,0,0,0,0,0,0,0,0,0,0,0,
0,0,0,0,0,0,0,0,0,0,0,0,0,0,0,0,
0,0,0,0,0,0,0,0,0,0,0,0,0,0,0,0,
0,0,0,0,0,0,0,0,0,0,0,0,0,0,0,0,
0,0,0,0,0,0,0,0,0,0,0,0,0,0,0,0,
0,0,0,0,0,0,0,0,0,0,0,0,0,0,0,0,
0,0,0,0,0,0,0,0,0,0,0,0,0,0,0,0,
0,0,0,0,0,0,0,0,0,0,0,0,0,0,0,0,
0,0,0,0,0,0,0,0,0,0,0,0,0,0,0,0,
0,0,0,0,0,0,0,0,0,0,0,0,0,0,0,0,
0,0,0,0,0,0,0,0,0,0,0,0,0,0,0,0,
17,17,17,17,17,17,17,17,17,17,17,17,17,17,17,17,
17,17,17,17,17,17,17,17,17,17,17,17,17,17,17,17,
17,17,17,17,17,17,17,17,17,17,17,17,17,17,17,17,
17,17,17,17,17,17,17,17,17,17,17,17,17,17,17,17
</chunk>
   <chunk x="32" y="-16" width="16" height="16">
0,0,0,0,0,0,0,0,0,0,0,0,0,0,0,0,
0,0,0,0,0,0,0,0,0,0,0,0,0,0,0,0,
0,0,0,0,0,0,0,0,0,0,0,0,0,0,0,0,
0,0,0,0,0,0,0,0,0,0,0,0,0,0,0,0,
0,0,0,0,0,0,0,0,0,0,0,0,0,0,0,0,
0,0,0,0,0,0,0,0,0,0,0,0,0,0,0,0,
0,0,0,0,0,0,0,0,0,0,0,0,0,0,0,0,
0,0,0,0,0,0,0,0,0,0,0,0,0,0,0,0,
0,0,0,0,0,0,0,0,0,0,0,0,0,0,0,0,
0,0,0,0,0,0,0,0,0,0,0,0,0,0,0,0,
0,0,0,0,0,0,0,0,0,0,0,0,0,0,0,0,
0,0,0,0,0,0,0,0,0,0,0,0,0,0,0,0,
17,17,17,17,17,17,17,0,0,0,0,0,0,0,0,0,
17,17,17,17,17,17,17,0,0,0,0,0,0,0,0,0,
17,17,17,17,17,17,17,0,0,0,0,0,0,0,0,0,
17,17,17,17,17,17,17,0,0,0,0,0,0,0,0,0
</chunk>
   <chunk x="48" y="-16" width="16" height="16">
0,0,0,0,0,0,0,0,0,0,0,17,17,17,17,17,
0,0,0,0,0,0,0,0,0,0,0,17,17,17,17,17,
0,0,0,0,0,0,0,0,0,0,0,17,17,17,17,17,
0,0,0,0,0,0,0,0,0,0,0,17,17,17,17,17,
0,0,0,0,0,0,0,0,0,0,0,17,17,17,17,17,
0,0,0,0,0,0,0,0,0,0,0,17,17,17,17,17,
0,0,0,0,0,0,0,0,0,0,0,17,17,17,17,17,
0,0,0,0,0,0,0,0,0,0,0,17,17,17,17,17,
0,0,0,0,0,0,0,0,0,0,0,17,17,17,17,17,
0,0,0,0,0,0,0,0,0,0,0,17,17,17,17,17,
0,0,0,0,0,0,0,0,0,0,0,17,17,17,17,17,
0,0,0,0,0,0,0,0,0,0,0,17,17,17,17,17,
0,0,0,0,0,0,0,0,0,0,0,17,17,17,17,17,
0,0,0,0,0,0,0,0,0,0,0,17,17,17,17,17,
0,0,0,0,0,0,0,0,0,0,0,17,17,17,17,17,
0,0,0,0,0,0,0,0,0,0,0,17,17,17,17,17
</chunk>
   <chunk x="64" y="-16" width="16" height="16">
17,17,17,17,17,17,17,0,0,0,0,0,0,0,0,0,
17,17,17,17,17,17,17,0,0,0,0,0,0,0,0,0,
17,17,17,17,17,17,17,0,0,0,0,0,0,0,0,0,
17,17,17,17,17,17,17,0,0,0,0,0,0,0,0,0,
17,17,17,17,17,17,17,0,0,0,0,0,0,0,0,0,
17,17,17,17,17,17,17,0,0,0,0,0,0,0,0,0,
17,17,17,17,17,17,17,0,0,0,0,0,0,0,0,0,
17,17,17,17,17,17,17,0,0,0,0,0,0,0,0,0,
17,17,17,17,17,17,17,0,0,0,0,0,0,0,0,0,
17,17,17,17,17,17,17,0,0,0,0,0,0,0,0,0,
17,17,17,17,17,17,17,0,0,0,0,0,0,0,0,0,
17,17,17,17,17,17,17,0,0,0,0,0,0,0,0,0,
17,17,17,17,17,17,17,17,17,17,17,17,17,17,17,17,
17,17,17,17,17,17,17,17,17,17,17,17,17,17,17,17,
17,17,17,17,17,17,17,17,17,17,17,17,17,17,17,17,
17,17,17,17,17,17,17,17,17,17,17,17,17,17,17,17
</chunk>
   <chunk x="80" y="-16" width="16" height="16">
0,0,0,0,0,0,0,0,0,0,0,0,0,0,0,0,
0,0,0,0,0,0,0,0,0,0,0,0,0,0,0,0,
0,0,0,0,0,0,0,0,0,0,0,0,0,0,0,0,
0,0,0,0,0,0,0,0,0,0,0,0,0,0,0,0,
0,0,0,0,0,0,0,0,0,0,0,0,0,0,0,0,
0,0,0,0,0,0,0,0,0,0,0,0,0,0,0,0,
0,0,0,0,0,0,0,0,0,0,0,0,0,0,0,0,
0,0,0,0,0,0,0,0,0,0,0,0,0,0,0,0,
0,0,0,0,0,0,0,0,0,0,0,0,0,0,0,0,
0,0,0,0,0,0,0,0,0,0,0,0,0,0,0,0,
0,0,0,0,0,0,0,0,0,0,0,0,0,0,0,0,
0,0,0,0,0,0,0,0,0,0,0,0,0,0,0,0,
17,17,17,17,17,17,0,0,0,0,0,0,0,0,17,17,
17,17,17,17,17,17,17,0,0,0,0,0,0,17,17,17,
17,17,17,17,17,17,17,17,17,17,17,17,17,17,17,17,
17,17,17,17,17,17,17,17,17,17,17,17,17,17,17,17
</chunk>
   <chunk x="96" y="-16" width="16" height="16">
0,0,0,0,0,0,0,0,0,0,0,0,0,0,0,0,
0,0,0,0,0,0,0,0,0,0,0,0,0,0,0,0,
0,0,0,0,0,0,0,0,0,0,0,0,0,0,0,0,
0,0,0,0,0,0,0,0,0,0,0,0,0,0,0,0,
0,0,0,0,0,0,0,0,0,0,0,0,0,0,0,0,
0,0,0,0,0,0,0,0,0,0,0,0,0,0,0,0,
0,0,0,0,0,0,0,0,0,0,0,0,0,0,0,0,
0,0,0,0,0,0,0,0,0,0,0,0,0,0,0,0,
0,0,0,0,0,0,0,0,0,0,0,0,0,0,0,0,
0,0,0,0,0,0,0,0,0,0,0,0,0,0,0,0,
0,0,0,0,0,0,0,0,0,0,0,0,0,0,0,0,
0,0,0,0,0,0,0,0,0,0,0,0,0,0,0,0,
17,17,17,17,17,17,17,17,17,17,17,17,0,0,0,0,
17,17,17,17,17,17,17,17,17,17,17,17,0,0,0,0,
17,17,17,17,17,17,17,17,17,17,17,17,0,0,0,0,
17,17,17,17,17,17,17,17,17,17,17,17,0,0,0,0
</chunk>
   <chunk x="112" y="-16" width="16" height="16">
0,0,0,0,0,17,17,17,17,17,17,17,17,17,17,17,
0,0,0,0,0,17,17,17,17,17,17,17,17,17,17,17,
0,0,0,0,0,0,17,17,17,17,17,17,17,17,17,17,
0,0,0,0,0,0,0,17,17,17,17,17,17,17,17,17,
0,0,0,0,0,0,0,0,0,0,0,0,0,0,0,0,
0,0,0,0,0,0,0,0,0,0,0,0,0,0,0,0,
0,0,0,0,0,0,0,0,0,0,0,0,0,0,0,0,
0,0,0,0,0,0,0,0,0,0,0,0,0,0,0,0,
0,0,0,0,0,0,0,0,0,0,0,0,0,0,0,0,
0,0,0,0,0,0,0,0,0,0,0,0,0,0,0,0,
0,0,0,0,0,0,0,0,0,0,0,0,0,0,0,0,
0,0,0,0,0,0,0,0,0,0,0,0,0,0,0,0,
0,0,0,0,0,0,0,0,0,0,0,0,0,0,0,0,
0,0,0,0,0,0,0,0,0,0,0,0,0,0,0,0,
0,0,0,0,0,0,0,0,0,0,0,0,0,0,0,0,
0,0,0,0,0,0,0,0,0,0,0,0,0,0,0,0
</chunk>
   <chunk x="128" y="-16" width="16" height="16">
17,17,17,17,17,17,17,17,17,17,17,17,17,17,17,17,
17,17,17,17,17,17,17,17,17,17,17,17,17,17,17,17,
17,17,17,17,17,17,17,17,17,17,17,17,17,17,17,17,
17,17,17,17,17,17,17,17,17,17,17,17,17,17,17,17,
0,0,0,0,0,0,0,0,0,0,0,0,17,17,17,17,
0,0,0,0,0,0,0,0,0,0,0,0,17,17,17,17,
0,0,0,0,0,0,0,0,0,0,0,0,17,17,17,17,
0,0,0,0,0,0,0,0,0,0,0,0,17,17,17,17,
0,0,0,0,0,0,0,0,0,0,0,0,17,17,17,17,
0,0,0,0,0,0,0,0,0,0,0,0,17,17,17,17,
0,0,0,0,0,0,0,0,0,0,0,0,17,17,17,17,
0,0,0,0,0,0,0,0,0,0,0,0,17,17,17,17,
0,0,0,0,0,0,0,0,0,0,0,0,17,17,17,17,
0,0,0,0,0,0,0,0,0,0,0,0,17,17,17,17,
0,0,0,0,0,0,0,0,0,0,0,0,17,17,17,17,
0,0,0,0,0,0,0,0,0,0,0,0,17,17,17,17
</chunk>
   <chunk x="144" y="-16" width="16" height="16">
17,17,17,17,17,17,17,17,17,17,17,17,17,17,17,17,
17,17,17,17,17,17,17,17,17,17,17,17,17,17,17,17,
17,17,17,17,17,17,17,17,17,17,17,17,17,17,17,17,
17,17,17,17,17,17,17,17,17,17,17,17,17,17,17,17,
17,17,17,17,17,17,17,17,17,17,17,17,17,17,17,17,
17,17,17,17,17,17,17,17,17,17,17,17,17,17,17,17,
17,17,17,17,17,17,17,17,17,17,17,17,17,17,17,17,
17,17,17,17,17,17,17,17,17,17,17,17,17,17,17,17,
17,17,17,17,17,17,17,17,17,17,17,17,17,17,17,17,
17,17,17,17,17,17,17,17,17,17,17,17,17,17,17,17,
17,17,17,17,17,17,17,17,17,17,17,17,17,17,17,17,
17,17,17,17,17,17,17,17,17,17,17,17,17,17,17,17,
17,17,17,17,17,17,17,17,17,17,17,17,17,17,17,17,
17,17,17,17,17,17,17,17,17,17,17,17,17,17,17,17,
17,17,17,17,17,17,17,17,17,17,17,17,17,17,17,17,
17,17,17,17,17,17,17,17,17,17,17,17,17,17,17,17
</chunk>
   <chunk x="160" y="-16" width="16" height="16">
17,17,17,17,17,17,17,17,17,17,17,17,17,0,0,0,
17,17,17,17,17,17,17,17,17,17,17,17,17,0,0,0,
17,17,17,17,17,17,17,17,17,17,17,17,17,0,0,0,
17,17,17,17,17,17,17,17,17,17,17,17,17,0,0,0,
17,17,17,17,17,17,17,17,17,17,17,17,17,0,0,0,
17,17,17,17,17,17,17,17,17,17,17,17,17,0,0,0,
17,17,17,17,17,17,17,17,17,17,17,17,17,0,0,0,
17,17,17,17,17,17,17,17,17,17,17,17,17,0,0,0,
17,17,17,17,17,17,17,17,17,17,17,17,17,0,0,0,
17,17,17,17,17,17,17,17,17,17,17,17,17,0,0,0,
17,17,17,17,17,17,17,17,17,17,17,17,17,0,0,0,
17,17,17,17,17,17,17,17,17,17,17,17,17,0,0,0,
17,17,17,17,17,17,17,17,17,17,17,17,17,0,0,0,
17,17,17,17,17,17,17,17,17,17,17,17,17,0,0,0,
17,17,17,17,17,17,17,17,17,17,17,17,17,0,0,0,
17,17,17,17,17,17,17,17,17,17,17,17,17,0,0,0
</chunk>
   <chunk x="-32" y="0" width="16" height="16">
0,0,0,0,0,0,0,17,17,17,17,17,17,17,17,17,
0,0,0,0,0,0,0,17,17,17,17,17,17,17,17,17,
0,0,0,0,0,0,0,17,17,17,17,17,17,17,17,17,
0,0,0,0,0,0,0,17,17,17,17,17,17,17,17,17,
0,0,0,0,0,0,0,17,17,17,17,17,17,17,17,17,
0,0,0,0,0,0,0,17,17,17,17,17,17,17,17,17,
0,0,0,0,0,0,0,17,17,17,17,17,17,17,17,17,
0,0,0,0,0,0,0,17,17,17,17,17,17,17,17,17,
0,0,0,0,0,0,0,17,17,17,17,17,17,17,17,17,
0,0,0,0,0,0,0,17,17,17,17,17,17,17,17,17,
0,0,0,0,0,0,0,17,17,17,17,17,17,17,17,17,
0,0,0,0,0,0,0,17,17,17,17,17,17,17,17,17,
0,0,0,0,0,0,0,17,17,17,17,17,17,17,17,17,
0,0,0,0,0,0,0,17,17,17,17,17,17,17,17,17,
0,0,0,0,0,0,0,17,17,17,17,17,17,17,17,17,
0,0,0,0,0,0,0,17,17,17,17,17,17,17,17,17
</chunk>
   <chunk x="-16" y="0" width="16" height="16">
17,17,17,17,17,17,17,17,17,17,17,17,17,17,17,17,
17,17,17,17,17,17,17,17,17,17,17,17,17,17,17,17,
17,17,17,17,17,17,17,17,17,17,17,17,17,17,17,17,
17,17,17,17,17,17,17,17,17,17,17,17,17,17,17,17,
17,17,17,17,17,17,17,17,17,17,17,17,17,17,17,17,
17,17,17,17,17,17,17,17,17,17,17,17,17,17,17,17,
17,17,17,17,17,17,17,17,17,17,17,17,17,17,17,17,
17,17,17,17,17,17,17,17,17,17,17,17,17,17,17,17,
17,17,17,17,17,17,17,17,17,17,17,17,17,17,17,17,
17,17,17,17,17,17,17,17,17,17,17,17,17,17,17,17,
17,17,17,17,17,17,17,17,17,17,17,17,17,17,17,17,
17,17,17,17,17,17,17,17,17,17,17,17,17,17,17,17,
17,17,17,17,17,17,17,17,17,17,17,17,17,17,17,17,
17,17,17,17,17,17,17,17,17,17,17,17,17,17,17,17,
17,17,17,17,17,17,17,17,17,17,17,17,17,17,17,17,
17,17,17,17,17,17,17,17,17,17,0,0,0,0,0,0
</chunk>
   <chunk x="0" y="0" width="16" height="16">
17,17,17,17,17,17,17,17,17,17,17,17,17,17,17,17,
17,17,17,17,17,17,17,17,17,17,17,17,17,17,17,17,
17,17,17,17,17,17,17,17,17,17,17,17,17,17,17,17,
17,17,17,17,17,17,17,17,17,17,17,17,17,17,17,17,
17,17,17,17,17,17,17,17,17,17,17,17,17,17,17,17,
17,17,17,17,17,17,17,17,17,17,17,17,17,17,17,17,
17,17,17,17,17,17,17,17,17,17,17,17,17,17,17,17,
17,17,17,17,17,17,17,17,17,17,17,17,17,17,17,17,
17,17,17,17,17,17,17,17,17,17,17,17,17,17,17,17,
17,17,17,17,17,17,17,17,17,17,17,17,17,17,17,17,
17,17,17,17,17,17,17,17,17,17,17,17,17,17,17,17,
17,17,0,0,0,0,0,0,0,0,0,0,0,0,0,0,
17,17,0,0,0,0,0,0,0,0,0,0,0,0,0,0,
17,17,0,0,0,0,0,0,0,0,0,0,0,0,0,0,
17,0,0,0,0,0,0,0,0,0,0,0,0,0,0,0,
0,0,0,0,0,0,0,0,0,0,0,0,0,0,0,0
</chunk>
   <chunk x="16" y="0" width="16" height="16">
17,17,17,17,17,17,17,17,17,17,17,17,17,17,17,17,
17,17,17,17,17,17,17,17,17,17,17,17,17,17,17,17,
17,17,17,17,17,17,17,17,17,17,17,17,17,17,17,17,
17,17,17,17,17,17,17,17,17,17,17,17,17,17,17,17,
17,17,17,17,17,17,17,17,17,17,17,17,17,17,17,17,
17,17,17,17,17,17,17,17,17,17,17,17,17,17,17,17,
17,17,17,17,17,17,17,17,17,17,17,17,17,17,17,17,
17,17,17,17,17,17,17,17,17,17,17,17,17,17,17,0,
17,17,17,17,17,17,17,17,17,17,17,17,17,17,17,0,
17,17,17,17,17,17,17,17,17,17,17,17,17,17,0,0,
17,17,17,17,17,17,17,17,17,17,17,17,17,0,0,0,
0,0,0,0,0,0,0,0,0,0,0,0,0,0,0,0,
0,0,0,0,0,0,0,0,0,0,0,0,0,0,0,0,
0,0,0,0,0,0,0,0,0,0,0,0,0,0,0,0,
0,0,0,0,0,0,0,0,0,0,0,0,0,0,0,0,
0,0,0,0,0,0,0,0,0,0,0,0,0,0,0,0
</chunk>
   <chunk x="32" y="0" width="16" height="16">
17,17,17,17,17,17,17,0,0,0,0,0,0,0,0,0,
17,17,17,17,17,17,17,0,0,0,0,0,0,0,0,0,
17,17,17,17,17,17,17,0,0,0,0,0,0,0,0,0,
17,17,17,17,17,17,17,0,0,0,0,0,0,0,0,0,
17,17,17,17,17,17,17,0,0,0,0,0,0,0,0,0,
17,17,17,17,17,17,0,0,0,0,0,0,0,0,0,0,
17,17,17,17,17,0,0,0,0,0,0,0,0,0,0,0,
0,0,0,0,0,0,0,0,0,0,0,0,0,0,0,0,
0,0,0,0,0,0,0,0,0,0,0,0,0,0,0,0,
0,0,0,0,0,0,0,0,0,0,0,0,0,0,0,0,
0,0,0,0,0,0,0,0,0,0,0,0,0,0,0,0,
0,0,0,0,0,0,0,0,0,0,0,0,0,0,0,0,
0,0,0,0,0,0,0,0,0,0,0,0,0,0,0,0,
0,0,0,0,0,0,0,0,0,0,0,0,0,0,0,0,
0,0,0,0,0,0,0,0,0,0,0,0,0,0,0,0,
0,0,0,0,0,0,0,0,0,0,0,0,0,0,0,0
</chunk>
   <chunk x="48" y="0" width="16" height="16">
0,0,0,0,0,0,0,0,0,0,0,17,17,17,17,17,
0,0,0,0,0,0,0,0,0,0,0,0,17,17,17,17,
0,0,0,0,0,0,0,0,0,0,0,0,0,17,17,17,
0,0,0,0,0,0,0,0,0,0,0,0,0,0,17,17,
0,0,0,0,0,0,0,0,0,0,0,0,0,0,0,17,
0,0,0,0,0,0,0,0,0,0,0,0,0,0,0,0,
0,0,0,0,0,0,0,0,0,0,0,0,0,0,0,0,
0,0,0,0,0,0,0,0,0,0,0,0,0,0,0,0,
0,0,0,0,0,0,0,0,0,0,0,0,0,0,0,0,
0,0,0,0,0,0,0,0,0,0,0,0,0,0,0,0,
0,0,0,0,0,0,0,0,0,0,0,0,0,0,0,0,
0,0,0,0,0,0,0,0,0,0,0,0,0,0,0,0,
0,0,0,0,0,0,0,0,0,0,0,0,0,0,0,0,
0,0,0,0,0,0,0,0,0,0,0,0,0,0,0,0,
0,0,0,0,0,0,0,0,0,0,0,0,0,0,0,0,
0,0,0,0,0,0,0,0,0,0,0,0,0,0,0,0
</chunk>
   <chunk x="64" y="0" width="16" height="16">
17,17,17,17,17,17,17,17,17,17,17,17,17,17,17,17,
17,17,17,17,17,17,17,17,17,17,17,17,17,17,17,17,
17,17,17,17,17,17,17,17,17,17,17,17,17,17,17,17,
17,17,17,17,17,17,17,17,17,17,17,17,17,17,17,17,
17,17,17,17,17,17,17,17,17,17,17,17,17,17,17,17,
17,17,17,17,17,17,17,17,17,17,17,17,17,17,17,17,
0,0,0,0,0,0,0,0,0,0,0,0,0,0,0,0,
0,0,0,0,0,0,0,0,0,0,0,0,0,0,0,0,
0,0,0,0,0,0,0,0,0,0,0,0,0,0,0,0,
0,0,0,0,0,0,0,0,0,0,0,0,0,0,0,0,
0,0,0,0,0,0,0,0,0,0,0,0,0,0,0,0,
0,0,0,0,0,0,0,0,0,0,0,0,0,0,0,0,
0,0,0,0,0,0,0,0,0,0,0,0,0,0,0,0,
0,0,0,0,0,0,0,0,0,0,0,0,0,0,0,0,
0,0,0,0,0,0,0,0,0,0,0,0,0,0,0,0,
0,0,0,0,0,0,0,0,0,0,0,0,0,0,0,0
</chunk>
   <chunk x="80" y="0" width="16" height="16">
17,17,17,17,17,17,17,17,17,17,17,17,17,17,17,17,
17,17,17,17,17,17,17,17,17,17,17,17,17,17,17,17,
17,17,17,17,17,17,17,17,17,17,17,17,17,17,17,17,
17,17,17,17,17,17,17,17,17,17,17,17,17,17,17,17,
17,17,17,17,17,17,17,17,17,17,17,17,17,17,17,17,
17,17,17,17,17,17,17,17,17,17,17,17,17,17,17,17,
0,0,0,0,0,0,0,0,0,0,0,0,0,0,0,0,
0,0,0,0,0,0,0,0,0,0,0,0,0,0,0,0,
0,0,0,0,0,0,0,0,0,0,0,0,0,0,0,0,
0,0,0,0,0,0,0,0,0,0,0,0,0,0,0,0,
0,0,0,0,0,0,0,0,0,0,0,0,0,0,0,0,
0,0,0,0,0,0,0,0,0,0,0,0,0,0,0,0,
0,0,0,0,0,0,0,0,0,0,0,0,0,0,0,0,
0,0,0,0,0,0,0,0,0,0,0,0,0,0,0,0,
0,0,0,0,0,0,0,0,0,0,0,0,0,0,0,0,
0,0,0,0,0,0,0,0,0,0,0,0,0,0,0,0
</chunk>
   <chunk x="96" y="0" width="16" height="16">
17,17,17,17,17,17,17,17,17,17,17,17,0,0,0,0,
17,17,17,17,17,17,17,17,17,17,17,17,0,0,0,0,
17,17,17,17,17,17,17,17,17,17,17,17,0,0,0,0,
17,17,17,17,17,17,17,17,17,17,17,17,0,0,0,0,
17,17,17,17,17,17,17,17,17,17,17,17,0,0,0,0,
17,17,17,17,17,17,17,17,17,17,17,17,0,0,0,0,
0,0,0,0,0,0,0,0,0,0,0,0,0,0,0,0,
0,0,0,0,0,0,0,0,0,0,0,0,0,0,0,0,
0,0,0,0,0,0,0,0,0,0,0,0,0,0,0,0,
0,0,0,0,0,0,0,0,0,0,0,0,0,0,0,0,
0,0,0,0,0,0,0,0,0,0,0,0,0,0,0,0,
0,0,0,0,0,0,0,0,0,0,0,0,0,0,0,0,
0,0,0,0,0,0,0,0,0,0,0,0,0,0,0,0,
0,0,0,0,0,0,0,0,0,0,0,0,0,0,0,0,
0,0,0,0,0,0,0,0,0,0,0,0,0,0,0,0,
0,0,0,0,0,0,0,0,0,0,0,0,0,0,0,0
</chunk>
   <chunk x="128" y="0" width="16" height="16">
0,0,0,0,0,0,0,0,0,0,0,0,17,17,17,17,
0,0,0,0,0,0,0,0,0,0,0,0,17,17,17,17,
0,0,0,0,0,0,0,0,0,0,0,0,17,17,17,17,
0,0,0,0,0,0,0,0,0,0,0,0,0,17,17,17,
0,0,0,0,0,0,0,0,0,0,0,0,0,0,17,17,
0,0,0,0,0,0,0,0,0,0,0,0,0,0,0,0,
0,0,0,0,0,0,0,0,0,0,0,0,0,0,0,0,
0,0,0,0,0,0,0,0,0,0,0,0,0,0,0,0,
0,0,0,0,0,0,0,0,0,0,0,0,0,0,0,0,
0,0,0,0,0,0,0,0,0,0,0,0,0,0,0,0,
0,0,0,0,0,0,0,0,0,0,0,0,0,0,0,0,
0,0,0,0,0,0,0,0,0,0,0,0,0,0,0,0,
0,0,0,0,0,0,0,0,0,0,0,0,0,0,0,0,
0,0,0,0,0,0,0,0,0,0,0,0,0,0,0,0,
0,0,0,0,0,0,0,0,0,0,0,0,0,0,0,0,
0,0,0,0,0,0,0,0,0,0,0,0,0,0,0,0
</chunk>
   <chunk x="144" y="0" width="16" height="16">
17,17,17,17,17,17,17,17,17,17,17,17,17,17,17,17,
17,17,17,17,17,17,17,17,17,17,17,17,17,17,17,17,
17,17,17,17,17,17,17,17,17,17,17,17,17,17,17,17,
17,17,17,17,17,17,17,17,17,17,17,17,17,17,17,17,
17,17,17,17,17,17,17,17,17,17,17,17,17,17,17,17,
0,0,17,17,17,17,17,17,17,17,17,17,17,17,17,17,
0,0,17,17,17,17,17,17,17,17,17,17,17,17,17,17,
0,0,17,17,17,17,17,17,17,17,17,17,17,17,17,17,
0,0,17,17,17,17,17,17,17,17,17,17,17,17,17,17,
0,0,17,17,17,17,17,17,17,17,17,17,17,17,17,17,
0,0,17,17,17,17,17,17,17,17,17,17,17,17,17,17,
0,0,17,17,17,17,17,17,17,17,17,17,17,17,17,17,
0,0,17,17,17,17,17,17,17,17,17,17,17,17,17,17,
0,0,17,17,17,17,17,17,17,17,17,17,17,17,17,17,
0,0,17,17,17,17,17,17,17,17,17,17,17,17,17,17,
0,0,17,17,17,17,17,17,17,17,17,17,17,17,17,17
</chunk>
   <chunk x="160" y="0" width="16" height="16">
17,17,17,17,17,17,17,17,17,17,17,17,17,0,0,0,
17,17,17,17,17,17,17,17,17,17,17,17,17,0,0,0,
17,17,17,17,17,17,17,17,17,17,17,17,17,0,0,0,
17,17,17,17,17,17,17,17,17,17,17,17,17,0,0,0,
17,17,17,17,17,17,17,17,17,17,17,17,17,0,0,0,
17,17,17,17,17,17,17,17,17,17,17,17,17,0,0,0,
17,17,17,17,17,17,17,17,17,17,17,17,17,0,0,0,
17,17,17,17,17,17,17,17,17,17,17,17,17,0,0,0,
17,17,17,17,17,17,17,17,17,17,17,17,17,0,0,0,
17,17,17,17,17,17,17,17,17,17,17,17,17,0,0,0,
17,17,17,17,17,17,17,17,17,17,17,17,17,0,0,0,
17,17,17,17,17,17,17,17,17,17,17,17,17,0,0,0,
17,17,17,17,17,17,17,17,17,17,17,17,17,0,0,0,
17,17,17,17,17,17,17,17,17,17,17,17,17,0,0,0,
17,17,17,17,17,17,17,17,17,17,17,17,17,0,0,0,
17,17,17,17,17,17,17,17,17,17,17,17,17,0,0,0
</chunk>
   <chunk x="-32" y="16" width="16" height="16">
0,0,0,0,0,0,0,17,17,17,17,17,17,17,17,17,
0,0,0,0,0,0,0,17,17,17,17,17,17,17,17,17,
0,0,0,0,0,0,0,17,17,17,17,17,17,17,17,17,
0,0,0,0,0,0,0,17,17,17,17,17,17,17,17,17,
0,0,0,0,0,0,0,17,17,17,17,17,17,17,17,17,
0,0,0,0,0,0,0,17,17,17,17,17,17,17,17,17,
0,0,0,0,0,0,0,17,17,17,17,17,17,17,17,17,
0,0,0,0,0,0,0,17,17,17,17,17,17,17,17,17,
0,0,0,0,0,0,0,17,17,17,17,17,17,17,17,17,
0,0,0,0,0,0,0,17,17,17,17,17,17,17,17,17,
0,0,0,0,0,0,0,17,17,17,17,17,17,17,17,17,
0,0,0,0,0,0,0,17,17,17,17,17,17,17,17,17,
0,0,0,0,0,0,0,17,17,17,17,17,17,17,17,17,
0,0,0,0,0,0,0,17,17,17,17,17,17,17,17,17,
0,0,0,0,0,0,0,17,17,17,17,17,17,17,17,17,
0,0,0,0,0,0,0,0,0,0,0,0,0,0,0,0
</chunk>
   <chunk x="-16" y="16" width="16" height="16">
17,17,17,17,17,17,17,17,17,17,0,0,0,0,0,0,
17,17,17,17,17,17,17,17,17,17,0,0,0,0,0,0,
17,17,17,17,17,17,17,17,17,17,0,0,0,0,0,0,
17,17,17,17,17,17,17,17,17,17,17,17,17,17,17,17,
17,17,17,17,17,17,17,17,17,17,17,17,17,17,17,17,
17,17,17,17,17,17,17,17,17,17,17,17,17,17,17,17,
17,17,17,17,17,17,17,17,17,17,17,17,17,17,17,17,
17,17,17,17,17,17,17,17,17,17,17,17,17,17,17,17,
17,17,17,17,17,17,17,17,17,17,17,17,17,17,17,17,
17,17,17,17,17,17,17,17,17,17,17,17,17,17,17,17,
17,17,17,17,17,17,17,17,17,17,17,17,17,17,17,17,
17,17,17,17,17,17,17,17,17,17,17,17,17,17,17,17,
17,17,17,17,17,17,17,17,17,17,17,17,17,17,17,17,
17,17,17,17,17,17,17,17,17,17,17,17,17,17,17,17,
17,17,17,17,17,17,17,17,17,17,17,17,17,17,17,0,
0,0,0,0,0,0,0,0,0,0,0,0,0,0,0,0
</chunk>
   <chunk x="0" y="16" width="16" height="16">
0,0,0,0,0,0,0,0,0,0,0,0,0,0,0,0,
0,0,0,0,0,0,0,0,0,0,0,0,0,0,0,0,
0,0,0,0,0,0,0,0,0,0,0,0,0,0,0,0,
17,17,17,17,17,17,17,17,17,17,17,17,17,17,17,17,
17,17,17,17,17,17,17,17,17,17,17,17,17,17,17,17,
17,17,17,17,17,17,17,17,17,17,17,17,17,17,17,17,
17,17,17,17,17,17,17,17,17,17,17,17,17,17,17,17,
17,17,17,17,17,17,17,17,17,17,17,17,17,17,17,17,
17,17,17,17,17,17,17,17,17,17,17,17,17,17,17,17,
17,17,17,17,17,17,17,17,17,17,17,17,17,17,17,17,
17,17,17,17,17,17,17,17,17,17,17,17,17,17,17,17,
17,17,17,17,17,17,17,17,17,17,17,17,17,17,17,17,
17,17,17,17,17,17,17,17,17,17,17,17,17,17,17,17,
0,0,0,0,0,0,0,0,0,0,0,0,0,0,0,0,
0,0,0,0,0,0,0,0,0,0,0,0,0,0,0,0,
0,0,0,0,0,0,0,0,0,0,0,0,0,0,0,0
</chunk>
   <chunk x="16" y="16" width="16" height="16">
0,0,0,0,0,0,0,0,0,0,0,0,0,0,0,0,
0,0,0,0,0,0,0,0,0,0,0,0,0,0,0,0,
0,0,0,0,0,0,0,0,0,0,0,0,0,0,0,0,
17,17,17,17,17,17,17,17,17,17,17,0,0,0,0,0,
17,17,17,17,17,17,17,17,17,17,17,0,0,0,0,0,
17,17,17,17,17,17,17,17,17,17,17,0,0,0,0,0,
17,17,17,17,17,17,17,17,17,17,17,0,0,0,0,0,
17,17,17,17,17,17,17,17,17,17,17,0,0,0,0,0,
17,17,17,17,17,17,17,17,17,17,17,0,0,0,0,0,
17,17,17,17,17,17,17,17,17,17,0,0,0,0,0,0,
17,17,17,17,17,17,17,17,17,0,0,0,0,0,0,0,
17,17,17,17,17,17,17,17,17,0,0,0,0,0,0,0,
17,17,17,17,17,17,17,17,0,0,0,0,0,0,0,0,
0,0,0,0,0,0,0,0,0,0,0,0,0,0,0,0,
0,0,0,0,0,0,0,0,0,0,0,0,0,0,0,0,
0,0,0,0,0,0,0,0,0,0,0,0,0,0,0,0
</chunk>
   <chunk x="48" y="16" width="16" height="16">
0,0,0,0,0,0,0,0,0,0,0,0,0,0,0,0,
0,0,0,0,0,0,0,0,0,0,0,0,0,0,0,0,
0,0,0,0,0,0,0,0,0,0,0,0,0,0,0,0,
0,0,0,0,0,0,0,0,0,0,0,0,0,0,0,0,
0,0,0,0,0,0,0,0,0,0,0,0,0,0,0,0,
0,0,0,0,0,0,0,0,0,0,0,0,0,0,0,0,
0,0,0,0,0,0,0,0,0,0,0,0,0,0,0,0,
0,0,0,0,0,0,0,0,0,0,0,0,0,0,0,0,
0,0,0,0,0,0,0,0,0,0,0,0,0,0,0,0,
0,0,0,0,0,0,0,0,0,0,0,0,0,0,0,0,
0,0,0,0,0,0,0,0,0,0,0,0,0,0,0,0,
0,0,0,0,0,0,0,0,0,0,0,0,0,0,0,0,
0,0,0,0,0,0,0,0,0,0,0,0,0,0,0,0,
0,0,0,0,0,0,0,0,0,0,0,0,0,0,0,0,
0,0,0,0,0,0,0,0,17,17,17,17,17,17,17,17,
0,0,0,0,0,0,0,0,17,17,17,17,17,17,17,17
</chunk>
   <chunk x="64" y="16" width="16" height="16">
0,0,0,0,0,0,0,0,0,0,0,0,0,0,0,0,
0,0,0,0,0,0,0,0,0,0,0,0,0,0,0,0,
0,0,0,0,0,0,0,0,0,0,0,0,0,0,0,0,
0,0,0,0,17,17,17,17,17,17,17,17,17,17,17,17,
0,0,0,0,17,17,17,17,17,17,17,17,17,17,17,17,
0,0,0,0,17,17,17,17,17,17,17,17,17,17,17,17,
0,0,0,0,17,17,17,17,17,17,17,17,17,17,17,17,
0,0,0,0,17,17,17,17,17,17,17,17,17,17,17,17,
0,0,0,0,17,17,17,17,17,17,17,17,17,17,17,17,
0,0,0,0,17,17,17,17,17,17,17,17,17,17,17,17,
0,0,0,0,17,17,17,17,17,17,17,17,17,17,17,0,
0,0,0,0,17,17,17,17,17,17,17,17,17,17,17,0,
0,0,0,0,17,17,17,17,17,17,17,17,17,17,17,0,
0,0,0,0,17,17,17,17,17,17,17,17,17,17,17,0,
17,17,17,17,17,17,17,17,17,17,17,17,17,17,17,0,
17,17,17,17,17,17,17,17,17,17,17,17,17,17,17,0
</chunk>
   <chunk x="80" y="16" width="16" height="16">
0,0,0,0,0,0,0,0,0,0,0,0,0,0,0,0,
0,0,0,0,0,0,0,0,0,0,0,0,0,0,0,0,
0,0,0,0,0,0,0,0,0,0,0,0,0,0,0,0,
17,17,17,17,17,0,0,0,0,0,0,0,0,0,0,17,
17,17,17,17,17,0,0,0,0,0,0,0,0,0,0,17,
17,17,17,17,17,0,0,0,0,0,0,0,0,0,0,17,
17,17,17,17,17,0,0,0,0,0,0,0,0,0,0,17,
17,17,17,17,17,0,0,0,0,0,0,0,0,0,0,17,
17,17,17,17,17,0,0,0,0,0,0,0,0,0,0,17,
17,17,17,17,17,0,0,0,0,0,0,0,0,0,0,17,
0,0,0,0,0,0,0,0,0,0,0,0,0,0,0,0,
0,0,0,0,0,0,0,0,0,0,0,0,0,0,0,0,
0,0,0,0,0,0,0,0,0,0,0,0,0,0,0,0,
0,0,0,0,0,0,0,0,0,0,0,0,0,0,0,0,
0,0,0,0,0,0,0,0,0,0,0,0,0,0,0,0,
0,0,0,0,0,0,0,0,0,0,0,0,0,0,0,0
</chunk>
   <chunk x="96" y="16" width="16" height="16">
0,0,0,0,0,0,0,0,0,0,0,0,0,0,0,0,
0,0,0,0,0,0,0,0,0,0,0,0,0,0,0,0,
0,0,0,0,0,0,0,0,0,0,0,0,0,0,0,0,
17,17,17,17,17,17,17,17,17,17,17,17,17,17,17,17,
17,17,17,17,17,17,17,17,17,17,17,17,17,17,17,17,
17,17,17,17,17,17,17,17,17,17,17,17,17,17,17,17,
17,17,17,17,17,17,17,17,17,17,17,17,17,17,17,17,
17,17,17,17,17,17,17,17,17,17,17,17,17,17,17,17,
17,17,17,17,17,17,17,17,17,17,17,17,17,17,17,17,
17,17,17,17,17,17,17,17,17,17,17,17,17,17,17,17,
0,0,0,0,0,17,17,17,17,17,17,17,17,17,17,17,
0,0,0,0,0,0,17,17,17,17,17,17,17,17,17,17,
0,0,0,0,0,0,0,17,17,17,17,17,17,17,17,17,
0,0,0,0,0,0,0,0,17,17,17,17,17,17,17,17,
0,0,0,0,0,0,0,0,17,17,17,17,17,17,17,17,
0,0,0,0,0,0,0,0,17,17,17,17,17,17,17,17
</chunk>
   <chunk x="112" y="16" width="16" height="16">
0,0,0,0,0,0,0,0,0,0,0,0,0,0,0,0,
0,0,0,0,0,0,0,0,0,0,0,0,0,0,0,0,
0,0,0,0,0,0,0,0,0,0,0,0,0,0,0,0,
17,17,17,17,17,17,17,0,0,0,0,0,0,0,0,0,
17,17,17,17,17,17,17,0,0,0,0,0,0,0,0,0,
17,17,17,17,17,17,17,0,0,0,0,0,0,0,0,0,
17,17,17,17,17,17,17,0,0,0,0,0,0,0,0,0,
17,17,17,17,17,17,17,0,0,0,0,0,0,0,0,0,
17,17,17,17,17,17,17,0,0,0,0,0,0,0,0,0,
17,17,17,17,17,17,17,0,0,0,0,0,0,0,0,0,
17,17,17,17,17,17,17,0,0,0,0,0,0,0,0,0,
17,17,17,17,17,17,17,0,0,0,0,0,0,0,0,0,
17,17,17,17,17,17,17,0,0,0,0,0,0,0,0,0,
17,17,17,17,17,17,17,0,0,0,0,0,0,0,0,0,
17,17,17,17,17,17,17,0,0,0,0,0,0,0,0,0,
17,17,17,17,17,17,17,0,0,0,0,0,0,0,0,0
</chunk>
   <chunk x="128" y="16" width="16" height="16">
0,0,0,0,0,0,0,0,0,0,0,0,0,0,0,0,
0,0,0,0,0,0,0,0,0,0,0,0,0,0,0,0,
0,0,0,0,0,0,0,0,0,0,0,0,0,0,0,0,
0,17,17,17,17,17,17,17,17,17,17,17,17,17,17,17,
0,17,17,17,17,17,17,17,17,17,17,17,17,17,17,17,
0,17,17,17,17,17,17,17,17,17,17,17,17,17,17,17,
0,17,17,17,17,17,17,17,17,17,17,17,17,17,17,17,
0,17,17,17,17,17,17,17,17,17,17,17,17,17,17,17,
0,0,17,17,17,17,17,17,17,17,17,17,17,17,17,17,
0,0,0,17,17,17,17,17,17,17,17,17,17,17,17,17,
0,0,0,0,17,17,17,17,17,17,17,17,17,17,17,17,
0,0,0,0,0,17,17,17,17,17,17,17,17,17,17,17,
0,0,0,0,0,0,0,0,0,0,0,0,0,0,0,0,
0,0,0,0,0,0,0,0,0,0,0,0,0,0,0,0,
0,0,0,0,0,0,0,0,0,0,0,0,0,0,0,0,
0,0,0,0,0,0,0,0,0,0,0,0,0,0,0,0
</chunk>
   <chunk x="144" y="16" width="16" height="16">
0,0,17,17,17,17,17,17,17,17,17,17,17,17,17,17,
0,0,17,17,17,17,17,17,17,17,17,17,17,17,17,17,
0,0,17,17,17,17,17,17,17,17,17,17,17,17,17,17,
17,17,17,17,17,17,17,17,17,17,17,17,17,17,17,17,
17,17,17,17,17,17,17,17,17,17,17,17,17,17,17,17,
17,17,17,17,17,17,17,17,17,17,17,17,17,17,17,17,
17,17,17,17,17,17,17,17,17,17,17,17,17,17,17,17,
17,17,17,17,17,17,17,17,17,17,17,17,17,17,17,17,
17,17,17,17,17,17,17,17,17,17,17,17,17,17,17,17,
17,17,17,17,17,17,17,17,17,17,17,17,17,17,17,17,
17,17,17,17,17,17,17,17,17,17,17,17,17,17,17,17,
17,17,17,17,17,17,17,17,17,17,17,17,17,17,17,17,
0,0,0,0,0,0,0,0,0,0,0,0,0,0,0,0,
0,0,0,0,0,0,0,0,0,0,0,0,0,0,0,0,
0,0,0,0,0,0,0,0,0,0,0,0,0,0,0,0,
0,0,0,0,0,0,0,0,0,0,0,0,0,0,0,0
</chunk>
   <chunk x="160" y="16" width="16" height="16">
17,17,17,17,17,17,17,17,17,17,17,17,17,0,0,0,
17,17,17,17,17,17,17,17,17,17,17,17,17,0,0,0,
17,17,17,17,17,17,17,17,17,17,17,17,17,0,0,0,
17,17,17,17,17,17,17,17,17,17,17,17,17,0,0,0,
17,17,17,17,17,17,17,17,17,17,17,17,17,0,0,0,
17,17,17,17,17,17,17,17,17,17,17,17,17,0,0,0,
17,17,17,17,17,17,17,17,17,17,17,17,17,0,0,0,
17,17,17,17,17,17,17,17,17,17,17,17,17,0,0,0,
17,17,17,17,17,17,17,17,17,17,17,17,17,0,0,0,
17,17,17,17,17,17,17,17,17,17,17,17,17,0,0,0,
17,17,17,17,17,17,17,17,17,17,17,17,17,0,0,0,
17,17,17,17,17,17,17,17,17,17,17,17,17,0,0,0,
0,17,17,17,17,17,17,17,17,17,17,17,17,0,0,0,
0,17,17,17,17,17,17,17,17,17,17,17,17,0,0,0,
0,17,17,17,17,17,17,17,17,17,17,17,17,0,0,0,
0,17,17,17,17,17,17,17,17,17,17,17,17,0,0,0
</chunk>
   <chunk x="-32" y="32" width="16" height="16">
0,0,0,0,0,0,0,0,0,0,0,0,0,0,0,0,
0,0,0,0,0,0,0,0,0,0,0,0,0,0,0,0,
0,0,0,0,0,0,0,0,0,0,0,0,0,0,0,0,
0,0,0,0,0,0,0,0,0,0,0,0,0,0,0,0,
0,0,0,0,0,0,0,0,0,0,0,0,0,0,0,0,
0,0,0,0,0,0,0,0,0,0,0,0,0,0,0,0,
0,0,0,0,0,0,0,17,17,17,17,17,17,17,17,17,
0,0,0,0,0,0,0,17,17,17,17,17,17,17,17,17,
0,0,0,0,0,0,0,17,17,17,17,17,17,17,17,17,
0,0,0,0,0,0,0,17,17,17,17,17,17,17,17,17,
0,0,0,0,0,0,0,17,17,17,17,17,17,17,17,17,
0,0,0,0,0,0,0,17,17,17,17,17,17,17,17,17,
0,0,0,0,0,0,0,17,17,17,17,17,17,17,17,17,
0,0,0,0,0,0,0,17,17,17,17,17,17,17,17,17,
0,0,0,0,0,0,0,17,17,17,17,17,17,17,17,17,
0,0,0,0,0,0,0,0,0,0,0,0,0,0,0,0
</chunk>
   <chunk x="-16" y="32" width="16" height="16">
0,0,0,0,0,0,0,0,0,0,0,0,0,0,0,0,
0,0,0,0,0,0,0,0,0,0,0,0,0,0,0,0,
0,0,0,0,0,0,0,0,0,0,0,0,0,0,0,0,
0,0,0,0,0,0,0,0,0,0,0,0,0,0,0,0,
0,0,0,0,0,0,0,0,0,0,0,0,0,0,0,0,
0,0,0,0,0,0,0,0,0,0,0,0,0,0,0,0,
17,17,17,17,17,17,17,17,17,17,17,17,17,17,17,17,
17,17,17,17,17,17,17,17,17,17,17,17,17,17,17,17,
17,17,17,17,17,17,17,17,17,17,17,17,17,17,17,17,
17,17,17,17,17,17,17,17,17,17,17,17,17,17,17,17,
17,17,17,17,17,17,17,17,17,17,17,17,17,17,17,17,
17,17,17,17,17,17,17,17,17,17,17,17,17,17,17,17,
17,17,17,17,17,17,17,17,17,17,17,17,17,17,17,17,
17,17,17,17,17,17,17,17,17,17,17,17,17,17,17,17,
17,17,17,17,17,17,17,17,17,17,17,17,17,17,17,17,
0,0,0,0,0,0,0,0,0,0,0,0,0,0,0,0
</chunk>
   <chunk x="0" y="32" width="16" height="16">
0,0,0,0,0,0,0,0,0,0,0,0,0,0,0,0,
0,0,0,0,0,0,0,0,0,0,0,0,0,0,0,0,
0,0,0,0,0,0,0,0,0,0,0,0,0,0,0,0,
0,0,0,0,0,0,0,0,0,0,0,0,0,0,0,0,
0,0,0,0,0,0,0,0,0,0,0,0,0,0,0,0,
0,0,0,0,0,0,0,0,0,0,0,0,0,0,0,0,
17,17,17,17,17,17,17,17,17,17,17,17,17,17,17,17,
17,17,17,17,17,17,17,17,17,17,17,17,17,17,17,17,
17,17,17,17,17,17,17,17,17,17,17,17,17,17,17,17,
17,17,17,17,17,17,17,17,17,17,17,17,17,17,17,17,
17,17,17,17,17,17,17,17,17,17,17,17,17,17,17,17,
17,17,17,17,17,17,17,17,17,17,17,17,17,17,17,17,
17,17,17,17,17,17,17,17,17,17,17,17,17,17,17,17,
17,17,17,17,17,17,17,17,17,17,17,17,17,17,17,17,
17,17,17,17,17,17,17,17,17,17,17,17,17,17,17,17,
0,0,0,0,0,0,0,0,0,0,0,0,0,0,0,0
</chunk>
   <chunk x="16" y="32" width="16" height="16">
0,0,0,0,0,0,0,0,0,0,0,0,0,0,0,0,
0,0,0,0,0,0,0,0,0,0,0,0,0,0,0,0,
0,0,0,0,0,0,0,0,0,0,0,0,0,0,0,0,
0,0,0,0,0,0,0,0,0,0,0,0,0,0,0,0,
0,0,0,0,0,0,0,0,0,0,0,0,0,0,0,0,
0,0,0,0,0,0,0,0,0,0,0,0,0,0,0,0,
17,17,17,0,0,0,0,0,0,0,0,0,0,0,0,0,
17,17,17,0,0,0,0,0,0,0,0,0,0,0,0,0,
17,17,17,0,0,0,0,0,0,0,0,0,0,0,0,0,
17,17,17,0,0,0,0,0,0,0,0,0,0,0,0,0,
17,17,17,0,0,0,0,0,0,0,0,0,0,0,0,0,
17,17,0,0,0,0,0,0,0,0,0,0,0,0,0,0,
17,17,0,0,0,0,0,0,0,0,0,0,0,0,0,0,
17,0,0,0,0,0,0,0,0,0,0,0,0,0,0,0,
0,0,0,0,0,0,0,0,0,0,0,0,0,0,0,0,
0,0,0,0,0,0,0,0,0,0,0,0,0,0,0,0
</chunk>
   <chunk x="32" y="32" width="16" height="16">
0,0,0,0,0,0,0,0,0,0,0,0,0,0,0,0,
0,0,0,0,0,0,0,0,0,0,0,0,0,0,0,0,
0,0,0,0,0,17,17,17,17,17,17,17,17,17,17,17,
0,0,0,0,0,17,17,17,17,17,17,17,17,17,17,17,
0,0,0,0,0,17,17,17,17,17,17,17,17,17,17,17,
0,0,0,0,0,17,17,17,17,17,17,17,17,17,17,17,
0,0,0,0,0,17,17,17,17,17,17,17,17,17,17,17,
0,0,0,0,0,17,17,17,17,17,17,17,17,17,17,17,
0,0,0,0,0,0,17,17,17,17,17,17,17,17,17,17,
0,0,0,0,0,0,0,17,17,17,17,17,17,17,17,17,
0,0,0,0,0,0,0,0,17,17,17,17,17,17,17,17,
0,0,0,0,0,0,0,0,0,0,0,0,0,0,0,0,
0,0,0,0,0,0,0,0,0,0,0,0,0,0,0,0,
0,0,0,0,0,0,0,0,0,0,0,0,0,0,0,0,
0,0,0,0,0,0,0,0,0,0,0,0,0,0,0,0,
0,0,0,0,0,0,0,0,17,17,17,17,17,17,17,17
</chunk>
   <chunk x="48" y="32" width="16" height="16">
0,0,0,0,0,0,0,0,0,0,0,0,0,0,0,0,
0,0,0,0,0,0,0,0,0,0,0,0,0,0,0,0,
17,17,17,17,17,17,17,17,17,17,17,17,17,17,17,17,
17,17,17,17,17,17,17,17,17,17,17,17,17,17,17,17,
17,17,17,17,17,17,17,17,17,17,17,17,17,17,17,17,
17,17,17,17,17,17,17,17,17,17,17,17,17,17,17,17,
17,17,17,17,17,17,17,17,17,17,17,17,17,17,17,17,
17,17,17,17,17,17,17,17,17,17,17,17,17,17,17,17,
17,17,17,17,17,17,17,17,17,17,17,17,17,17,17,17,
17,17,17,17,17,17,17,17,17,17,17,17,17,17,17,17,
17,17,17,17,17,17,17,17,17,17,17,17,17,17,17,17,
0,0,0,0,17,17,17,17,17,17,17,17,17,17,17,17,
0,0,0,0,17,17,17,17,17,17,17,17,17,17,17,17,
0,0,0,0,17,17,17,17,17,17,17,17,17,17,17,17,
0,0,0,0,17,17,17,17,17,17,17,17,17,17,17,17,
17,17,17,17,17,17,17,17,17,17,17,17,17,17,17,17
</chunk>
   <chunk x="64" y="32" width="16" height="16">
0,0,0,0,17,17,17,17,17,17,17,17,17,17,17,0,
0,0,0,0,17,17,17,17,17,17,17,17,17,17,17,0,
17,17,17,17,17,17,17,17,17,17,17,17,17,17,17,0,
17,17,17,17,17,17,17,17,17,17,17,17,17,17,17,0,
17,17,17,17,17,17,17,17,17,17,17,17,17,17,0,0,
17,17,17,17,17,17,17,17,17,17,17,17,17,0,0,0,
17,17,17,17,17,17,17,17,17,17,17,17,0,0,0,0,
17,17,17,17,17,17,17,17,17,17,17,0,0,0,0,0,
17,17,17,17,17,17,17,17,17,17,17,0,0,0,0,0,
17,17,17,17,17,17,17,17,17,17,17,0,0,0,0,0,
17,17,17,17,17,17,17,17,17,17,17,0,0,0,0,0,
17,17,17,17,17,17,17,17,17,17,17,0,0,0,0,0,
17,17,17,17,17,17,17,17,17,17,17,0,0,0,0,0,
17,17,17,17,17,17,17,17,17,17,17,0,0,0,0,0,
17,17,17,17,17,17,17,17,17,17,17,0,0,0,0,0,
17,17,17,17,17,17,17,17,17,17,17,0,0,0,0,0
</chunk>
   <chunk x="96" y="32" width="16" height="16">
0,0,0,0,0,0,0,0,17,17,17,17,17,17,17,17,
0,0,0,0,0,0,0,0,17,17,17,17,17,17,17,17,
0,0,0,0,0,0,0,0,17,17,17,17,17,17,17,17,
0,0,0,0,0,0,0,0,17,17,17,17,17,17,17,17,
0,0,0,0,0,0,0,0,17,17,17,17,17,17,17,17,
0,0,0,0,0,0,0,0,17,17,17,17,17,17,17,17,
0,0,0,0,0,0,0,0,17,17,17,17,17,17,17,17,
0,0,0,0,0,0,0,0,17,17,17,17,17,17,17,17,
0,0,0,0,0,0,0,0,17,17,17,17,17,17,17,17,
0,0,0,0,0,0,0,0,17,17,17,17,17,17,17,17,
0,0,0,0,0,0,0,0,17,17,17,17,17,17,17,17,
0,0,0,0,0,0,0,0,17,17,17,17,17,17,17,17,
0,0,0,0,0,0,0,0,17,17,17,17,17,17,17,17,
0,0,0,0,0,0,0,0,17,17,17,17,17,17,17,17,
0,0,0,0,0,0,0,0,17,17,17,17,17,17,17,17,
0,0,0,0,0,0,0,0,17,17,17,17,17,17,17,17
</chunk>
   <chunk x="112" y="32" width="16" height="16">
17,17,17,17,17,17,17,0,0,0,0,0,0,0,0,0,
17,17,17,17,17,17,17,0,0,0,0,0,0,0,0,0,
17,17,17,17,17,17,17,0,0,0,0,17,17,17,17,17,
17,17,17,17,17,17,17,0,0,0,0,17,17,17,17,17,
17,17,17,17,17,17,17,0,0,0,0,17,17,17,17,17,
17,17,17,17,17,17,17,0,0,0,0,17,17,17,17,17,
17,17,17,17,17,17,17,17,17,17,17,17,17,17,17,17,
17,17,17,17,17,17,17,17,17,17,17,17,17,17,17,17,
17,17,17,17,17,17,17,17,17,17,17,17,17,17,17,17,
17,17,17,17,17,17,17,17,17,17,17,17,17,17,17,17,
17,17,17,17,17,17,17,17,17,17,17,17,17,17,17,17,
17,17,17,17,17,17,17,17,17,17,17,17,17,17,17,17,
17,17,17,17,17,17,17,17,17,17,17,17,17,17,17,17,
17,17,17,17,17,17,17,17,17,17,17,17,17,17,17,17,
17,17,17,17,17,17,17,17,17,17,17,17,17,17,17,17,
17,17,17,17,17,17,17,0,0,0,0,0,0,0,0,0
</chunk>
   <chunk x="128" y="32" width="16" height="16">
0,0,0,0,0,0,0,0,0,0,0,0,0,0,0,0,
0,0,0,0,0,0,0,0,0,0,0,0,0,0,0,0,
17,17,17,17,17,17,17,17,17,0,0,0,0,0,0,0,
17,17,17,17,17,17,17,17,17,0,0,0,0,0,0,0,
17,17,17,17,17,17,17,17,17,0,0,0,0,0,0,0,
17,17,17,17,17,17,17,17,17,0,0,0,0,0,0,0,
17,17,17,17,17,17,17,17,17,17,17,17,17,17,17,17,
17,17,17,17,17,17,17,17,17,17,17,17,17,17,17,17,
17,17,17,17,17,17,17,17,17,17,17,17,17,17,17,17,
17,17,17,17,17,17,17,17,17,17,17,17,17,17,17,17,
17,17,17,17,17,17,17,17,17,17,17,17,17,17,17,17,
17,17,17,17,17,17,17,17,17,17,17,17,17,17,17,17,
17,17,17,17,17,17,17,17,17,17,17,17,17,17,17,17,
17,17,17,17,17,17,17,17,17,17,17,17,17,17,17,17,
17,17,17,17,17,17,17,17,17,17,17,17,17,17,17,17,
0,0,0,0,0,0,0,0,0,0,0,0,0,0,0,0
</chunk>
   <chunk x="144" y="32" width="16" height="16">
0,0,0,0,0,0,0,0,0,0,0,0,0,0,0,0,
0,0,0,0,0,0,0,0,0,0,0,0,0,0,0,0,
0,0,0,0,0,0,0,0,0,0,0,0,0,0,0,0,
0,0,0,0,0,0,0,0,0,0,0,0,0,0,0,0,
0,0,0,0,0,0,0,0,0,0,0,0,0,0,0,0,
0,0,0,0,0,0,0,0,0,0,0,0,0,0,0,0,
17,17,17,0,0,0,0,0,0,0,0,0,0,0,0,0,
17,17,17,0,0,0,0,0,0,0,0,0,0,0,0,0,
17,17,17,0,0,0,0,0,0,0,0,0,0,0,0,0,
17,17,17,0,0,0,0,0,0,0,0,0,0,0,0,0,
17,17,17,0,0,0,0,0,0,0,0,0,0,0,0,0,
17,17,17,0,0,0,0,0,0,0,0,0,0,0,0,0,
17,17,17,0,0,0,0,0,0,0,0,0,0,0,0,0,
17,17,17,0,0,0,0,0,0,0,0,0,0,0,0,0,
17,17,17,0,0,0,0,0,0,0,0,0,0,0,0,0,
0,0,0,0,0,0,0,0,0,0,0,0,0,0,0,0
</chunk>
   <chunk x="160" y="32" width="16" height="16">
0,17,17,17,17,17,17,17,17,17,17,17,17,0,0,0,
0,17,17,17,17,17,17,17,17,17,17,17,17,0,0,0,
0,17,17,17,17,17,17,17,17,17,17,17,17,0,0,0,
0,17,17,17,17,17,17,17,17,17,17,17,17,0,0,0,
0,17,17,17,17,17,17,17,17,17,17,17,17,0,0,0,
0,17,17,17,17,17,17,17,17,17,17,17,17,0,0,0,
0,17,17,17,17,17,17,17,17,17,17,17,17,0,0,0,
0,17,17,17,17,17,17,17,17,17,17,17,17,0,0,0,
0,17,17,17,17,17,17,17,17,17,17,17,17,0,0,0,
0,17,17,17,17,17,17,17,17,17,17,17,17,0,0,0,
0,17,17,17,17,17,17,17,17,17,17,17,17,0,0,0,
0,17,17,17,17,17,17,17,17,17,17,17,17,0,0,0,
0,17,17,17,17,17,17,17,17,17,17,17,17,0,0,0,
0,17,17,17,17,17,17,17,17,17,17,17,17,0,0,0,
0,17,17,17,17,17,17,17,17,17,17,17,17,0,0,0,
0,0,0,0,0,0,0,0,0,0,0,0,0,0,0,0
</chunk>
   <chunk x="-32" y="48" width="16" height="16">
0,0,0,0,0,0,0,0,0,0,0,0,0,0,0,0,
0,0,0,0,0,0,0,0,0,0,0,0,0,0,0,0,
0,0,0,0,0,0,0,0,0,0,0,0,0,0,0,0,
0,0,0,0,0,0,0,0,0,0,0,0,0,0,0,0,
0,0,0,0,0,0,0,0,0,0,0,0,0,0,0,0,
0,0,0,0,0,0,0,0,0,0,0,0,0,0,0,0,
0,0,0,0,0,0,0,17,17,17,17,17,17,17,17,17,
0,0,0,0,0,0,0,17,17,17,17,17,17,17,17,17,
0,0,0,0,0,0,0,17,17,17,17,17,17,17,17,17,
0,0,0,0,0,0,0,17,17,17,17,17,17,17,17,17,
0,0,0,0,0,0,0,17,17,17,17,17,17,17,17,17,
0,0,0,0,0,0,0,17,17,17,17,17,17,17,17,17,
0,0,0,0,0,0,0,17,17,17,17,17,17,17,17,17,
0,0,0,0,0,0,0,17,17,17,17,17,17,17,17,17,
0,0,0,0,0,0,0,17,17,17,17,17,17,17,17,17,
0,0,0,0,0,0,0,17,17,17,17,17,17,17,17,17
</chunk>
   <chunk x="-16" y="48" width="16" height="16">
0,0,0,0,0,0,0,0,0,0,0,0,0,0,0,0,
0,0,0,0,0,0,0,0,0,0,0,0,0,0,0,0,
0,0,0,0,0,0,0,0,0,0,0,0,0,0,0,0,
0,0,0,0,0,0,0,0,0,0,0,0,0,0,0,0,
0,0,0,0,0,0,0,0,0,0,0,0,0,0,0,0,
0,0,0,0,0,0,0,0,0,0,0,0,0,0,0,0,
17,17,17,17,17,17,17,17,17,17,17,17,17,17,17,17,
17,17,17,17,17,17,17,17,17,17,17,17,17,17,17,17,
17,17,17,17,17,17,17,17,17,17,17,17,17,17,17,17,
17,17,17,17,17,17,17,17,17,17,17,17,17,17,17,17,
17,17,17,17,17,17,17,17,17,17,17,17,17,17,17,17,
17,17,17,17,17,17,17,17,17,17,17,17,17,17,17,17,
17,17,17,17,17,17,17,17,17,17,17,17,17,17,17,17,
17,17,17,17,17,17,17,17,17,17,17,17,17,17,17,17,
17,17,17,17,17,17,17,17,17,17,17,17,17,17,17,17,
17,17,17,17,17,17,17,17,17,17,17,17,17,17,17,17
</chunk>
   <chunk x="0" y="48" width="16" height="16">
0,0,0,0,0,0,0,0,0,0,0,0,0,0,0,0,
0,0,0,0,0,0,0,0,0,0,0,0,0,0,0,0,
0,0,0,0,0,0,0,0,0,0,0,0,0,0,0,0,
0,0,0,0,0,0,0,0,0,0,0,0,0,0,0,0,
0,0,0,0,0,0,0,0,0,0,0,0,0,0,0,0,
0,0,0,0,0,0,0,0,0,0,0,0,0,0,0,0,
17,17,17,17,17,17,17,17,17,17,17,17,17,17,17,17,
17,17,17,17,17,17,17,17,17,17,17,17,17,17,17,17,
17,17,17,17,17,17,17,17,17,17,17,17,17,17,17,17,
17,17,17,17,17,17,17,17,17,17,17,17,17,17,17,17,
17,17,17,17,17,17,17,17,17,17,17,17,17,17,17,17,
17,17,17,17,17,17,17,17,17,17,17,17,17,17,17,17,
17,17,17,17,17,17,17,17,17,17,17,17,17,17,17,17,
17,17,17,17,17,17,17,17,17,17,17,17,17,17,17,17,
17,17,17,17,17,17,17,17,17,17,17,17,17,17,17,17,
17,17,17,17,17,17,17,17,17,17,17,17,17,17,17,17
</chunk>
   <chunk x="16" y="48" width="16" height="16">
0,0,0,0,0,0,0,0,0,0,0,0,0,0,0,0,
0,0,0,0,0,0,0,0,0,0,0,0,0,0,0,0,
0,0,0,0,0,0,0,0,0,0,0,0,0,0,0,0,
0,0,0,0,0,0,0,0,0,0,0,0,0,0,0,0,
0,0,0,0,0,0,0,0,0,0,0,0,0,0,0,0,
0,0,0,0,0,0,0,0,0,0,0,0,0,0,0,0,
17,17,17,17,17,17,17,17,17,17,17,17,17,17,17,17,
17,17,17,17,17,17,17,17,17,17,17,17,17,17,17,17,
17,17,17,17,17,17,17,17,17,17,17,17,17,17,17,17,
17,17,17,17,17,17,17,17,17,17,17,17,17,17,17,17,
17,17,17,17,17,17,17,17,17,17,17,17,17,17,17,17,
17,17,17,17,17,17,17,17,17,17,17,17,17,17,17,17,
17,17,17,17,17,17,17,17,17,17,17,17,17,17,17,17,
17,17,17,17,17,17,17,17,17,17,17,17,17,17,17,17,
17,17,17,17,17,17,17,17,17,17,17,17,17,17,17,17,
17,17,17,17,17,17,17,17,17,17,17,17,17,17,17,17
</chunk>
   <chunk x="32" y="48" width="16" height="16">
0,0,0,0,0,0,0,0,17,17,17,17,17,17,17,17,
0,0,0,0,0,0,0,0,17,17,17,17,17,17,17,17,
0,0,0,0,0,0,0,0,17,17,17,17,17,17,17,17,
0,0,0,0,0,0,0,0,17,17,17,17,17,17,17,17,
0,0,0,0,0,0,0,0,17,17,17,17,17,17,17,17,
0,0,0,0,0,0,0,0,17,17,17,17,17,17,17,17,
17,17,17,17,17,17,17,17,17,17,17,17,17,17,17,17,
17,17,17,17,17,17,17,17,17,17,17,17,17,17,17,17,
17,17,17,17,17,17,17,17,17,17,17,17,17,17,17,17,
17,17,17,17,17,17,17,17,17,17,17,17,17,17,17,17,
17,17,17,17,17,17,17,17,17,17,17,17,17,17,17,17,
17,17,17,17,17,17,17,17,17,17,17,17,17,17,17,17,
17,17,17,17,17,17,17,17,17,17,17,17,17,17,17,17,
17,17,17,17,17,17,17,17,17,17,17,17,17,17,17,17,
17,17,17,17,17,17,17,17,17,17,17,17,17,17,17,17,
17,17,17,17,17,17,17,17,17,17,17,17,17,17,17,17
</chunk>
   <chunk x="48" y="48" width="16" height="16">
17,17,17,17,17,17,17,17,17,17,17,17,17,17,17,17,
17,17,17,17,17,17,17,17,17,17,17,17,17,17,17,17,
17,17,17,17,17,17,17,17,17,17,17,17,17,17,17,17,
17,17,17,17,17,17,17,17,17,17,17,17,17,17,17,17,
17,17,17,17,17,17,17,17,17,17,17,17,17,17,17,17,
17,17,17,17,17,17,17,17,17,17,17,17,17,17,17,17,
17,17,17,17,17,17,17,17,17,17,17,17,17,17,17,17,
17,17,17,17,17,17,17,17,17,17,17,17,17,17,17,17,
17,17,17,17,17,17,17,17,17,17,17,17,17,17,17,17,
17,17,17,17,17,17,17,17,17,17,17,17,17,17,17,17,
17,17,17,17,17,17,17,17,17,17,17,17,17,17,17,17,
17,17,17,17,17,17,17,17,17,17,17,17,17,17,17,17,
17,17,17,17,17,17,17,17,17,17,17,17,17,17,17,17,
17,17,17,17,17,17,17,17,17,17,17,17,17,17,17,17,
17,17,17,17,17,17,17,17,17,17,17,17,17,17,17,17,
17,17,17,17,17,17,17,17,17,17,17,17,17,17,17,17
</chunk>
   <chunk x="64" y="48" width="16" height="16">
17,17,17,17,17,17,17,17,17,17,17,0,0,0,0,0,
17,17,17,17,17,17,17,17,17,17,17,0,0,0,0,0,
17,17,17,17,17,17,17,17,17,17,17,0,0,0,0,0,
17,17,17,17,17,17,17,17,17,17,17,0,0,0,0,0,
17,17,17,17,17,17,17,17,17,17,17,0,0,0,0,0,
17,17,17,17,17,17,17,17,17,17,17,0,0,0,0,0,
17,17,17,17,17,17,17,17,17,17,17,17,17,17,17,17,
17,17,17,17,17,17,17,17,17,17,17,17,17,17,17,17,
17,17,17,17,17,17,17,17,17,17,17,17,17,17,17,17,
17,17,17,17,17,17,17,17,17,17,17,17,17,17,17,17,
17,17,17,17,17,17,17,17,17,17,17,17,17,17,17,17,
17,17,17,17,17,17,17,17,17,17,17,17,17,17,17,17,
17,17,17,17,17,17,17,17,17,17,17,17,17,17,17,17,
17,17,17,17,17,17,17,17,17,17,17,17,17,17,17,17,
17,17,17,17,17,17,17,17,17,17,17,17,17,17,17,17,
17,17,17,17,17,17,17,17,17,17,17,17,17,17,17,17
</chunk>
   <chunk x="80" y="48" width="16" height="16">
0,0,0,0,0,0,0,0,0,0,0,0,0,0,0,0,
0,0,0,0,0,0,0,0,0,0,0,0,0,0,0,0,
0,0,0,0,0,0,0,0,0,0,0,0,0,0,0,0,
0,0,0,0,0,0,0,0,0,0,0,0,0,0,0,0,
0,0,0,0,0,0,0,0,0,0,0,0,0,0,0,0,
0,0,0,0,0,0,0,0,0,0,0,0,0,0,0,0,
17,17,17,17,17,17,17,17,17,17,17,17,17,17,17,17,
17,17,17,17,17,17,17,17,17,17,17,17,17,17,17,17,
17,17,17,17,17,17,17,17,17,17,17,17,17,17,17,17,
17,17,17,17,17,17,17,17,17,17,17,17,17,17,17,17,
17,17,17,17,17,17,17,17,17,17,17,17,17,17,17,17,
17,17,17,17,17,17,17,17,17,17,17,17,17,17,17,17,
17,17,17,17,17,17,17,17,17,17,17,17,17,17,17,17,
17,17,17,17,17,17,17,17,17,17,17,17,17,17,17,17,
17,17,17,17,17,17,17,17,17,17,17,17,17,17,17,17,
17,17,17,17,17,17,17,17,17,17,17,17,17,17,17,17
</chunk>
   <chunk x="96" y="48" width="16" height="16">
0,0,0,0,0,0,0,0,17,17,17,17,17,17,17,17,
0,0,0,0,0,0,0,0,17,17,17,17,17,17,17,17,
0,0,0,0,0,0,0,0,17,17,17,17,17,17,17,17,
0,0,0,0,0,0,0,0,17,17,17,17,17,17,17,17,
0,0,0,0,0,0,0,0,17,17,17,17,17,17,17,17,
0,0,0,0,0,0,0,0,17,17,17,17,17,17,17,17,
17,17,17,17,17,17,17,17,17,17,17,17,17,17,17,17,
17,17,17,17,17,17,17,17,17,17,17,17,17,17,17,17,
17,17,17,17,17,17,17,17,17,17,17,17,17,17,17,17,
17,17,17,17,17,17,17,17,17,17,17,17,17,17,17,17,
17,17,17,17,17,17,17,17,17,17,17,17,17,17,17,17,
17,17,17,17,17,17,17,17,17,17,17,17,17,17,17,17,
17,17,17,17,17,17,17,17,17,17,17,17,17,17,17,17,
17,17,17,17,17,17,17,17,17,17,17,17,17,17,17,17,
17,17,17,17,17,17,17,17,17,17,17,17,17,17,17,17,
17,17,17,17,17,17,17,17,17,17,17,17,17,17,17,17
</chunk>
   <chunk x="112" y="48" width="16" height="16">
17,17,17,17,17,17,17,0,0,0,0,0,0,0,0,0,
17,17,17,17,17,17,17,0,0,0,0,0,0,0,0,0,
17,17,17,17,17,17,17,0,0,0,0,0,0,0,0,0,
17,17,17,17,17,17,17,0,0,0,0,0,0,0,0,0,
17,17,17,17,17,17,17,0,0,0,0,0,0,0,0,0,
17,17,17,17,17,17,17,0,0,0,0,0,0,0,0,0,
17,17,17,17,17,17,17,0,0,0,0,0,0,0,0,0,
17,17,17,17,17,17,17,0,0,0,0,0,0,0,0,0,
17,17,17,17,17,17,17,0,0,0,0,0,0,0,0,0,
17,17,17,17,17,17,17,0,0,0,0,0,0,0,0,0,
17,17,17,17,17,17,17,0,0,0,0,0,0,0,0,0,
17,17,17,17,17,17,17,0,0,0,0,0,0,0,0,0,
17,17,17,17,17,17,17,0,0,0,0,0,0,0,0,0,
17,17,17,17,17,17,17,0,0,0,0,0,0,0,0,0,
17,17,17,17,17,17,17,0,0,0,0,0,0,0,0,0,
17,17,17,17,17,17,17,0,0,0,0,0,0,0,0,0
</chunk>
   <chunk x="128" y="48" width="16" height="16">
0,0,0,0,0,0,0,0,0,0,0,0,0,0,0,0,
0,0,0,0,0,0,0,0,0,0,0,0,0,0,0,0,
0,0,0,0,0,0,0,0,0,0,0,0,0,0,0,0,
0,0,0,0,0,0,0,0,0,0,0,0,0,0,0,0,
0,0,0,0,0,0,0,0,0,0,0,0,0,0,0,0,
0,0,0,0,0,0,0,0,0,0,0,0,0,0,0,0,
0,17,17,17,17,17,17,17,17,17,17,17,17,17,17,17,
0,17,17,17,17,17,17,17,17,17,17,17,17,17,17,17,
0,17,17,17,17,17,17,17,17,17,17,17,17,17,17,17,
0,17,17,17,17,17,17,17,17,17,17,17,17,17,17,17,
0,17,17,17,17,17,17,17,17,17,17,17,17,17,17,17,
0,17,17,17,17,17,17,17,17,17,17,17,17,17,17,17,
0,17,17,17,17,17,17,17,17,17,17,17,17,17,17,17,
0,17,17,17,17,17,17,17,17,17,17,17,17,17,17,17,
0,17,17,17,17,17,17,17,17,17,17,17,17,17,17,17,
0,17,17,17,17,17,17,17,17,17,17,17,17,17,17,17
</chunk>
   <chunk x="144" y="48" width="16" height="16">
0,0,0,0,0,0,0,0,0,0,0,0,0,0,0,0,
0,0,0,0,0,0,0,0,0,0,0,0,0,0,0,0,
0,0,0,0,0,0,0,0,0,0,0,0,0,0,0,0,
0,0,0,0,0,0,0,0,0,0,0,0,0,0,0,0,
0,0,0,0,0,0,0,0,0,0,0,0,0,0,0,0,
0,0,0,0,0,0,0,0,0,0,0,0,0,0,0,0,
17,17,17,17,17,17,17,17,17,17,17,17,17,17,17,17,
17,17,17,17,17,17,17,17,17,17,17,17,17,17,17,17,
17,17,17,17,17,17,17,17,17,17,17,17,17,17,17,17,
17,17,17,17,17,17,17,17,17,17,17,17,17,17,17,17,
17,17,17,17,17,17,17,17,17,17,17,17,17,17,17,17,
17,17,17,17,17,17,17,17,17,17,17,17,17,17,17,17,
17,17,17,17,17,17,17,17,17,17,17,17,17,17,17,17,
17,17,17,17,17,17,17,17,17,17,17,17,17,17,17,17,
17,17,17,17,17,17,17,17,17,17,17,17,17,17,17,17,
17,17,17,17,17,17,17,17,17,17,17,17,17,17,17,17
</chunk>
   <chunk x="160" y="48" width="16" height="16">
0,0,0,0,0,0,0,0,0,0,0,0,0,0,0,0,
0,0,0,0,0,0,0,0,0,0,0,0,0,0,0,0,
0,0,0,0,0,0,0,0,0,0,0,0,0,0,0,0,
0,0,0,0,0,0,0,0,0,0,0,0,0,0,0,0,
0,0,0,0,0,0,0,0,0,0,0,0,0,0,0,0,
0,0,0,0,0,0,0,0,0,0,0,0,0,0,0,0,
17,17,17,17,17,17,17,17,17,17,17,17,17,0,0,0,
17,17,17,17,17,17,17,17,17,17,17,17,17,0,0,0,
17,17,17,17,17,17,17,17,17,17,17,17,17,0,0,0,
17,17,17,17,17,17,17,17,17,17,17,17,17,0,0,0,
17,17,17,17,17,17,17,17,17,17,17,17,17,0,0,0,
17,17,17,17,17,17,17,17,17,17,17,17,17,0,0,0,
17,17,17,17,17,17,17,17,17,17,17,17,17,0,0,0,
17,17,17,17,17,17,17,17,17,17,17,17,17,0,0,0,
17,17,17,17,17,17,17,17,17,17,17,17,17,0,0,0,
17,17,17,17,17,17,17,17,17,17,17,17,17,0,0,0
</chunk>
   <chunk x="-32" y="64" width="16" height="16">
0,0,0,0,0,0,0,17,17,17,17,17,17,17,17,17,
0,0,0,0,0,0,0,0,0,0,0,0,0,0,0,0,
0,0,0,0,0,0,0,0,0,0,0,0,0,0,0,0,
0,0,0,0,0,0,0,0,0,0,0,0,0,0,0,0,
0,0,0,0,0,0,0,0,0,0,0,0,0,0,0,0,
0,0,0,0,0,0,0,0,0,0,0,0,0,0,0,0,
0,0,0,0,0,0,0,0,0,0,0,0,0,0,0,0,
0,0,0,0,0,0,0,0,0,0,0,0,0,0,0,0,
0,0,0,0,0,0,0,0,0,0,0,0,0,0,0,0,
0,0,0,0,0,0,0,0,0,0,0,0,0,0,0,0,
0,0,0,0,0,0,0,0,0,0,0,0,0,0,0,0,
0,0,0,0,0,0,0,0,0,0,0,0,0,0,0,0,
0,0,0,0,0,0,0,0,0,0,0,0,0,0,0,0,
0,0,0,0,0,0,0,0,0,0,0,0,0,0,0,0,
0,0,0,0,0,0,0,0,0,0,0,0,0,0,0,0,
0,0,0,0,0,0,0,0,0,0,0,0,0,0,0,0
</chunk>
   <chunk x="-16" y="64" width="16" height="16">
17,17,17,17,17,17,17,17,17,17,17,17,17,17,17,17,
0,0,0,0,0,0,0,0,0,0,0,0,0,0,0,0,
0,0,0,0,0,0,0,0,0,0,0,0,0,0,0,0,
0,0,0,0,0,0,0,0,0,0,0,0,0,0,0,0,
0,0,0,0,0,0,0,0,0,0,0,0,0,0,0,0,
0,0,0,0,0,0,0,0,0,0,0,0,0,0,0,0,
0,0,0,0,0,0,0,0,0,0,0,0,0,0,0,0,
0,0,0,0,0,0,0,0,0,0,0,0,0,0,0,0,
0,0,0,0,0,0,0,0,0,0,0,0,0,0,0,0,
0,0,0,0,0,0,0,0,0,0,0,0,0,0,0,0,
0,0,0,0,0,0,0,0,0,0,0,0,0,0,0,0,
0,0,0,0,0,0,0,0,0,0,0,0,0,0,0,0,
0,0,0,0,0,0,0,0,0,0,0,0,0,0,0,0,
0,0,0,0,0,0,0,0,0,0,0,0,0,0,0,0,
0,0,0,0,0,0,0,0,0,0,0,0,0,0,0,0,
0,0,0,0,0,0,0,0,0,0,0,0,0,0,0,0
</chunk>
   <chunk x="0" y="64" width="16" height="16">
17,17,17,17,17,17,17,17,17,17,17,17,17,17,17,17,
0,0,0,0,0,0,0,0,0,0,0,0,0,0,0,0,
0,0,0,0,0,0,0,0,0,0,0,0,0,0,0,0,
0,0,0,0,0,0,0,0,0,0,0,0,0,0,0,0,
0,0,0,0,0,0,0,0,0,0,0,0,0,0,0,0,
0,0,0,0,0,0,0,0,0,0,0,0,0,0,0,0,
0,0,0,0,0,0,0,0,0,0,0,0,0,0,0,0,
0,0,0,0,0,0,0,0,0,0,0,0,0,0,0,0,
0,0,0,0,0,0,0,0,0,0,0,0,0,0,0,0,
0,0,0,0,0,0,0,0,0,0,0,0,0,0,0,0,
0,0,0,0,0,0,0,0,0,0,0,0,0,0,0,0,
0,0,0,0,0,0,0,0,0,0,0,0,0,0,0,0,
0,0,0,0,0,0,0,0,0,0,0,0,0,0,0,0,
0,0,0,0,0,0,0,0,0,0,0,0,0,0,0,0,
0,0,0,0,0,0,0,0,0,0,0,0,0,0,0,0,
0,0,0,0,0,0,0,0,0,0,0,0,0,0,0,0
</chunk>
   <chunk x="16" y="64" width="16" height="16">
17,17,17,17,17,17,17,17,17,17,17,17,17,17,17,17,
0,0,0,0,0,0,0,0,0,0,0,0,0,0,0,0,
0,0,0,0,0,0,0,0,0,0,0,0,0,0,0,0,
0,0,0,0,0,0,0,0,0,0,0,0,0,0,0,0,
0,0,0,0,0,0,0,0,0,0,0,0,0,0,0,0,
0,0,0,0,0,0,0,0,0,0,0,0,0,0,0,0,
0,0,0,0,0,0,0,0,0,0,0,0,0,0,0,0,
0,0,0,0,0,0,0,0,0,0,0,0,0,0,0,0,
0,0,0,0,0,0,0,0,0,0,0,0,0,0,0,0,
0,0,0,0,0,0,0,0,0,0,0,0,0,0,0,0,
0,0,0,0,0,0,0,0,0,0,0,0,0,0,0,0,
0,0,0,0,0,0,0,0,0,0,0,0,0,0,0,0,
0,0,0,0,0,0,0,0,0,0,0,0,0,0,0,0,
0,0,0,0,0,0,0,0,0,0,0,0,0,0,0,0,
0,0,0,0,0,0,0,0,0,0,0,0,0,0,0,0,
0,0,0,0,0,0,0,0,0,0,0,0,0,0,0,0
</chunk>
   <chunk x="32" y="64" width="16" height="16">
17,17,17,17,17,17,17,17,17,17,17,17,17,17,17,17,
0,0,0,0,0,0,0,0,0,0,0,0,0,0,0,0,
0,0,0,0,0,0,0,0,0,0,0,0,0,0,0,0,
0,0,0,0,0,0,0,0,0,0,0,0,0,0,0,0,
0,0,0,0,0,0,0,0,0,0,0,0,0,0,0,0,
0,0,0,0,0,0,0,0,0,0,0,0,0,0,0,0,
0,0,0,0,0,0,0,0,0,0,0,0,0,0,0,0,
0,0,0,0,0,0,0,0,0,0,0,0,0,0,0,0,
0,0,0,0,0,0,0,0,0,0,0,0,0,0,0,0,
0,0,0,0,0,0,0,0,0,0,0,0,0,0,0,0,
0,0,0,0,0,0,0,0,0,0,0,0,0,0,0,0,
0,0,0,0,0,0,0,0,0,0,0,0,0,0,0,0,
0,0,0,0,0,0,0,0,0,0,0,0,0,0,0,0,
0,0,0,0,0,0,0,0,0,0,0,0,0,0,0,0,
0,0,0,0,0,0,0,0,0,0,0,0,0,0,0,0,
0,0,0,0,0,0,0,0,0,0,0,0,0,0,0,0
</chunk>
   <chunk x="48" y="64" width="16" height="16">
17,17,17,17,17,17,17,17,17,17,17,17,17,17,17,17,
0,0,0,0,0,0,0,0,0,0,0,0,0,0,0,0,
0,0,0,0,0,0,0,0,0,0,0,0,0,0,0,0,
0,0,0,0,0,0,0,0,0,0,0,0,0,0,0,0,
0,0,0,0,0,0,0,0,0,0,0,0,0,0,0,0,
0,0,0,0,0,0,0,0,0,0,0,0,0,0,0,0,
0,0,0,0,0,0,0,0,0,0,0,0,0,0,0,0,
0,0,0,0,0,0,0,0,0,0,0,0,0,0,0,0,
0,0,0,0,0,0,0,0,0,0,0,0,0,0,0,0,
0,0,0,0,0,0,0,0,0,0,0,0,0,0,0,0,
0,0,0,0,0,0,0,0,0,0,0,0,0,0,0,0,
0,0,0,0,0,0,0,0,0,0,0,0,0,0,0,0,
0,0,0,0,0,0,0,0,0,0,0,0,0,0,0,0,
0,0,0,0,0,0,0,0,0,0,0,0,0,0,0,0,
0,0,0,0,0,0,0,0,0,0,0,0,0,0,0,0,
0,0,0,0,0,0,0,0,0,0,0,0,0,0,0,0
</chunk>
   <chunk x="64" y="64" width="16" height="16">
17,17,17,17,17,17,17,17,17,17,17,17,17,17,17,17,
0,0,0,0,0,0,0,0,0,0,0,0,0,0,0,0,
0,0,0,0,0,0,0,0,0,0,0,0,0,0,0,0,
0,0,0,0,0,0,0,0,0,0,0,0,0,0,0,0,
0,0,0,0,0,0,0,0,0,0,0,0,0,0,0,0,
0,0,0,0,0,0,0,0,0,0,0,0,0,0,0,0,
0,0,0,0,0,0,0,0,0,0,0,0,0,0,0,0,
0,0,0,0,0,0,0,0,0,0,0,0,0,0,0,0,
0,0,0,0,0,0,0,0,0,0,0,0,0,0,0,0,
0,0,0,0,0,0,0,0,0,0,0,0,0,0,0,0,
0,0,0,0,0,0,0,0,0,0,0,0,0,0,0,0,
0,0,0,0,0,0,0,0,0,0,0,0,0,0,0,0,
0,0,0,0,0,0,0,0,0,0,0,0,0,0,0,0,
0,0,0,0,0,0,0,0,0,0,0,0,0,0,0,0,
0,0,0,0,0,0,0,0,0,0,0,0,0,0,0,0,
0,0,0,0,0,0,0,0,0,0,0,0,0,0,0,0
</chunk>
   <chunk x="80" y="64" width="16" height="16">
17,17,17,17,17,17,17,17,17,17,17,17,17,17,17,17,
0,0,0,0,0,0,0,0,0,0,0,0,0,0,0,0,
0,0,0,0,0,0,0,0,0,0,0,0,0,0,0,0,
0,0,0,0,0,0,0,0,0,0,0,0,0,0,0,0,
0,0,0,0,0,0,0,0,0,0,0,0,0,0,0,0,
0,0,0,0,0,0,0,0,0,0,0,0,0,0,0,0,
0,0,0,0,0,0,0,0,0,0,0,0,0,0,0,0,
0,0,0,0,0,0,0,0,0,0,0,0,0,0,0,0,
0,0,0,0,0,0,0,0,0,0,0,0,0,0,0,0,
0,0,0,0,0,0,0,0,0,0,0,0,0,0,0,0,
0,0,0,0,0,0,0,0,0,0,0,0,0,0,0,0,
0,0,0,0,0,0,0,0,0,0,0,0,0,0,0,0,
0,0,0,0,0,0,0,0,0,0,0,0,0,0,0,0,
0,0,0,0,0,0,0,0,0,0,0,0,0,0,0,0,
0,0,0,0,0,0,0,0,0,0,0,0,0,0,0,0,
0,0,0,0,0,0,0,0,0,0,0,0,0,0,0,0
</chunk>
   <chunk x="96" y="64" width="16" height="16">
17,17,17,17,17,17,17,17,17,17,17,17,17,17,17,17,
0,0,0,0,0,0,0,0,0,0,0,0,0,0,0,0,
0,0,0,0,0,0,0,0,0,0,0,0,0,0,0,0,
0,0,0,0,0,0,0,0,0,0,0,0,0,0,0,0,
0,0,0,0,0,0,0,0,0,0,0,0,0,0,0,0,
0,0,0,0,0,0,0,0,0,0,0,0,0,0,0,0,
0,0,0,0,0,0,0,0,0,0,0,0,0,0,0,0,
0,0,0,0,0,0,0,0,0,0,0,0,0,0,0,0,
0,0,0,0,0,0,0,0,0,0,0,0,0,0,0,0,
0,0,0,0,0,0,0,0,0,0,0,0,0,0,0,0,
0,0,0,0,0,0,0,0,0,0,0,0,0,0,0,0,
0,0,0,0,0,0,0,0,0,0,0,0,0,0,0,0,
0,0,0,0,0,0,0,0,0,0,0,0,0,0,0,0,
0,0,0,0,0,0,0,0,0,0,0,0,0,0,0,0,
0,0,0,0,0,0,0,0,0,0,0,0,0,0,0,0,
0,0,0,0,0,0,0,0,0,0,0,0,0,0,0,0
</chunk>
   <chunk x="112" y="64" width="16" height="16">
17,17,17,17,17,17,17,0,0,0,0,0,0,0,0,0,
0,0,0,0,0,0,0,0,0,0,0,0,0,0,0,0,
0,0,0,0,0,0,0,0,0,0,0,0,0,0,0,0,
0,0,0,0,0,0,0,0,0,0,0,0,0,0,0,0,
0,0,0,0,0,0,0,0,0,0,0,0,0,0,0,0,
0,0,0,0,0,0,0,0,0,0,0,0,0,0,0,0,
0,0,0,0,0,0,0,0,0,0,0,0,0,0,0,0,
0,0,0,0,0,0,0,0,0,0,0,0,0,0,0,0,
0,0,0,0,0,0,0,0,0,0,0,0,0,0,0,0,
0,0,0,0,0,0,0,0,0,0,0,0,0,0,0,0,
0,0,0,0,0,0,0,0,0,0,0,0,0,0,0,0,
0,0,0,0,0,0,0,0,0,0,0,0,0,0,0,0,
0,0,0,0,0,0,0,0,0,0,0,0,0,0,0,0,
0,0,0,0,0,0,0,0,0,0,0,0,0,0,0,0,
0,0,0,0,0,0,0,0,0,0,0,0,0,0,0,0,
0,0,0,0,0,0,0,0,0,0,0,0,0,0,0,0
</chunk>
   <chunk x="128" y="64" width="16" height="16">
0,17,17,17,17,17,17,17,17,17,17,17,17,17,17,17,
0,0,0,0,0,0,0,0,0,0,0,0,0,0,0,0,
0,0,0,0,0,0,0,0,0,0,0,0,0,0,0,0,
0,0,0,0,0,0,0,0,0,0,0,0,0,0,0,0,
0,0,0,0,0,0,0,0,0,0,0,0,0,0,0,0,
0,0,0,0,0,0,0,0,0,0,0,0,0,0,0,0,
0,0,0,0,0,0,0,0,0,0,0,0,0,0,0,0,
0,0,0,0,0,0,0,0,0,0,0,0,0,0,0,0,
0,0,0,0,0,0,0,0,0,0,0,0,0,0,0,0,
0,0,0,0,0,0,0,0,0,0,0,0,0,0,0,0,
0,0,0,0,0,0,0,0,0,0,0,0,0,0,0,0,
0,0,0,0,0,0,0,0,0,0,0,0,0,0,0,0,
0,0,0,0,0,0,0,0,0,0,0,0,0,0,0,0,
0,0,0,0,0,0,0,0,0,0,0,0,0,0,0,0,
0,0,0,0,0,0,0,0,0,0,0,0,0,0,0,0,
0,0,0,0,0,0,0,0,0,0,0,0,0,0,0,0
</chunk>
   <chunk x="144" y="64" width="16" height="16">
17,17,17,17,17,17,17,17,17,17,17,17,17,17,17,17,
0,0,0,0,0,0,0,0,0,0,0,0,0,0,0,0,
0,0,0,0,0,0,0,0,0,0,0,0,0,0,0,0,
0,0,0,0,0,0,0,0,0,0,0,0,0,0,0,0,
0,0,0,0,0,0,0,0,0,0,0,0,0,0,0,0,
0,0,0,0,0,0,0,0,0,0,0,0,0,0,0,0,
0,0,0,0,0,0,0,0,0,0,0,0,0,0,0,0,
0,0,0,0,0,0,0,0,0,0,0,0,0,0,0,0,
0,0,0,0,0,0,0,0,0,0,0,0,0,0,0,0,
0,0,0,0,0,0,0,0,0,0,0,0,0,0,0,0,
0,0,0,0,0,0,0,0,0,0,0,0,0,0,0,0,
0,0,0,0,0,0,0,0,0,0,0,0,0,0,0,0,
0,0,0,0,0,0,0,0,0,0,0,0,0,0,0,0,
0,0,0,0,0,0,0,0,0,0,0,0,0,0,0,0,
0,0,0,0,0,0,0,0,0,0,0,0,0,0,0,0,
0,0,0,0,0,0,0,0,0,0,0,0,0,0,0,0
</chunk>
   <chunk x="160" y="64" width="16" height="16">
17,17,17,17,17,17,17,17,17,17,17,17,17,0,0,0,
0,0,0,0,0,0,0,0,0,0,0,0,0,0,0,0,
0,0,0,0,0,0,0,0,0,0,0,0,0,0,0,0,
0,0,0,0,0,0,0,0,0,0,0,0,0,0,0,0,
0,0,0,0,0,0,0,0,0,0,0,0,0,0,0,0,
0,0,0,0,0,0,0,0,0,0,0,0,0,0,0,0,
0,0,0,0,0,0,0,0,0,0,0,0,0,0,0,0,
0,0,0,0,0,0,0,0,0,0,0,0,0,0,0,0,
0,0,0,0,0,0,0,0,0,0,0,0,0,0,0,0,
0,0,0,0,0,0,0,0,0,0,0,0,0,0,0,0,
0,0,0,0,0,0,0,0,0,0,0,0,0,0,0,0,
0,0,0,0,0,0,0,0,0,0,0,0,0,0,0,0,
0,0,0,0,0,0,0,0,0,0,0,0,0,0,0,0,
0,0,0,0,0,0,0,0,0,0,0,0,0,0,0,0,
0,0,0,0,0,0,0,0,0,0,0,0,0,0,0,0,
0,0,0,0,0,0,0,0,0,0,0,0,0,0,0,0
</chunk>
  </data>
 </layer>
 <layer id="5" name="The grottoBlockout" width="30" height="20" visible="0">
  <data encoding="csv">
   <chunk x="160" y="-112" width="16" height="16">
0,0,0,0,0,0,0,0,0,0,0,0,0,0,0,0,
0,0,0,0,0,0,0,0,0,0,0,0,0,0,0,0,
0,0,0,0,0,0,0,0,0,0,0,0,0,0,0,0,
0,0,0,0,0,0,0,0,0,0,0,0,0,0,0,0,
0,0,0,0,0,0,0,0,0,0,0,0,0,0,0,0,
0,0,0,0,0,0,0,0,0,0,0,0,0,0,0,0,
0,0,0,0,0,0,0,0,0,0,0,0,0,0,0,0,
0,0,0,0,0,0,0,0,0,0,0,0,0,0,0,0,
0,0,0,0,0,0,0,0,0,0,0,0,0,0,0,0,
0,0,0,0,0,0,0,0,0,0,17,17,17,17,17,17,
0,0,0,0,0,0,0,0,0,0,17,17,17,17,17,17,
0,0,0,0,0,0,0,0,0,0,17,17,17,17,17,17,
0,0,0,0,0,0,0,0,0,0,17,17,17,17,17,17,
0,0,0,0,0,0,0,0,0,0,17,17,17,17,17,17,
0,0,0,0,0,0,0,0,0,0,17,17,17,17,17,17,
0,0,0,0,0,0,0,0,0,0,17,17,17,17,17,17
</chunk>
   <chunk x="176" y="-112" width="16" height="16">
0,0,0,0,0,0,0,0,0,0,0,0,0,0,0,0,
0,0,0,0,0,0,0,0,0,0,0,0,0,0,0,0,
0,0,0,0,0,0,0,0,0,0,0,0,0,0,0,0,
0,0,0,0,0,0,0,0,0,0,0,0,0,0,0,0,
0,0,0,0,0,0,0,0,0,0,0,0,0,0,0,0,
0,0,0,0,0,0,0,0,0,0,0,0,0,0,0,0,
0,0,0,0,0,0,0,0,0,0,0,0,0,0,0,0,
0,0,0,0,0,0,0,0,0,0,0,0,0,0,0,0,
0,0,0,0,0,0,0,0,0,0,0,0,0,0,0,0,
17,17,17,17,17,17,17,17,17,17,17,17,17,17,17,17,
17,17,17,17,17,17,17,17,17,17,17,17,17,17,17,17,
17,17,17,17,17,17,17,17,17,17,17,17,17,17,17,17,
17,17,17,17,17,17,17,17,17,17,17,17,17,17,17,17,
17,17,17,17,17,17,17,17,17,17,17,17,17,17,17,17,
17,17,17,17,17,17,17,17,17,17,17,17,17,17,17,17,
17,17,17,17,17,17,17,17,17,17,17,17,17,17,17,17
</chunk>
   <chunk x="192" y="-112" width="16" height="16">
0,0,0,0,0,0,0,0,0,0,0,0,0,0,0,0,
0,0,0,0,0,0,0,0,0,0,0,0,0,0,0,0,
0,0,0,0,0,0,0,0,0,0,0,0,0,0,0,0,
0,0,0,0,0,0,0,0,0,0,0,0,0,0,0,0,
0,0,0,0,0,0,0,0,0,0,0,0,0,0,0,0,
0,0,0,0,0,0,0,0,0,0,0,0,0,0,0,0,
0,0,0,0,0,0,0,0,0,0,0,0,0,0,0,0,
0,0,0,0,0,0,0,0,0,0,0,0,0,0,0,0,
0,0,0,0,0,0,0,0,0,0,0,0,0,0,0,0,
17,17,17,17,17,17,17,17,17,17,17,17,17,17,17,17,
17,17,17,17,17,17,17,17,17,17,17,17,17,17,17,17,
17,17,17,17,17,17,17,17,17,17,17,17,17,17,17,17,
17,17,17,17,17,17,17,17,17,17,17,17,17,17,17,17,
17,17,17,17,17,17,17,17,17,17,17,17,17,17,17,17,
17,17,17,17,17,17,17,17,17,17,17,17,17,17,17,17,
17,17,17,17,17,17,17,17,17,17,17,17,17,17,17,17
</chunk>
   <chunk x="208" y="-112" width="16" height="16">
0,0,0,0,0,0,0,0,0,0,0,0,0,0,0,0,
0,0,0,0,0,0,0,0,0,0,0,0,0,0,0,0,
0,0,0,0,0,0,0,0,0,0,0,0,0,0,0,0,
0,0,0,0,0,0,0,0,0,0,0,0,0,0,0,0,
0,0,0,0,0,0,0,0,0,0,0,0,0,0,0,0,
0,0,0,0,0,0,0,0,0,0,0,0,0,0,0,0,
0,0,0,0,0,0,0,0,0,0,0,0,0,0,0,0,
0,0,0,0,0,0,0,0,0,0,0,0,0,0,0,0,
0,0,0,0,0,0,0,0,0,0,0,0,0,0,0,0,
17,17,17,17,17,17,17,17,17,17,17,17,17,17,17,17,
17,17,17,17,17,17,17,17,17,17,17,17,17,17,17,17,
17,17,17,17,17,17,17,17,17,17,17,17,17,17,17,17,
17,17,17,17,17,17,17,17,17,17,17,17,17,17,17,17,
17,17,17,17,17,17,17,17,17,17,17,17,17,17,17,17,
17,17,17,17,17,17,17,17,17,17,17,17,17,17,17,17,
17,17,17,17,17,17,17,17,17,17,17,17,17,17,17,17
</chunk>
   <chunk x="224" y="-112" width="16" height="16">
0,0,0,0,0,0,0,0,0,0,0,0,0,0,0,0,
0,0,0,0,0,0,0,0,0,0,0,0,0,0,0,0,
0,0,0,0,0,0,0,0,0,0,0,0,0,0,0,0,
0,0,0,0,0,0,0,0,0,0,0,0,0,0,0,0,
0,0,0,0,0,0,0,0,0,0,0,0,0,0,0,0,
0,0,0,0,0,0,0,0,0,0,0,0,0,0,0,0,
0,0,0,0,0,0,0,0,0,0,0,0,0,0,0,0,
0,0,0,0,0,0,0,0,0,0,0,0,0,0,0,0,
0,0,0,0,0,0,0,0,0,0,0,0,0,0,0,0,
17,17,17,17,17,17,17,17,17,17,17,17,17,17,17,17,
17,17,17,17,17,17,17,17,17,17,17,17,17,17,17,17,
17,17,17,17,17,17,17,17,17,17,17,17,17,17,17,17,
17,17,17,17,17,17,17,17,17,17,17,17,17,17,17,17,
17,17,17,17,17,17,17,17,17,17,17,17,17,17,17,17,
17,17,17,17,17,17,17,17,17,17,17,17,17,17,17,17,
17,17,17,17,17,17,17,17,17,17,17,17,17,17,17,17
</chunk>
   <chunk x="240" y="-112" width="16" height="16">
0,0,0,0,0,0,0,0,0,0,0,0,0,0,0,0,
0,0,0,0,0,0,0,0,0,0,0,0,0,0,0,0,
0,0,0,0,0,0,0,0,0,0,0,0,0,0,0,0,
0,0,0,0,0,0,0,0,0,0,0,0,0,0,0,0,
0,0,0,0,0,0,0,0,0,0,0,0,0,0,0,0,
0,0,0,0,0,0,0,0,0,0,0,0,0,0,0,0,
0,0,0,0,0,0,0,0,0,0,0,0,0,0,0,0,
0,0,0,0,0,0,0,0,0,0,0,0,0,0,0,0,
0,0,0,0,0,0,0,0,0,0,0,0,0,0,0,0,
17,17,17,17,17,17,17,17,17,17,17,17,17,17,17,17,
17,17,17,17,17,17,17,17,17,17,17,17,17,17,17,17,
17,17,17,17,17,17,17,17,17,17,17,17,17,17,17,17,
17,17,17,17,17,17,17,17,17,17,17,17,17,17,17,17,
17,17,17,17,17,17,17,17,17,17,17,17,17,17,17,17,
17,17,17,17,17,17,17,17,17,17,17,17,17,17,17,17,
17,17,17,17,17,17,17,17,17,17,17,17,17,17,17,17
</chunk>
   <chunk x="256" y="-112" width="16" height="16">
0,0,0,0,0,0,0,0,0,0,0,0,0,0,0,0,
0,0,0,0,0,0,0,0,0,0,0,0,0,0,0,0,
0,0,0,0,0,0,0,0,0,0,0,0,0,0,0,0,
0,0,0,0,0,0,0,0,0,0,0,0,0,0,0,0,
0,0,0,0,0,0,0,0,0,0,0,0,0,0,0,0,
0,0,0,0,0,0,0,0,0,0,0,0,0,0,0,0,
0,0,0,0,0,0,0,0,0,0,0,0,0,0,0,0,
0,0,0,0,0,0,0,0,0,0,0,0,0,0,0,0,
0,0,0,0,0,0,0,0,0,0,0,0,0,0,0,0,
17,17,17,17,17,17,17,17,17,17,17,17,17,17,17,17,
17,17,17,17,17,17,17,17,17,17,17,17,17,17,17,17,
17,17,17,17,17,17,17,17,17,17,17,17,17,17,17,17,
17,17,17,17,17,17,17,17,17,17,17,17,17,17,17,17,
17,17,17,17,17,17,17,17,17,17,17,17,17,17,17,17,
17,17,17,17,17,17,17,17,17,17,17,17,17,17,17,17,
17,17,17,17,17,17,17,17,17,17,17,17,17,17,17,17
</chunk>
   <chunk x="272" y="-112" width="16" height="16">
0,0,0,0,0,0,0,0,0,0,0,0,0,0,0,0,
0,0,0,0,0,0,0,0,0,0,0,0,0,0,0,0,
0,0,0,0,0,0,0,0,0,0,0,0,0,0,0,0,
0,0,0,0,0,0,0,0,0,0,0,0,0,0,0,0,
0,0,0,0,0,0,0,0,0,0,0,0,0,0,0,0,
0,0,0,0,0,0,0,0,0,0,0,0,0,0,0,0,
0,0,0,0,0,0,0,0,0,0,0,0,0,0,0,0,
0,0,0,0,0,0,0,0,0,0,0,0,0,0,0,0,
0,0,0,0,0,0,0,0,0,0,0,0,0,0,0,0,
17,17,17,17,17,17,17,17,17,17,17,17,17,17,17,17,
17,17,17,17,17,17,17,17,17,17,17,17,17,17,17,17,
17,17,17,17,17,17,17,17,17,17,17,17,17,17,17,17,
17,17,17,17,17,17,17,17,17,17,17,17,17,17,17,17,
17,17,17,17,17,17,17,17,17,17,17,17,17,17,17,17,
17,17,17,17,17,17,17,17,17,17,17,17,17,17,17,17,
17,17,17,17,17,17,17,17,17,17,17,17,17,17,17,17
</chunk>
   <chunk x="288" y="-112" width="16" height="16">
0,0,0,0,0,0,0,0,0,0,0,0,0,0,0,0,
0,0,0,0,0,0,0,0,0,0,0,0,0,0,0,0,
0,0,0,0,0,0,0,0,0,0,0,0,0,0,0,0,
0,0,0,0,0,0,0,0,0,0,0,0,0,0,0,0,
0,0,0,0,0,0,0,0,0,0,0,0,0,0,0,0,
0,0,0,0,0,0,0,0,0,0,0,0,0,0,0,0,
0,0,0,0,0,0,0,0,0,0,0,0,0,0,0,0,
0,0,0,0,0,0,0,0,0,0,0,0,0,0,0,0,
0,0,0,0,0,0,0,0,0,0,0,0,0,0,0,0,
17,17,17,17,17,17,17,17,17,17,17,17,17,17,17,17,
17,17,17,17,17,17,17,17,17,17,17,17,17,17,17,17,
17,17,17,17,17,17,17,17,17,17,17,17,17,17,17,17,
17,17,17,17,17,17,17,17,17,17,17,17,17,17,17,17,
17,17,17,17,17,17,17,17,17,17,17,17,17,17,17,17,
17,17,17,17,17,17,17,17,17,17,17,17,17,17,17,17,
17,17,17,17,17,17,17,17,17,17,17,17,17,17,17,17
</chunk>
   <chunk x="304" y="-112" width="16" height="16">
0,0,0,0,0,0,0,0,0,0,0,0,0,0,0,0,
0,0,0,0,0,0,0,0,0,0,0,0,0,0,0,0,
0,0,0,0,0,0,0,0,0,0,0,0,0,0,0,0,
0,0,0,0,0,0,0,0,0,0,0,0,0,0,0,0,
0,0,0,0,0,0,0,0,0,0,0,0,0,0,0,0,
0,0,0,0,0,0,0,0,0,0,0,0,0,0,0,0,
0,0,0,0,0,0,0,0,0,0,0,0,0,0,0,0,
0,0,0,0,0,0,0,0,0,0,0,0,0,0,0,0,
0,0,0,0,0,0,0,0,0,0,0,0,0,0,0,0,
17,17,17,17,17,17,17,17,17,17,17,17,17,17,17,17,
17,17,17,17,17,17,17,17,17,17,17,17,17,17,17,17,
17,17,17,17,17,17,17,17,17,17,17,17,17,17,17,17,
17,17,17,17,17,17,17,17,17,17,17,17,17,17,17,17,
17,17,17,17,17,17,17,17,17,17,17,17,17,17,17,17,
17,17,17,17,17,17,17,17,17,17,17,17,17,17,17,17,
17,17,17,17,17,17,17,17,17,17,17,17,17,17,17,17
</chunk>
   <chunk x="320" y="-112" width="16" height="16">
0,0,0,0,0,0,0,0,0,0,0,0,0,0,0,0,
0,0,0,0,0,0,0,0,0,0,0,0,0,0,0,0,
0,0,0,0,0,0,0,0,0,0,0,0,0,0,0,0,
0,0,0,0,0,0,0,0,0,0,0,0,0,0,0,0,
0,0,0,0,0,0,0,0,0,0,0,0,0,0,0,0,
0,0,0,0,0,0,0,0,0,0,0,0,0,0,0,0,
0,0,0,0,0,0,0,0,0,0,0,0,0,0,0,0,
0,0,0,0,0,0,0,0,0,0,0,0,0,0,0,0,
0,0,0,0,0,0,0,0,0,0,0,0,0,0,0,0,
17,17,17,17,17,17,17,17,17,17,17,17,17,17,17,17,
17,17,17,17,17,17,17,17,17,17,17,17,17,17,17,17,
17,17,17,17,17,17,17,17,17,17,17,17,17,17,17,17,
17,17,17,17,17,17,17,17,17,17,17,17,17,17,17,17,
17,17,17,17,17,17,17,17,17,17,17,17,17,17,17,17,
17,17,17,17,17,17,17,17,17,17,17,17,17,17,17,17,
17,17,17,17,17,17,17,17,17,17,17,17,17,17,17,17
</chunk>
   <chunk x="336" y="-112" width="16" height="16">
0,0,0,0,0,0,0,0,0,0,0,0,0,0,0,0,
0,0,0,0,0,0,0,0,0,0,0,0,0,0,0,0,
0,0,0,0,0,0,0,0,0,0,0,0,0,0,0,0,
0,0,0,0,0,0,0,0,0,0,0,0,0,0,0,0,
0,0,0,0,0,0,0,0,0,0,0,0,0,0,0,0,
0,0,0,0,0,0,0,0,0,0,0,0,0,0,0,0,
0,0,0,0,0,0,0,0,0,0,0,0,0,0,0,0,
0,0,0,0,0,0,0,0,0,0,0,0,0,0,0,0,
0,0,0,0,0,0,0,0,0,0,0,0,0,0,0,0,
17,17,17,17,17,17,17,17,17,17,17,17,17,17,17,17,
17,17,17,17,17,17,17,17,17,17,17,17,17,17,17,17,
17,17,17,17,17,17,17,17,17,17,17,17,17,17,17,17,
17,17,17,17,17,17,17,17,17,17,17,17,17,17,17,17,
17,17,17,17,17,17,17,17,17,17,17,17,17,17,17,17,
17,17,17,17,17,17,17,17,17,17,17,17,17,17,17,17,
17,17,17,17,17,17,17,17,17,17,17,17,17,17,17,17
</chunk>
   <chunk x="352" y="-112" width="16" height="16">
0,0,0,0,0,0,0,0,0,0,0,0,0,0,0,0,
0,0,0,0,0,0,0,0,0,0,0,0,0,0,0,0,
0,0,0,0,0,0,0,0,0,0,0,0,0,0,0,0,
0,0,0,0,0,0,0,0,0,0,0,0,0,0,0,0,
0,0,0,0,0,0,0,0,0,0,0,0,0,0,0,0,
0,0,0,0,0,0,0,0,0,0,0,0,0,0,0,0,
0,0,0,0,0,0,0,0,0,0,0,0,0,0,0,0,
0,0,0,0,0,0,0,0,0,0,0,0,0,0,0,0,
0,0,0,0,0,0,0,0,0,0,0,0,0,0,0,0,
17,17,17,17,17,17,17,17,17,17,17,17,17,17,17,17,
17,17,17,17,17,17,17,17,17,17,17,17,17,17,17,17,
17,17,17,17,17,17,17,17,17,17,17,17,17,17,17,17,
17,17,17,17,17,17,17,17,17,17,17,17,17,17,17,17,
17,17,17,17,17,17,17,17,17,17,17,17,17,17,17,17,
17,17,17,17,17,17,17,17,17,17,17,17,17,17,17,17,
17,17,17,17,17,17,17,17,17,17,17,17,17,17,17,17
</chunk>
   <chunk x="368" y="-112" width="16" height="16">
0,0,0,0,0,0,0,0,0,0,0,0,0,0,0,0,
0,0,0,0,0,0,0,0,0,0,0,0,0,0,0,0,
0,0,0,0,0,0,0,0,0,0,0,0,0,0,0,0,
0,0,0,0,0,0,0,0,0,0,0,0,0,0,0,0,
0,0,0,0,0,0,0,0,0,0,0,0,0,0,0,0,
0,0,0,0,0,0,0,0,0,0,0,0,0,0,0,0,
0,0,0,0,0,0,0,0,0,0,0,0,0,0,0,0,
0,0,0,0,0,0,0,0,0,0,0,0,0,0,0,0,
0,0,0,0,0,0,0,0,0,0,0,0,0,0,0,0,
17,17,17,17,17,17,17,17,17,17,17,17,17,17,17,17,
17,17,17,17,17,17,17,17,17,17,17,17,17,17,17,17,
17,17,17,17,17,17,17,17,17,17,17,17,17,17,17,17,
17,17,17,17,17,17,17,17,17,17,17,17,17,17,17,17,
17,17,17,17,17,17,17,17,17,17,17,17,17,17,17,17,
17,17,17,17,17,17,17,17,17,17,17,17,17,17,17,17,
17,17,17,17,17,17,17,17,17,17,17,17,17,17,17,17
</chunk>
   <chunk x="384" y="-112" width="16" height="16">
0,0,0,0,0,0,0,0,0,0,0,0,0,0,0,0,
0,0,0,0,0,0,0,0,0,0,0,0,0,0,0,0,
0,0,0,0,0,0,0,0,0,0,0,0,0,0,0,0,
0,0,0,0,0,0,0,0,0,0,0,0,0,0,0,0,
0,0,0,0,0,0,0,0,0,0,0,0,0,0,0,0,
0,0,0,0,0,0,0,0,0,0,0,0,0,0,0,0,
0,0,0,0,0,0,0,0,0,0,0,0,0,0,0,0,
0,0,0,0,0,0,0,0,0,0,0,0,0,0,0,0,
0,0,0,0,0,0,0,0,0,0,0,0,0,0,0,0,
17,17,17,17,17,17,17,17,17,17,17,17,17,17,17,17,
17,17,17,17,17,17,17,17,17,17,17,17,17,17,17,17,
17,17,17,17,17,17,17,17,17,17,17,17,17,17,17,17,
17,17,17,17,17,17,17,17,17,17,17,17,17,17,17,17,
17,17,17,17,17,17,17,17,17,17,17,17,17,17,17,17,
17,17,17,17,17,17,17,17,17,17,17,17,17,17,17,17,
17,17,17,17,17,17,17,17,17,17,17,17,17,17,17,17
</chunk>
   <chunk x="400" y="-112" width="16" height="16">
0,0,0,0,0,0,0,0,0,0,0,0,0,0,0,0,
0,0,0,0,0,0,0,0,0,0,0,0,0,0,0,0,
0,0,0,0,0,0,0,0,0,0,0,0,0,0,0,0,
0,0,0,0,0,0,0,0,0,0,0,0,0,0,0,0,
0,0,0,0,0,0,0,0,0,0,0,0,0,0,0,0,
0,0,0,0,0,0,0,0,0,0,0,0,0,0,0,0,
0,0,0,0,0,0,0,0,0,0,0,0,0,0,0,0,
0,0,0,0,0,0,0,0,0,0,0,0,0,0,0,0,
0,0,0,0,0,0,0,0,0,0,0,0,0,0,0,0,
17,17,17,17,17,17,17,17,17,17,17,17,17,17,17,17,
17,17,17,17,17,17,17,17,17,17,17,17,17,17,17,17,
17,17,17,17,17,17,17,17,17,17,17,17,17,17,17,17,
17,17,17,17,17,17,17,17,17,17,17,17,17,17,17,17,
17,17,17,17,17,17,17,17,17,17,17,17,17,17,17,17,
17,17,17,17,17,17,17,17,17,17,17,17,17,17,17,17,
17,17,17,17,17,17,17,17,17,17,17,17,17,17,17,17
</chunk>
   <chunk x="416" y="-112" width="16" height="16">
0,0,0,0,0,0,0,0,0,0,0,0,0,0,0,0,
0,0,0,0,0,0,0,0,0,0,0,0,0,0,0,0,
0,0,0,0,0,0,0,0,0,0,0,0,0,0,0,0,
0,0,0,0,0,0,0,0,0,0,0,0,0,0,0,0,
0,0,0,0,0,0,0,0,0,0,0,0,0,0,0,0,
0,0,0,0,0,0,0,0,0,0,0,0,0,0,0,0,
0,0,0,0,0,0,0,0,0,0,0,0,0,0,0,0,
0,0,0,0,0,0,0,0,0,0,0,0,0,0,0,0,
0,0,0,0,0,0,0,0,0,0,0,0,0,0,0,0,
17,17,17,17,17,17,17,17,17,17,17,17,17,17,17,17,
17,17,17,17,17,17,17,17,17,17,17,17,17,17,17,17,
17,17,17,17,17,17,17,17,17,17,17,17,17,17,17,17,
17,17,17,17,17,17,17,17,17,17,17,17,17,17,17,17,
17,17,17,17,17,17,17,17,17,17,17,17,17,17,17,17,
17,17,17,17,17,17,17,17,17,17,17,17,17,17,17,17,
17,17,17,17,17,17,17,17,17,17,17,17,17,17,17,17
</chunk>
   <chunk x="160" y="-96" width="16" height="16">
0,0,0,0,0,0,0,0,0,0,17,17,17,17,17,17,
0,0,0,0,0,0,0,0,0,0,17,17,17,17,17,17,
0,0,0,0,0,0,0,0,0,0,17,17,17,17,17,17,
0,0,0,0,0,0,0,0,0,0,17,17,17,17,17,17,
0,0,0,0,0,0,0,0,0,0,17,17,17,17,17,17,
0,0,0,0,0,0,0,0,0,0,17,17,17,17,17,17,
0,0,0,0,0,0,0,0,0,0,17,17,17,17,17,17,
0,0,0,0,0,0,0,0,0,0,17,17,17,17,17,17,
0,0,0,0,0,0,0,0,0,0,17,17,17,17,17,17,
0,0,0,0,0,0,0,0,0,0,17,17,17,17,17,17,
0,0,0,0,0,0,0,0,0,0,17,17,17,17,17,17,
0,0,0,0,0,0,0,0,0,0,17,17,17,17,17,17,
0,0,0,0,0,0,0,0,0,0,17,17,17,17,17,17,
0,0,0,0,0,0,0,0,0,0,17,17,17,17,17,17,
0,0,0,0,0,0,0,0,0,0,17,17,17,17,17,17,
0,0,0,0,0,0,0,0,0,0,17,17,17,17,17,17
</chunk>
   <chunk x="176" y="-96" width="16" height="16">
17,17,17,17,17,17,17,17,17,17,17,17,17,17,17,17,
17,17,17,17,17,17,17,17,17,17,17,17,17,17,17,17,
17,17,17,17,17,17,17,17,17,17,17,17,17,17,17,17,
17,17,17,17,17,17,17,17,17,17,17,17,17,17,17,17,
17,17,17,17,17,17,17,17,17,17,17,17,17,17,17,17,
17,17,17,17,17,17,17,17,17,17,17,17,17,17,17,17,
17,17,17,17,17,17,17,17,17,17,17,17,17,17,17,17,
17,17,17,17,17,17,17,17,17,17,17,17,17,17,17,17,
17,17,17,17,17,17,17,17,17,17,17,17,17,17,17,17,
17,17,17,17,17,17,17,17,17,17,17,17,17,17,17,17,
17,17,17,17,17,17,17,17,17,17,17,17,17,17,17,17,
17,17,17,17,17,17,17,17,17,17,17,17,17,17,17,17,
17,17,17,17,17,17,17,17,17,17,17,17,17,17,17,17,
17,17,17,17,17,17,17,17,17,17,17,17,17,17,17,17,
17,17,17,17,17,17,17,17,17,17,17,17,17,17,17,17,
17,17,17,17,17,17,17,17,17,17,17,17,17,17,17,17
</chunk>
   <chunk x="192" y="-96" width="16" height="16">
17,17,17,17,17,17,17,17,17,17,17,17,17,17,17,17,
17,17,17,17,17,17,17,17,17,17,17,17,17,17,17,17,
17,17,17,17,17,17,17,17,17,17,17,17,17,17,17,17,
17,17,17,17,17,17,17,17,17,17,17,17,17,17,17,17,
17,17,17,17,17,17,17,17,17,17,17,17,17,17,17,17,
17,17,17,17,17,17,17,17,17,17,17,17,17,17,17,17,
17,17,17,17,17,17,17,17,17,17,17,17,17,17,17,17,
17,17,17,17,0,0,0,0,0,0,0,0,0,0,0,0,
17,17,17,0,0,0,0,0,0,0,0,0,0,0,0,0,
17,17,0,0,0,0,0,0,0,0,0,0,0,0,0,0,
17,17,0,0,0,0,0,0,0,0,0,0,0,0,0,0,
17,17,0,0,0,0,0,0,0,0,0,0,0,0,0,0,
17,17,0,0,0,0,0,0,0,0,0,0,0,0,0,0,
17,17,0,0,0,0,0,0,0,0,0,0,0,0,0,0,
17,17,0,0,0,0,0,0,0,0,0,0,0,0,0,0,
17,17,17,17,17,17,17,17,17,17,0,0,0,0,0,0
</chunk>
   <chunk x="208" y="-96" width="16" height="16">
17,17,17,17,17,17,17,17,17,17,17,17,17,17,17,17,
17,17,17,17,17,17,17,17,17,17,17,17,17,17,17,17,
17,17,17,17,17,17,17,17,17,17,17,17,17,17,17,17,
17,17,17,17,17,17,17,17,17,17,17,17,17,17,17,17,
17,17,17,17,17,17,17,17,17,17,17,17,17,17,17,17,
17,17,17,17,17,17,17,17,17,17,17,17,17,17,17,17,
17,17,17,17,17,17,17,17,17,17,17,17,17,17,17,17,
0,0,0,0,0,0,0,0,0,0,0,0,0,0,0,0,
0,0,0,0,0,0,0,0,0,0,0,0,0,0,0,0,
0,0,0,0,0,0,0,0,0,0,0,0,0,0,0,0,
0,0,0,0,0,0,0,0,0,0,0,0,0,0,0,0,
0,0,0,0,0,0,0,0,0,0,0,0,0,0,0,0,
0,0,0,0,0,0,0,0,0,0,0,0,0,0,0,0,
0,0,0,0,0,0,0,0,0,0,0,0,0,0,0,0,
0,0,0,0,0,0,0,0,0,0,0,0,0,0,0,0,
0,0,0,0,0,0,0,0,0,0,0,0,0,0,0,0
</chunk>
   <chunk x="224" y="-96" width="16" height="16">
17,17,17,17,17,17,17,17,17,17,17,17,17,17,17,17,
17,17,17,17,17,17,17,17,17,17,17,17,17,17,17,17,
17,17,17,17,17,17,17,17,17,17,17,17,17,17,17,17,
17,17,17,17,17,17,17,17,17,17,17,17,17,17,17,17,
17,17,17,17,17,17,17,17,17,17,17,17,17,17,17,17,
17,17,17,17,17,17,17,17,17,17,17,17,17,17,17,17,
17,17,17,17,17,17,17,17,17,17,17,17,17,17,17,17,
0,0,0,0,0,0,0,0,0,0,0,0,0,0,0,0,
0,0,0,0,0,0,0,0,0,0,0,0,0,0,0,0,
0,0,0,0,0,0,0,0,0,0,0,0,0,0,0,0,
0,0,0,0,0,0,0,0,0,0,0,0,0,0,0,0,
0,0,0,0,0,0,0,0,0,0,0,0,0,0,0,0,
0,0,0,0,0,0,0,0,0,0,0,0,0,0,0,0,
0,0,0,0,0,0,0,0,0,0,0,0,0,0,0,0,
0,0,0,0,0,0,0,0,0,0,0,0,0,0,0,0,
0,0,0,0,0,0,0,0,0,0,0,0,0,0,0,0
</chunk>
   <chunk x="240" y="-96" width="16" height="16">
17,17,17,17,17,17,17,17,17,17,17,17,17,17,17,17,
17,17,17,17,17,17,17,17,17,17,17,17,17,17,17,17,
17,17,17,17,17,17,17,17,17,17,17,17,17,17,17,17,
17,17,17,17,17,17,17,17,17,17,17,17,17,17,17,17,
17,17,17,17,17,17,17,17,17,17,17,17,17,17,17,17,
17,17,17,17,17,17,17,17,17,17,17,17,17,17,17,17,
17,17,17,17,17,17,17,17,17,17,17,17,17,17,17,17,
0,0,0,0,0,0,0,0,0,0,0,0,0,0,0,0,
0,0,0,0,0,0,0,0,0,0,0,0,0,0,0,0,
0,0,0,0,0,0,0,0,0,0,0,0,0,0,0,0,
0,0,0,0,0,0,0,0,0,0,0,0,0,0,0,0,
0,0,0,0,0,0,0,0,0,0,0,0,0,0,0,0,
0,0,0,0,0,0,0,0,0,0,0,0,0,0,0,0,
0,0,0,0,0,0,0,0,0,0,0,0,0,0,0,0,
0,0,0,0,0,0,0,0,0,0,0,0,0,0,0,0,
0,0,0,0,0,0,0,0,0,0,0,0,0,0,0,0
</chunk>
   <chunk x="256" y="-96" width="16" height="16">
17,17,17,17,17,17,17,17,17,17,17,17,17,17,17,17,
17,17,17,17,17,17,17,17,17,17,17,17,17,17,17,0,
17,17,17,17,17,17,17,17,17,17,17,17,17,17,0,0,
17,17,17,0,0,0,0,0,0,0,0,0,0,0,0,0,
17,17,0,0,0,0,0,0,0,0,0,0,0,0,0,0,
17,0,0,0,0,0,0,0,0,0,0,0,0,0,0,0,
0,0,0,0,0,0,0,0,0,0,0,0,0,0,0,0,
0,0,0,0,0,0,0,0,0,0,0,0,0,0,0,0,
0,0,0,0,0,0,0,0,0,0,0,0,0,0,0,0,
0,0,0,0,0,0,0,0,0,0,0,0,0,0,0,0,
0,0,0,0,0,0,0,0,0,0,0,0,0,0,0,0,
0,0,0,0,0,0,0,0,0,0,0,0,0,0,0,0,
0,0,0,0,0,0,0,0,0,0,0,0,0,0,0,0,
0,0,0,0,0,0,0,0,0,0,0,0,0,0,0,0,
0,0,0,0,0,0,0,0,0,0,0,0,0,0,0,0,
0,0,0,0,0,0,0,0,0,0,0,0,0,0,0,0
</chunk>
   <chunk x="272" y="-96" width="16" height="16">
17,17,17,17,17,17,17,17,17,17,17,17,17,17,17,17,
0,0,0,0,0,0,0,0,0,0,0,0,0,17,17,17,
0,0,0,0,0,0,0,0,0,0,0,0,0,0,17,17,
0,0,0,0,0,0,0,0,0,0,0,0,0,0,0,0,
0,0,0,0,0,0,0,0,0,0,0,0,0,0,0,0,
0,0,0,0,0,0,0,0,0,0,0,0,0,0,0,0,
0,0,0,0,0,0,0,0,0,0,0,0,0,0,0,0,
0,0,0,0,0,0,0,0,0,0,0,0,0,0,0,0,
0,0,0,0,0,0,0,0,0,0,0,0,0,0,0,0,
0,0,0,0,0,0,0,0,0,0,0,0,0,0,0,0,
0,0,0,0,0,0,0,0,0,0,0,0,0,0,0,0,
0,0,0,0,0,0,0,0,0,0,0,0,0,0,0,0,
0,0,0,0,0,0,0,0,0,0,0,0,0,0,0,0,
0,0,0,0,0,0,0,0,0,0,0,0,0,0,0,0,
0,0,0,0,0,0,0,0,0,0,0,0,0,0,0,0,
0,0,0,0,0,0,0,0,0,0,0,0,0,0,0,0
</chunk>
   <chunk x="288" y="-96" width="16" height="16">
17,17,17,17,17,17,17,17,17,17,17,17,17,17,17,17,
17,17,17,17,17,17,17,17,17,17,17,17,17,17,17,17,
17,17,17,17,17,17,17,17,17,17,17,17,17,17,17,17,
0,0,0,0,0,0,0,17,17,17,17,17,17,17,17,17,
0,0,0,0,0,0,0,0,17,17,17,17,17,17,17,17,
0,0,0,0,0,0,0,0,0,17,17,17,17,17,17,17,
0,0,0,0,0,0,0,0,0,17,17,17,17,17,17,17,
0,0,0,0,0,0,0,0,0,0,17,17,17,17,17,17,
0,0,0,0,0,0,0,0,0,0,0,0,0,0,0,0,
0,0,0,0,0,0,0,0,0,0,0,0,0,0,0,0,
0,0,0,0,0,0,0,0,0,0,0,0,0,0,0,0,
0,0,0,0,0,0,0,0,0,0,0,0,0,0,0,0,
0,0,0,0,0,0,0,0,0,0,0,0,0,0,0,0,
0,0,0,0,0,0,0,0,0,0,0,0,0,0,0,0,
0,0,0,0,0,0,0,0,0,0,0,0,0,0,0,0,
0,0,0,0,0,0,0,0,0,0,0,0,0,0,0,0
</chunk>
   <chunk x="304" y="-96" width="16" height="16">
17,17,17,17,17,17,17,17,17,17,17,17,17,17,17,17,
17,17,17,17,17,17,17,17,17,17,17,17,17,17,17,17,
17,17,17,17,17,17,17,17,17,17,17,17,17,17,17,17,
17,17,17,17,17,17,17,17,17,17,17,17,17,17,17,0,
17,17,17,17,17,17,17,17,17,17,17,17,17,17,0,0,
17,17,17,17,17,17,17,17,17,17,17,17,17,0,0,0,
17,17,17,17,17,17,17,17,17,17,17,17,17,0,0,0,
17,17,17,17,17,17,17,17,17,17,17,17,0,0,0,0,
0,0,0,0,0,0,0,0,0,0,0,0,0,0,0,0,
0,0,0,0,0,0,0,0,0,0,0,0,0,0,0,0,
0,0,0,0,0,0,0,0,0,0,0,0,0,0,0,0,
0,0,0,0,0,0,0,0,0,0,0,0,0,0,0,0,
0,0,0,0,0,0,0,0,0,0,0,0,0,0,0,0,
0,0,0,0,0,0,0,0,0,0,0,0,0,0,0,0,
0,0,0,0,0,0,0,0,0,0,0,0,0,0,0,0,
0,0,0,0,0,0,0,0,0,0,0,0,0,0,0,0
</chunk>
   <chunk x="320" y="-96" width="16" height="16">
17,17,17,17,17,17,17,17,17,17,17,17,17,17,17,17,
17,17,17,17,17,17,17,17,17,17,17,17,17,17,17,17,
17,17,17,17,17,17,17,17,17,17,17,17,17,17,17,17,
0,0,0,0,0,0,0,0,0,0,0,0,0,0,0,0,
0,0,0,0,0,0,0,0,0,0,0,0,0,0,0,0,
0,0,0,0,0,0,0,0,0,0,0,0,0,0,0,0,
0,0,0,0,0,0,0,0,0,0,0,0,0,0,0,0,
0,0,0,0,0,0,0,0,0,0,0,0,0,0,0,0,
0,0,0,0,0,0,0,0,0,0,0,0,0,0,0,0,
0,0,0,0,0,0,0,0,0,0,0,0,0,0,0,0,
0,0,0,0,0,0,0,0,0,0,0,0,0,0,0,0,
0,0,0,0,0,0,0,0,0,0,0,0,0,0,0,0,
0,0,0,0,0,0,0,0,0,0,0,0,0,0,0,0,
0,0,0,0,0,0,0,0,0,0,0,0,0,0,0,0,
0,0,0,0,0,0,0,0,0,0,0,0,0,0,0,0,
0,0,0,0,0,0,0,0,0,0,0,0,0,0,0,0
</chunk>
   <chunk x="336" y="-96" width="16" height="16">
17,17,17,17,17,17,17,17,17,17,17,17,17,17,17,17,
17,17,17,17,17,17,17,17,17,17,17,17,17,17,17,17,
17,17,17,17,17,17,17,17,17,17,17,17,17,17,17,17,
0,0,0,0,0,0,0,0,0,0,0,0,0,0,0,0,
0,0,0,0,0,0,0,0,0,0,0,0,0,0,0,0,
0,0,0,0,0,0,0,0,0,0,0,0,0,0,0,0,
0,0,0,0,0,0,0,0,0,0,0,0,0,0,0,0,
0,0,0,0,0,0,0,0,0,0,0,0,0,0,0,0,
0,0,0,0,0,0,0,0,0,0,0,0,0,0,0,0,
0,0,0,0,0,0,0,0,0,0,0,0,0,0,0,0,
0,0,0,0,0,0,0,0,0,0,0,0,0,0,0,0,
0,0,0,0,0,0,0,0,0,0,0,0,0,0,0,0,
0,0,0,0,0,0,0,0,0,0,0,0,0,0,0,0,
0,0,0,0,0,0,0,0,0,0,0,0,0,0,0,0,
0,0,0,0,0,0,0,0,0,0,0,0,0,0,0,0,
0,0,0,0,0,0,0,0,0,0,0,0,0,0,0,0
</chunk>
   <chunk x="352" y="-96" width="16" height="16">
17,17,17,17,17,17,17,17,17,17,17,17,17,17,17,17,
17,17,17,17,17,17,17,17,17,17,17,17,17,17,17,17,
17,17,17,17,17,17,17,17,17,17,17,17,17,17,17,17,
0,0,0,0,0,0,0,0,0,0,0,0,0,0,0,0,
0,0,0,0,0,0,0,0,0,0,0,0,0,0,0,0,
0,0,0,0,0,0,0,0,0,0,0,0,0,0,0,0,
0,0,0,0,0,0,0,0,0,0,0,0,0,0,0,0,
0,0,0,0,0,0,0,0,0,0,0,0,0,0,0,0,
0,0,0,0,0,0,0,0,0,0,0,0,0,0,0,0,
0,0,0,0,0,0,0,0,0,0,0,0,0,0,0,0,
0,0,0,0,0,0,0,0,0,0,0,0,0,0,0,0,
0,0,0,0,0,0,0,0,0,0,0,0,0,0,0,0,
0,0,0,0,0,0,0,0,0,0,0,0,0,0,0,0,
0,0,0,0,0,0,0,0,0,0,0,0,0,0,0,0,
0,0,0,0,0,0,0,0,0,0,0,0,0,0,0,0,
0,0,0,0,0,0,0,0,0,0,0,0,0,0,0,0
</chunk>
   <chunk x="368" y="-96" width="16" height="16">
17,17,17,17,17,17,17,17,17,17,17,17,17,17,17,17,
17,17,17,17,17,17,17,17,17,17,17,17,17,17,17,17,
17,17,17,17,17,17,17,17,17,17,17,17,17,17,17,17,
0,0,0,0,0,0,0,0,0,0,0,0,0,0,0,0,
0,0,0,0,0,0,0,0,0,0,0,0,0,0,0,0,
0,0,0,0,0,0,0,0,0,0,0,0,0,0,0,0,
0,0,0,0,0,0,0,0,0,0,0,0,0,0,0,0,
0,0,0,0,0,0,0,0,0,0,0,0,0,0,0,0,
0,0,0,0,0,0,0,0,0,0,0,0,0,0,0,0,
0,0,0,0,0,0,0,0,0,0,0,0,0,0,0,0,
0,0,0,0,0,0,0,0,0,0,0,0,0,0,0,0,
0,0,0,0,0,0,0,0,0,0,0,0,0,0,0,0,
0,0,0,0,17,17,17,17,17,17,17,17,17,17,17,17,
0,0,0,0,17,17,17,17,17,17,17,17,17,17,17,17,
0,0,0,0,17,17,17,17,17,17,17,17,17,17,17,17,
0,0,0,0,17,17,17,17,17,17,17,17,17,17,17,17
</chunk>
   <chunk x="384" y="-96" width="16" height="16">
17,17,17,17,17,17,17,17,17,17,17,17,17,17,17,17,
17,17,17,17,17,17,17,17,17,17,17,17,17,17,17,17,
17,17,17,17,17,17,17,17,17,17,17,17,17,17,17,17,
0,0,0,0,0,0,0,0,0,0,0,0,0,0,0,0,
0,0,0,0,0,0,0,0,0,0,0,0,0,0,0,0,
0,0,0,0,0,0,0,0,0,0,0,0,0,0,0,0,
0,0,0,0,0,0,0,0,0,0,0,0,0,0,0,0,
0,0,0,0,0,0,0,0,0,0,0,0,0,0,0,0,
0,0,0,0,0,0,0,0,0,0,0,0,0,0,0,0,
0,0,0,0,0,0,0,0,0,0,0,0,0,0,0,0,
0,0,0,0,0,0,0,0,0,0,0,0,0,0,0,0,
0,0,0,0,0,0,0,0,0,0,0,0,0,0,0,0,
17,17,17,17,17,17,17,17,17,17,17,17,17,17,17,0,
17,17,17,17,17,17,17,17,17,17,17,17,17,17,17,0,
17,17,17,17,17,17,17,17,17,17,17,17,17,17,0,0,
17,17,17,17,17,17,17,17,17,17,17,17,17,0,0,0
</chunk>
   <chunk x="400" y="-96" width="16" height="16">
17,17,17,17,17,17,17,17,17,17,17,17,17,17,17,17,
17,17,17,17,17,17,17,17,17,17,17,17,17,17,17,17,
17,17,17,17,17,17,17,17,17,17,17,17,17,17,17,17,
0,0,0,0,0,0,0,0,0,0,0,0,17,17,17,17,
0,0,0,0,0,0,0,0,0,0,0,0,0,17,17,17,
0,0,0,0,0,0,0,0,0,0,0,0,0,0,17,17,
0,0,0,0,0,0,0,0,0,0,0,0,0,0,0,17,
0,0,0,0,0,0,0,0,0,0,0,0,0,0,0,17,
0,0,0,0,0,0,0,0,0,0,0,0,0,0,0,17,
0,0,0,0,0,0,0,0,0,0,0,0,0,0,0,17,
0,0,0,0,0,0,0,0,0,0,0,0,0,0,0,17,
0,0,0,0,0,0,0,0,0,0,0,0,0,0,0,17,
0,0,0,0,0,0,0,0,0,0,0,0,0,0,0,17,
0,0,0,0,0,0,0,0,0,0,0,0,0,0,0,17,
0,0,0,0,0,0,0,0,0,0,0,0,0,0,0,17,
0,0,0,0,0,0,0,0,0,0,0,0,0,0,0,17
</chunk>
   <chunk x="416" y="-96" width="16" height="16">
17,17,17,17,17,17,17,17,17,17,17,17,17,17,17,17,
17,17,17,17,17,17,17,17,17,17,17,17,17,17,17,17,
17,17,17,17,17,17,17,17,17,17,17,17,17,17,17,17,
17,17,17,17,17,17,17,17,17,17,17,17,17,17,17,17,
17,17,17,17,17,17,17,17,17,17,17,17,17,17,17,17,
17,17,17,17,17,17,17,17,17,17,17,17,17,17,17,17,
17,17,17,17,17,17,17,17,17,17,17,17,17,17,17,17,
17,17,17,17,17,17,17,17,17,17,17,17,17,17,17,17,
17,17,17,17,17,17,17,17,17,17,17,17,17,17,17,17,
17,17,17,17,17,17,17,17,17,17,17,17,17,17,17,17,
17,17,17,17,17,17,17,17,17,17,17,17,17,17,17,17,
17,17,17,17,17,17,17,17,17,17,17,17,17,17,17,17,
17,17,17,17,17,17,17,17,17,17,17,17,17,17,17,17,
17,17,17,17,17,17,17,17,17,17,17,17,17,17,17,17,
17,17,17,17,17,17,17,17,17,17,17,17,17,17,17,17,
17,17,17,17,17,17,17,17,17,17,17,17,17,17,17,17
</chunk>
   <chunk x="160" y="-80" width="16" height="16">
0,0,0,0,0,0,0,0,0,0,17,17,17,17,17,17,
0,0,0,0,0,0,0,0,0,0,17,17,17,17,17,17,
0,0,0,0,0,0,0,0,0,0,17,17,17,17,17,17,
0,0,0,0,0,0,0,0,0,0,17,17,17,17,17,17,
0,0,0,0,0,0,0,0,0,0,17,17,17,17,17,17,
0,0,0,0,0,0,0,0,0,0,17,17,17,17,17,17,
0,0,0,0,0,0,0,0,0,0,17,17,17,17,17,17,
0,0,0,0,0,0,0,0,0,0,17,17,17,17,17,17,
0,0,0,0,0,0,0,0,0,0,17,17,17,17,17,17,
0,0,0,0,0,0,0,0,0,0,17,17,17,17,17,17,
0,0,0,0,0,0,0,0,0,0,17,17,17,17,17,17,
0,0,0,0,0,0,0,0,0,0,17,17,17,17,17,17,
0,0,0,0,0,0,0,0,0,0,17,17,17,17,17,17,
0,0,0,0,0,0,0,0,0,0,17,17,17,17,17,17,
0,0,0,0,0,0,0,0,0,0,17,17,17,17,17,17,
0,0,0,0,0,0,0,0,0,0,17,17,17,17,17,17
</chunk>
   <chunk x="176" y="-80" width="16" height="16">
17,17,17,17,17,17,17,17,17,17,17,17,17,17,17,17,
17,17,17,17,17,17,17,17,17,17,17,17,17,17,17,17,
17,17,17,17,17,17,17,17,17,17,17,17,17,17,17,17,
17,17,17,17,17,17,17,17,17,17,17,17,17,17,17,17,
17,17,17,17,17,17,17,17,17,17,17,17,17,17,17,17,
17,17,17,17,17,17,17,17,17,17,17,17,17,17,17,17,
17,17,17,17,17,17,17,17,17,17,17,17,17,17,17,17,
17,17,17,17,17,17,17,17,17,17,17,17,17,17,17,17,
17,17,17,17,17,17,17,17,17,17,17,17,17,17,17,17,
17,17,17,17,17,17,17,17,17,17,17,17,17,17,17,17,
17,17,17,17,17,17,17,17,17,17,17,17,17,17,17,17,
17,17,17,17,17,17,17,17,17,17,17,17,17,17,17,17,
17,17,17,17,17,17,17,17,17,17,17,17,17,17,17,17,
17,17,17,17,17,17,17,17,17,17,17,17,17,17,17,17,
17,17,17,17,17,17,17,17,17,17,17,17,17,17,17,17,
17,17,17,17,17,17,17,17,17,17,17,17,17,17,17,17
</chunk>
   <chunk x="192" y="-80" width="16" height="16">
17,17,17,17,17,17,17,17,17,17,0,0,0,0,0,0,
17,17,17,17,17,17,17,17,17,17,0,0,0,0,0,0,
17,17,17,17,17,17,17,17,17,17,0,0,0,0,0,0,
17,17,17,17,17,17,17,17,17,17,0,0,0,0,0,0,
17,17,17,17,17,17,17,17,17,17,0,0,0,0,0,0,
17,17,17,17,17,17,17,17,17,17,0,0,0,0,0,0,
17,17,17,17,17,17,17,17,17,17,0,0,0,0,0,0,
17,17,17,17,17,17,17,17,17,17,0,0,0,0,0,0,
17,17,17,17,17,17,17,17,17,17,0,0,0,0,0,0,
17,17,17,17,17,17,17,17,17,17,0,0,0,0,0,0,
17,17,17,17,17,17,17,17,17,17,0,0,0,0,0,0,
17,17,17,17,17,17,17,17,17,17,0,0,0,0,0,0,
17,17,17,17,17,17,17,17,17,17,0,0,0,0,0,0,
17,17,17,17,17,17,17,17,17,17,0,0,0,0,0,0,
17,17,17,17,17,17,17,17,17,17,0,0,0,0,0,0,
17,17,17,17,17,17,17,17,17,17,0,0,0,0,0,0
</chunk>
   <chunk x="224" y="-80" width="16" height="16">
0,0,0,0,0,0,0,0,0,0,0,0,0,0,0,0,
0,0,0,0,0,0,0,17,17,17,17,17,17,17,17,17,
0,0,0,0,0,0,0,17,17,17,17,17,17,17,17,17,
0,0,0,0,0,0,0,17,17,17,17,17,17,17,17,17,
0,0,0,0,0,0,0,17,17,17,17,17,17,17,17,17,
0,0,0,0,0,0,0,17,17,17,17,17,17,17,17,17,
0,0,0,0,0,0,0,17,17,17,17,17,17,17,17,17,
0,0,0,0,0,0,0,17,17,17,17,17,17,17,17,17,
0,0,0,0,0,0,0,17,17,17,17,17,17,17,17,17,
0,0,0,0,0,0,0,17,17,17,17,17,17,17,17,17,
0,0,0,0,0,0,0,17,17,17,17,17,17,17,17,17,
0,0,0,0,0,0,0,17,17,17,17,17,17,17,17,17,
0,0,0,0,0,0,0,17,17,17,17,17,17,17,17,17,
0,0,0,0,0,0,0,17,17,17,17,17,17,17,17,17,
0,0,0,0,0,0,0,17,17,17,17,17,17,17,17,17,
0,0,0,0,0,0,0,17,17,17,17,17,17,17,17,17
</chunk>
   <chunk x="240" y="-80" width="16" height="16">
0,0,0,0,0,0,0,0,0,0,0,0,0,0,0,0,
17,17,17,17,17,17,17,17,17,17,17,17,17,17,17,17,
17,17,17,17,17,17,17,17,17,17,17,17,17,17,17,17,
17,17,17,17,17,17,17,17,17,17,17,17,17,17,17,17,
17,17,17,17,17,17,17,17,17,17,17,17,17,17,17,17,
17,17,17,17,17,17,17,17,17,17,17,17,17,17,17,17,
17,17,17,17,17,17,17,17,17,17,17,17,17,17,17,17,
17,17,17,17,17,17,17,17,17,17,17,17,17,17,17,17,
17,17,17,17,17,17,17,17,17,17,17,17,17,17,17,17,
17,17,17,17,17,17,17,17,17,17,17,17,17,17,17,17,
17,17,17,17,17,17,17,17,17,17,17,17,17,17,17,17,
17,17,17,17,17,17,17,17,17,17,17,17,17,17,17,17,
17,17,17,17,17,17,17,17,17,17,17,17,17,17,17,17,
17,17,17,17,17,17,17,17,17,17,17,17,17,17,17,17,
17,17,17,17,17,17,17,17,17,17,17,17,17,17,17,17,
17,17,17,17,17,17,17,17,17,17,17,17,17,17,17,17
</chunk>
   <chunk x="256" y="-80" width="16" height="16">
0,0,0,0,0,0,0,0,0,0,0,0,0,0,0,0,
17,0,0,0,0,0,0,0,0,0,0,0,0,0,0,0,
17,0,0,0,0,0,0,0,0,0,0,0,0,0,0,0,
17,17,17,17,17,17,17,17,17,17,17,17,17,17,17,0,
17,17,17,17,17,17,17,17,17,17,17,17,17,17,17,0,
17,17,17,17,17,17,17,17,17,17,17,17,17,17,17,0,
17,17,17,17,17,17,17,17,17,17,17,17,17,17,17,0,
17,17,17,17,17,17,17,17,17,17,17,17,17,17,17,0,
17,17,17,17,17,17,17,17,17,17,17,17,17,17,17,0,
17,17,17,17,17,17,17,17,17,17,17,17,17,17,17,17,
17,17,17,17,17,17,17,17,17,17,17,17,17,17,17,17,
17,17,17,17,17,17,17,17,17,17,17,17,17,17,17,17,
17,17,17,17,17,17,17,17,17,17,17,17,17,17,17,17,
17,17,17,17,17,17,17,17,17,17,17,17,17,17,17,17,
17,17,17,17,17,17,17,17,17,17,17,17,17,17,17,17,
17,17,17,17,17,17,17,17,17,17,17,17,17,17,17,17
</chunk>
   <chunk x="272" y="-80" width="16" height="16">
0,0,0,0,0,0,0,0,0,0,0,0,0,0,0,0,
0,0,0,0,0,0,0,0,0,0,0,0,0,0,0,0,
0,0,0,0,0,0,0,17,17,17,17,17,17,17,17,17,
0,0,0,0,0,0,0,17,17,17,17,17,17,17,17,17,
0,0,0,0,0,0,0,17,17,17,17,17,17,17,17,17,
0,0,0,0,0,0,0,17,17,17,17,17,17,17,17,17,
0,0,0,0,0,0,0,17,17,17,17,17,17,17,17,17,
0,0,0,0,0,0,0,17,17,17,17,17,17,17,17,17,
0,0,0,0,0,0,0,17,17,17,17,17,17,17,17,17,
17,17,17,17,17,17,17,17,17,17,17,17,17,17,17,17,
17,17,17,17,17,17,17,17,17,17,17,17,17,17,17,17,
17,17,17,17,17,17,17,17,17,17,17,17,17,17,17,17,
17,17,17,17,17,17,17,17,17,17,17,17,17,17,17,17,
17,17,17,17,17,17,17,17,17,17,17,17,17,17,17,17,
17,17,17,17,17,17,17,17,17,17,17,17,17,17,17,17,
17,17,17,17,17,17,17,17,17,17,17,17,17,17,17,17
</chunk>
   <chunk x="288" y="-80" width="16" height="16">
0,0,0,0,0,0,0,0,0,0,0,0,0,0,0,0,
0,0,0,0,0,0,0,0,0,0,0,0,0,0,0,0,
17,17,17,17,17,17,17,17,17,17,17,17,17,17,17,17,
17,17,17,17,17,17,17,17,17,17,17,17,17,17,17,17,
17,17,17,17,17,17,17,17,17,17,17,17,17,17,17,17,
17,17,17,17,17,17,17,17,17,17,17,17,17,17,17,17,
17,17,17,17,17,17,17,17,17,17,17,17,17,17,17,17,
17,17,17,17,17,17,17,17,17,17,17,17,17,17,17,17,
17,17,17,17,17,17,17,17,17,17,17,17,17,17,17,17,
17,17,17,17,17,17,17,17,17,17,17,17,17,17,17,17,
17,17,17,17,17,17,17,17,17,17,17,17,17,17,17,17,
17,17,17,17,17,17,17,17,17,17,17,17,17,17,17,17,
17,17,17,17,17,17,17,17,17,17,17,17,17,17,17,17,
17,17,17,17,17,17,17,17,17,17,17,17,17,17,17,17,
17,17,17,17,17,17,17,17,17,17,17,17,17,17,17,17,
17,17,17,17,17,17,17,17,17,17,17,17,17,17,17,17
</chunk>
   <chunk x="304" y="-80" width="16" height="16">
0,0,0,0,0,0,0,0,0,0,0,0,0,0,0,0,
0,0,0,0,0,0,0,0,0,0,0,0,0,0,0,0,
17,17,17,17,17,17,17,17,17,17,17,17,17,17,17,17,
17,17,17,17,17,17,17,17,17,17,17,17,17,17,17,17,
17,17,17,17,17,17,17,17,17,17,17,17,17,17,17,17,
17,17,17,17,17,17,17,17,17,17,17,17,17,17,17,17,
17,17,17,17,17,17,17,17,17,17,17,17,17,17,17,17,
17,17,17,17,17,17,17,17,17,17,17,17,17,17,17,17,
17,17,17,17,17,17,17,17,17,17,17,17,17,17,17,17,
17,17,17,17,17,17,17,17,17,17,17,17,17,17,17,17,
17,17,17,17,17,17,17,17,17,17,17,17,17,17,17,17,
17,17,17,17,17,17,17,17,17,17,17,17,17,17,17,17,
17,17,17,17,17,17,17,17,17,17,17,17,17,17,17,17,
17,17,17,17,17,17,17,17,17,17,17,17,17,17,17,17,
17,17,17,17,17,17,17,17,17,17,17,17,17,17,17,17,
17,17,17,17,17,17,17,17,17,17,17,17,17,17,17,17
</chunk>
   <chunk x="320" y="-80" width="16" height="16">
0,0,0,0,0,0,0,0,0,0,0,0,0,0,0,0,
0,0,0,0,0,0,0,0,0,0,0,0,0,0,0,0,
17,17,17,17,17,17,0,0,0,0,0,0,0,0,17,17,
17,17,17,17,17,17,0,0,0,0,0,0,0,0,17,17,
17,17,17,17,17,17,0,0,0,0,0,0,0,0,17,17,
17,17,17,17,17,17,0,0,0,0,0,0,0,0,17,17,
17,17,17,17,17,17,17,17,17,17,17,17,17,17,17,17,
17,17,17,17,17,17,17,17,17,17,17,17,17,17,17,17,
17,17,17,17,17,17,17,17,17,17,17,17,17,17,17,17,
17,17,17,17,17,17,17,17,17,17,17,17,17,17,17,17,
17,17,17,17,17,17,17,17,17,17,17,17,17,17,17,17,
17,17,17,17,17,17,17,17,17,17,17,17,17,17,17,17,
17,17,17,17,17,17,17,17,17,17,17,17,17,17,17,17,
17,17,17,17,17,17,17,17,17,17,17,17,17,17,17,17,
17,17,17,17,17,17,17,17,17,17,17,17,17,17,17,17,
17,17,17,17,17,17,17,17,17,17,17,17,17,17,17,17
</chunk>
   <chunk x="336" y="-80" width="16" height="16">
0,0,0,0,0,0,0,0,0,0,0,0,0,0,0,0,
0,0,0,0,0,0,0,0,0,0,0,0,0,0,0,0,
17,17,17,17,17,17,17,17,17,17,0,0,0,0,0,0,
17,17,17,17,17,17,17,17,17,17,0,0,0,0,0,0,
17,17,17,17,17,17,17,17,17,17,0,0,0,0,0,0,
17,17,17,17,17,17,17,17,17,17,0,0,0,0,0,0,
17,17,17,17,17,17,17,17,17,17,0,0,0,0,0,0,
17,17,17,17,17,17,17,17,17,17,17,17,17,17,17,17,
17,17,17,17,17,17,17,17,17,17,17,17,17,17,17,17,
17,17,17,17,17,17,17,17,17,17,17,17,17,17,17,17,
17,17,17,17,17,17,17,17,17,17,17,17,17,17,17,17,
17,17,17,17,17,17,17,17,17,17,17,17,17,17,17,17,
17,17,17,17,17,17,17,17,17,17,17,17,17,17,17,17,
17,17,17,17,17,17,17,17,17,17,17,17,17,17,17,17,
17,17,17,17,17,17,17,17,17,17,17,17,17,17,17,17,
17,17,17,17,17,17,17,17,17,17,17,17,17,17,17,17
</chunk>
   <chunk x="352" y="-80" width="16" height="16">
0,0,0,0,0,0,0,0,0,0,0,0,0,0,0,0,
0,0,17,17,17,17,17,17,17,17,0,0,0,0,0,0,
0,0,17,17,17,17,17,17,17,17,0,0,0,0,0,0,
0,0,17,17,17,17,17,17,17,17,0,0,0,0,0,0,
0,0,17,17,17,17,17,17,17,17,0,0,0,0,0,0,
0,0,17,17,17,17,17,17,17,17,0,0,0,0,0,0,
0,0,17,17,17,17,17,17,17,17,0,0,0,0,0,0,
17,17,17,17,17,17,17,17,17,17,17,17,17,17,17,17,
17,17,17,17,17,17,17,17,17,17,17,17,17,17,17,17,
17,17,17,17,17,17,17,17,17,17,17,17,17,17,17,17,
17,17,17,17,17,17,17,17,17,17,17,17,17,17,17,17,
17,17,17,17,17,17,17,17,17,17,17,17,17,17,17,17,
17,17,17,17,17,17,17,17,17,17,17,17,17,17,17,17,
17,17,17,17,17,17,17,17,17,17,17,17,17,17,17,17,
17,17,17,17,17,17,17,17,17,17,17,17,17,17,17,17,
17,17,17,17,17,17,17,17,17,17,17,17,17,17,17,17
</chunk>
   <chunk x="368" y="-80" width="16" height="16">
0,0,0,0,17,17,17,17,17,17,17,17,17,17,17,17,
0,0,0,0,17,17,17,17,17,17,17,17,17,17,17,17,
0,0,0,0,17,17,17,17,17,17,17,17,17,17,17,17,
0,0,0,0,17,17,17,17,17,17,17,17,17,17,17,17,
0,0,0,0,17,17,17,17,17,17,17,17,17,17,17,17,
0,0,0,0,17,17,17,17,17,17,17,17,17,17,17,17,
0,0,0,0,17,17,17,17,17,17,17,17,17,17,17,17,
17,17,17,17,17,17,17,17,17,17,17,17,17,17,17,17,
17,17,17,17,17,17,17,17,17,17,17,17,17,17,17,17,
17,17,17,17,17,17,17,17,17,17,17,17,17,17,17,17,
17,17,17,17,17,17,17,17,17,17,17,17,17,17,17,17,
17,17,17,17,17,17,17,17,17,17,17,17,17,17,17,17,
17,17,17,17,17,17,17,17,17,17,17,17,17,17,17,17,
17,17,17,17,17,17,17,17,17,17,17,17,17,17,17,17,
17,17,17,17,17,17,17,17,17,17,17,17,17,17,17,17,
17,17,17,17,17,17,17,17,17,17,17,17,17,17,17,17
</chunk>
   <chunk x="384" y="-80" width="16" height="16">
17,17,17,17,17,17,17,17,17,17,17,17,0,0,0,0,
17,17,0,0,0,0,0,0,0,0,0,0,0,0,0,0,
17,0,0,0,0,0,0,0,0,0,0,0,0,0,0,0,
0,0,0,0,0,0,0,0,0,0,0,0,0,0,0,0,
0,0,0,0,0,0,0,0,0,0,0,0,0,0,0,0,
0,0,0,0,0,0,0,0,0,0,0,0,0,0,0,0,
0,0,0,0,0,0,0,0,0,0,0,0,0,0,0,0,
0,0,0,0,0,0,0,0,0,0,0,0,0,0,0,0,
0,0,0,0,0,0,0,0,0,0,0,0,0,0,0,0,
0,0,0,0,0,0,0,0,0,0,0,0,0,0,0,0,
0,0,0,0,0,0,0,0,0,0,0,0,0,0,0,0,
0,0,0,0,0,0,0,0,0,0,0,0,0,0,0,0,
0,0,0,0,0,0,0,0,0,0,0,0,0,0,0,0,
0,0,0,0,0,0,0,0,0,0,0,0,0,0,0,0,
0,0,0,0,0,0,0,0,0,0,0,0,0,0,0,0,
0,0,0,0,0,0,0,0,0,0,0,0,0,0,0,0
</chunk>
   <chunk x="400" y="-80" width="16" height="16">
0,0,0,0,0,0,0,0,0,0,0,0,0,0,0,17,
0,0,0,0,0,0,0,0,0,0,0,0,0,0,0,17,
0,0,0,0,0,0,0,0,0,0,0,0,0,0,0,17,
0,0,0,0,0,0,0,0,0,0,0,0,0,0,0,17,
0,0,0,0,0,0,0,0,0,0,0,0,0,0,0,17,
0,0,0,0,0,0,0,0,0,0,0,0,0,0,0,17,
0,0,0,0,0,0,0,0,0,0,0,0,0,0,0,17,
0,0,0,0,0,0,0,0,0,0,0,0,0,0,0,17,
0,0,0,0,0,0,0,0,0,0,0,0,0,0,0,17,
0,0,0,0,0,0,0,0,0,0,0,0,0,0,0,17,
0,0,0,0,0,0,0,0,0,0,0,0,0,0,0,17,
0,0,0,0,0,0,0,0,0,0,0,0,0,0,0,17,
0,0,0,0,0,0,0,0,0,0,0,0,0,0,0,17,
0,0,0,0,0,0,0,0,0,0,0,0,0,0,0,17,
0,0,0,0,0,0,0,0,0,0,0,0,0,0,0,17,
0,0,0,0,0,0,0,0,0,0,0,0,0,0,0,17
</chunk>
   <chunk x="416" y="-80" width="16" height="16">
17,17,17,17,17,17,17,17,17,17,17,17,17,17,17,17,
17,17,17,17,17,17,17,17,17,17,17,17,17,17,17,17,
17,17,17,17,17,17,17,17,17,17,17,17,17,17,17,17,
17,17,17,17,17,17,17,17,17,17,17,17,17,17,17,17,
17,17,17,17,17,17,17,17,17,17,17,17,17,17,17,17,
17,17,17,17,17,17,17,17,17,17,17,17,17,17,17,17,
17,17,17,17,17,17,17,17,17,17,17,17,17,17,17,17,
17,17,17,17,17,17,17,17,17,17,17,17,17,17,17,17,
17,17,17,17,17,17,17,17,17,17,17,17,17,17,17,17,
17,17,17,17,17,17,17,17,17,17,17,17,17,17,17,17,
17,17,17,17,17,17,17,17,17,17,17,17,17,17,17,17,
17,17,17,17,17,17,17,17,17,17,17,17,17,17,17,17,
17,17,17,17,17,17,17,17,17,17,17,17,17,17,17,17,
17,17,17,17,17,17,17,17,17,17,17,17,17,17,17,17,
17,17,17,17,17,17,17,17,17,17,17,17,17,17,17,17,
17,17,17,17,17,17,17,17,17,17,17,17,17,17,17,17
</chunk>
   <chunk x="160" y="-64" width="16" height="16">
0,0,0,0,0,0,0,0,0,0,17,17,17,17,17,17,
0,0,0,0,0,0,0,0,0,0,17,17,17,17,17,17,
0,0,0,0,0,0,0,0,0,0,17,17,17,17,17,17,
0,0,0,0,0,0,0,0,0,0,17,17,17,17,17,17,
0,0,0,0,0,0,0,0,0,0,17,17,17,17,17,17,
0,0,0,0,0,0,0,0,0,0,17,17,17,17,17,17,
0,0,0,0,0,0,0,0,0,0,17,17,17,17,17,17,
0,0,0,0,0,0,0,0,0,0,17,17,17,17,17,17,
0,0,0,0,0,0,0,0,0,0,17,17,17,17,17,17,
0,0,0,0,0,0,0,0,0,0,17,17,17,17,17,17,
0,0,0,0,0,0,0,0,0,0,17,17,17,17,17,17,
0,0,0,0,0,0,0,0,0,0,17,17,17,17,17,17,
0,0,0,0,0,0,0,0,0,0,17,17,17,17,17,17,
0,0,0,0,0,0,0,0,0,0,17,17,17,17,17,17,
0,0,0,0,0,0,0,0,0,0,17,17,17,17,17,17,
0,0,0,0,0,0,0,0,0,0,17,17,17,17,17,17
</chunk>
   <chunk x="176" y="-64" width="16" height="16">
17,17,17,17,17,17,17,17,17,17,17,17,17,17,17,17,
17,17,17,17,17,17,17,17,17,17,17,17,17,17,17,17,
17,17,17,17,17,17,17,17,17,17,17,17,17,17,17,17,
17,17,17,17,17,17,17,17,17,17,17,17,17,17,17,17,
17,17,17,17,17,17,17,17,17,17,17,17,17,17,17,17,
17,17,17,17,17,17,17,17,17,17,17,17,17,17,17,17,
17,17,17,17,17,17,17,17,17,17,17,17,17,17,17,17,
17,17,17,17,17,17,17,17,17,17,17,17,17,17,17,17,
17,17,17,17,17,17,17,17,17,17,17,17,17,17,17,17,
17,17,17,17,17,17,17,17,17,17,17,17,17,17,17,17,
17,17,17,17,17,17,17,17,17,17,17,17,17,17,17,17,
17,17,17,17,17,17,17,17,17,17,17,17,17,17,17,17,
17,17,17,17,17,17,17,17,17,17,17,17,17,17,17,17,
17,17,17,17,17,17,17,17,17,17,17,17,17,17,17,17,
17,17,17,17,17,17,17,17,17,17,17,17,17,17,17,17,
17,17,17,17,17,17,17,17,17,17,17,17,17,17,17,17
</chunk>
   <chunk x="192" y="-64" width="16" height="16">
17,17,17,17,17,17,17,17,17,17,0,0,0,0,0,0,
17,17,17,17,17,17,17,17,17,17,0,0,0,0,0,0,
17,17,17,17,17,17,17,17,17,17,0,0,0,0,0,0,
17,17,17,17,17,17,17,17,17,17,0,0,0,0,0,0,
17,17,17,17,17,17,17,17,17,17,0,0,0,0,0,0,
17,17,17,17,17,17,17,17,17,17,0,0,0,0,0,0,
17,17,17,17,17,17,17,17,17,17,0,0,0,0,0,0,
17,17,17,17,17,17,17,17,17,17,0,0,0,0,0,0,
17,17,17,17,17,17,17,17,17,17,0,0,0,0,0,0,
17,17,17,17,17,17,17,17,17,17,0,0,0,0,0,0,
17,17,17,17,17,17,17,17,17,17,0,0,0,0,0,0,
17,17,17,17,17,17,17,17,17,17,0,0,0,0,0,0,
17,17,17,17,17,17,17,17,17,17,17,17,17,17,17,17,
17,17,17,17,17,17,17,17,17,17,17,17,17,17,17,17,
17,17,17,17,17,17,17,17,17,17,17,17,17,17,17,17,
17,17,17,17,17,17,17,17,17,17,17,17,17,17,17,17
</chunk>
   <chunk x="208" y="-64" width="16" height="16">
0,0,0,0,0,0,0,0,0,0,0,0,0,0,0,0,
0,0,0,0,0,0,0,0,0,0,0,0,0,0,0,0,
0,0,0,0,0,0,0,0,0,0,0,0,0,0,0,0,
0,0,0,0,0,0,0,0,0,0,0,0,0,0,0,0,
0,0,0,0,0,0,0,0,0,0,0,0,0,0,0,0,
0,0,0,0,0,0,0,0,0,0,0,0,0,0,0,0,
0,0,0,0,0,0,0,0,0,0,0,0,0,0,0,0,
0,0,0,0,0,0,0,0,0,0,0,0,0,0,0,0,
0,0,0,0,0,0,0,0,0,0,0,0,0,0,0,0,
0,0,0,0,0,0,0,0,0,0,0,0,0,0,0,0,
0,0,0,0,0,0,0,0,0,0,0,0,0,0,0,0,
0,0,0,0,0,0,0,0,0,0,0,0,0,0,0,0,
17,17,17,17,17,17,17,17,17,17,17,0,0,0,0,0,
17,17,17,17,17,17,17,17,17,17,17,0,0,0,0,0,
17,17,17,17,17,17,17,17,17,17,17,0,0,0,0,0,
17,17,17,17,17,17,17,17,17,17,17,0,0,0,0,0
</chunk>
   <chunk x="224" y="-64" width="16" height="16">
0,0,0,0,0,0,0,17,17,17,17,17,17,17,17,17,
0,0,0,0,0,0,0,17,17,17,17,17,17,17,17,17,
0,0,0,0,0,0,0,17,17,17,17,17,17,17,17,17,
0,0,0,0,0,0,0,17,17,17,17,17,17,17,17,17,
0,0,0,0,0,0,0,0,17,17,17,17,17,17,17,17,
0,0,0,0,0,0,0,0,0,17,17,17,17,17,17,17,
0,0,0,0,0,0,0,0,0,0,0,17,17,17,17,17,
0,0,0,0,0,0,0,0,0,0,0,0,0,0,0,0,
0,0,0,0,0,0,0,0,0,0,0,0,0,0,0,0,
0,0,0,0,0,0,0,0,0,0,0,0,0,0,0,0,
0,0,0,0,0,0,0,0,0,0,0,0,0,0,0,0,
0,0,0,0,0,0,0,0,0,0,0,0,0,0,0,0,
0,0,0,0,0,0,0,0,0,0,0,0,0,0,0,0,
0,0,0,0,0,0,0,0,0,0,0,0,0,0,0,0,
0,0,0,0,17,17,17,17,17,17,17,17,17,17,17,17,
0,0,0,0,17,17,17,17,17,17,17,17,17,17,17,17
</chunk>
   <chunk x="240" y="-64" width="16" height="16">
17,17,17,17,17,17,17,17,17,17,17,17,17,17,17,17,
17,17,17,17,17,17,17,17,17,17,17,17,17,17,17,17,
17,17,17,17,17,17,17,17,17,17,17,17,17,17,17,17,
17,17,17,17,17,17,17,17,17,17,17,17,17,17,17,17,
17,17,17,17,17,17,17,17,17,17,17,17,17,17,17,17,
17,17,17,17,17,17,17,17,17,17,17,17,17,17,17,17,
17,17,17,17,17,17,17,17,17,17,17,17,17,17,17,17,
0,0,0,0,17,17,17,17,17,17,17,17,17,17,17,17,
0,0,0,0,0,17,17,17,17,17,17,17,17,17,17,17,
0,0,0,0,0,0,17,17,17,17,17,17,17,17,17,17,
0,0,0,0,0,0,17,17,17,17,17,17,17,17,17,17,
0,0,0,0,0,0,17,17,17,17,17,17,17,17,17,17,
0,0,0,0,0,0,17,17,17,17,17,17,17,17,17,17,
0,0,0,0,0,0,17,17,17,17,17,17,17,17,17,17,
17,17,17,17,17,17,17,17,17,17,17,17,17,17,17,17,
17,17,17,17,17,17,17,17,17,17,17,17,17,17,17,17
</chunk>
   <chunk x="256" y="-64" width="16" height="16">
17,17,17,17,17,17,17,17,17,17,17,17,17,17,17,17,
17,17,17,17,17,17,17,17,17,17,17,17,17,17,17,17,
17,17,17,17,17,17,17,17,17,17,17,17,17,17,17,17,
17,17,17,17,17,17,17,17,17,17,17,17,17,17,17,17,
17,17,17,17,17,17,17,17,17,17,17,17,17,17,17,17,
17,17,17,17,17,17,17,17,17,17,17,17,17,17,17,17,
17,17,17,17,17,17,17,17,17,17,17,17,17,17,17,17,
17,17,17,17,17,17,17,17,17,17,17,17,17,17,17,17,
17,17,17,17,17,17,17,17,17,17,17,17,17,17,17,17,
17,17,17,17,17,17,17,17,17,17,17,17,17,17,17,17,
17,17,17,17,17,17,17,17,17,17,17,17,17,17,17,17,
17,17,17,17,17,17,17,17,17,17,17,17,17,17,17,17,
17,17,17,17,17,17,17,17,17,17,17,17,17,17,17,17,
17,17,17,17,17,17,17,17,17,17,17,17,17,17,17,17,
17,17,17,17,17,17,17,17,17,17,17,17,17,17,17,17,
17,17,17,17,17,17,17,17,17,17,17,17,17,17,17,17
</chunk>
   <chunk x="272" y="-64" width="16" height="16">
17,17,17,17,17,17,17,17,17,17,17,17,17,17,17,17,
17,17,17,17,17,17,17,17,17,17,17,17,17,17,17,17,
17,17,17,17,17,17,17,17,17,17,17,17,17,17,17,17,
17,17,17,17,17,17,17,17,17,17,17,17,17,17,17,17,
17,17,17,17,17,17,17,17,17,17,17,17,17,17,17,17,
17,17,17,17,17,17,17,17,17,17,17,17,17,17,17,17,
17,17,17,17,17,17,17,17,17,17,17,17,17,17,17,17,
17,17,17,17,17,17,17,17,17,17,17,17,17,17,17,17,
17,17,17,17,17,17,17,17,17,17,17,17,17,17,17,17,
17,17,17,17,17,17,17,17,17,17,17,17,17,17,17,17,
17,17,17,17,17,17,17,17,17,17,17,17,17,17,17,17,
17,17,17,17,17,17,17,17,17,17,17,17,17,17,17,17,
17,17,17,17,17,17,17,17,17,17,17,17,17,17,17,17,
17,17,17,17,17,17,17,17,17,17,17,17,17,17,17,17,
17,17,17,17,17,17,17,17,17,17,17,17,17,17,17,17,
17,17,17,17,17,17,17,17,17,17,17,17,17,17,17,17
</chunk>
   <chunk x="288" y="-64" width="16" height="16">
17,17,17,17,17,17,17,17,17,17,17,17,17,17,17,17,
17,17,17,17,17,17,17,17,17,17,17,17,17,17,17,17,
17,17,17,17,17,17,17,17,17,17,17,17,17,17,17,17,
17,17,17,17,17,17,17,17,17,17,17,17,17,17,17,17,
17,17,17,17,17,17,17,17,17,17,17,17,17,17,17,17,
17,17,17,17,17,17,17,17,17,17,17,17,17,17,17,17,
17,17,17,17,17,17,17,17,17,17,17,17,17,17,17,17,
17,17,17,17,17,17,17,17,17,17,17,17,17,17,17,17,
17,17,17,17,17,17,17,17,17,17,17,17,17,17,17,17,
17,17,17,17,17,17,17,17,17,17,17,17,17,17,17,17,
17,17,17,17,17,17,17,17,17,17,17,17,17,17,17,17,
17,17,17,17,17,17,17,17,17,17,17,17,17,17,17,17,
17,17,17,17,17,17,17,17,17,17,17,17,17,17,17,17,
17,17,17,17,17,17,17,17,17,17,17,17,17,17,17,17,
17,17,17,17,17,17,17,17,17,17,17,17,17,17,17,17,
17,17,17,17,17,17,17,17,17,17,17,17,17,17,17,17
</chunk>
   <chunk x="304" y="-64" width="16" height="16">
17,17,17,17,17,17,17,17,17,17,17,17,17,17,17,17,
17,17,17,17,17,17,17,17,17,17,17,17,17,17,17,17,
17,17,17,17,17,17,17,17,17,17,17,17,17,17,17,17,
17,17,17,17,17,17,17,17,17,17,17,17,17,17,17,17,
17,17,17,17,17,17,17,17,17,17,17,17,17,17,17,17,
17,17,17,17,17,17,17,17,17,17,17,17,17,17,17,17,
17,17,17,17,17,17,17,17,17,17,17,17,17,17,17,17,
17,17,17,17,17,17,17,17,17,17,17,17,17,17,17,17,
17,17,17,17,17,17,17,17,17,17,17,17,17,17,17,17,
17,17,17,17,17,17,17,17,17,17,17,17,17,17,17,17,
17,17,17,17,17,17,17,17,17,17,17,17,17,17,17,17,
17,17,17,17,17,17,17,17,17,17,17,17,17,17,17,17,
17,17,17,17,17,17,17,17,17,17,17,17,17,17,17,17,
17,17,17,17,17,17,17,17,17,17,17,17,17,17,17,17,
17,17,17,17,17,17,17,17,17,17,17,17,17,17,17,17,
17,17,17,17,17,17,17,17,17,17,17,17,17,17,17,17
</chunk>
   <chunk x="320" y="-64" width="16" height="16">
17,17,17,17,17,17,17,17,17,17,17,17,17,17,17,17,
17,17,17,17,17,17,17,17,17,17,17,17,17,17,17,17,
17,17,17,17,17,17,17,17,17,17,17,17,17,17,17,17,
17,17,17,17,17,17,17,17,17,17,17,17,17,17,17,17,
17,17,17,17,17,17,17,17,17,17,17,17,17,17,17,17,
17,17,17,17,17,17,17,17,17,17,17,17,17,17,17,17,
17,17,17,17,17,17,17,17,17,17,17,17,17,17,17,17,
17,17,17,17,17,17,17,17,17,17,17,17,17,17,17,17,
17,17,17,17,17,17,17,17,17,17,17,17,17,17,17,17,
17,17,17,17,17,17,17,17,17,17,17,17,17,17,17,17,
17,17,17,17,17,17,17,17,17,17,17,17,17,17,17,17,
17,17,17,17,17,17,17,17,17,17,17,17,17,17,17,17,
17,17,17,17,17,17,17,17,17,17,17,17,17,17,17,17,
17,17,17,17,17,17,17,17,17,17,17,17,17,17,17,17,
17,17,17,17,17,17,17,17,17,17,17,17,17,17,17,17,
17,17,17,17,17,17,17,17,17,17,17,17,17,17,17,17
</chunk>
   <chunk x="336" y="-64" width="16" height="16">
17,17,17,17,17,17,17,17,17,17,17,17,17,17,17,17,
17,17,17,17,17,17,17,17,17,17,17,17,17,17,17,17,
17,17,17,17,17,17,17,17,17,17,17,17,17,17,17,17,
17,17,17,17,17,17,17,17,17,17,17,17,17,17,17,17,
17,17,17,17,17,17,17,17,17,17,17,17,17,17,17,17,
17,17,17,17,17,17,17,17,17,17,17,17,17,17,17,17,
17,17,17,17,17,17,17,17,17,17,17,17,17,17,17,17,
17,17,17,17,17,17,17,17,17,17,17,17,17,17,17,17,
17,17,17,17,17,17,17,17,17,17,17,17,17,17,17,17,
17,17,17,17,17,17,17,17,17,17,17,17,17,17,17,17,
17,17,17,17,17,17,17,17,17,17,17,17,17,17,17,17,
17,17,17,17,17,17,17,17,17,17,17,17,17,17,17,17,
17,17,17,17,17,17,17,17,17,17,17,17,17,17,17,17,
17,17,17,17,17,17,17,17,17,17,17,17,17,17,17,17,
17,17,17,17,17,17,17,17,17,17,17,17,17,17,17,17,
17,17,17,17,17,17,17,17,17,17,17,17,17,17,17,17
</chunk>
   <chunk x="352" y="-64" width="16" height="16">
17,17,17,17,17,17,17,17,17,17,17,17,17,17,17,17,
17,17,17,17,17,17,17,17,17,17,17,17,17,17,17,17,
17,17,17,17,17,17,17,17,17,17,17,17,17,17,17,17,
17,17,17,17,17,17,17,17,17,17,17,17,17,17,17,17,
17,17,17,17,17,17,17,17,17,17,17,17,17,17,17,17,
17,17,17,17,17,17,17,17,17,17,17,17,17,17,17,17,
17,17,17,17,17,17,17,17,17,17,17,17,17,17,17,17,
17,17,17,17,17,17,17,17,17,17,17,17,17,17,17,17,
17,17,17,17,17,17,17,17,17,17,17,17,17,17,17,17,
17,17,17,17,17,17,17,17,17,17,17,17,17,17,17,17,
17,17,17,17,17,17,17,17,17,17,17,17,17,17,17,17,
17,17,17,17,17,17,17,17,17,17,17,17,17,17,17,17,
17,17,17,17,17,17,17,17,17,17,17,17,17,17,17,17,
17,17,17,17,17,17,17,17,17,17,17,17,17,17,17,17,
17,17,17,17,17,17,17,17,17,17,17,17,17,17,17,17,
17,17,17,17,17,17,17,17,17,17,17,17,17,17,17,17
</chunk>
   <chunk x="368" y="-64" width="16" height="16">
17,17,17,17,17,17,17,17,17,17,17,17,17,17,17,17,
17,17,17,17,17,17,17,17,17,17,17,17,17,17,17,17,
17,17,17,17,17,17,17,17,17,17,17,17,17,17,17,17,
17,17,17,17,17,17,17,17,17,17,17,17,17,17,17,17,
17,17,17,17,17,17,17,17,17,17,17,17,17,17,17,17,
17,17,17,17,17,17,17,17,17,17,17,17,17,17,17,17,
17,17,17,17,17,17,17,17,17,17,17,17,17,17,17,17,
17,17,17,17,17,17,17,17,17,17,17,17,17,17,17,17,
17,17,17,17,17,17,17,17,17,17,17,17,17,17,17,17,
17,17,17,17,17,17,17,17,17,17,17,17,17,17,17,17,
17,17,17,17,17,17,17,17,17,17,17,17,17,17,17,17,
17,17,17,17,17,17,17,17,17,17,17,17,17,17,17,17,
17,17,17,17,17,17,17,17,17,17,17,17,17,17,17,17,
17,17,17,17,17,17,17,17,17,17,17,17,17,17,17,17,
17,17,17,17,17,17,17,17,17,17,17,17,17,17,17,17,
17,17,17,17,17,17,17,17,17,17,17,17,17,17,17,17
</chunk>
   <chunk x="400" y="-64" width="16" height="16">
0,0,0,0,0,0,0,0,0,0,0,0,0,0,0,17,
0,0,0,0,0,0,0,0,0,0,0,0,0,0,0,17,
0,0,0,0,0,0,0,0,0,0,0,0,0,0,0,17,
0,0,0,0,0,0,0,0,0,0,0,0,0,0,0,17,
0,0,0,0,0,0,0,0,0,0,0,0,0,0,0,17,
0,0,0,0,0,0,0,0,0,0,0,0,0,0,0,17,
0,0,0,0,0,0,0,0,0,0,0,0,0,0,0,17,
0,0,0,0,0,0,0,0,0,0,0,0,0,0,0,17,
0,0,0,0,0,0,0,0,0,0,0,0,0,0,0,17,
0,0,0,0,0,0,0,0,0,0,0,0,0,0,0,17,
0,0,0,0,0,0,0,0,0,0,0,0,0,0,0,17,
0,0,0,0,0,0,0,0,0,0,0,0,0,0,0,17,
0,0,0,0,0,0,0,0,0,0,0,0,0,0,0,17,
0,0,0,0,0,0,0,0,0,0,0,0,0,0,0,17,
0,0,0,0,0,0,0,0,0,0,0,0,0,0,0,17,
0,0,0,0,0,0,0,0,0,0,0,0,0,0,0,17
</chunk>
   <chunk x="416" y="-64" width="16" height="16">
17,17,17,17,17,17,17,17,17,17,17,17,17,17,17,17,
17,17,17,17,17,17,17,17,17,17,17,17,17,17,17,17,
17,17,17,17,17,17,17,17,17,17,17,17,17,17,17,17,
17,17,17,17,17,17,17,17,17,17,17,17,17,17,17,17,
17,17,17,17,17,17,17,17,17,17,17,17,17,17,17,17,
17,17,17,17,17,17,17,17,17,17,17,17,17,17,17,17,
17,17,17,17,17,17,17,17,17,17,17,17,17,17,17,17,
17,17,17,17,17,17,17,17,17,17,17,17,17,17,17,17,
17,17,17,17,17,17,17,17,17,17,17,17,17,17,17,17,
17,17,17,17,17,17,17,17,17,17,17,17,17,17,17,17,
17,17,17,17,17,17,17,17,17,17,17,17,17,17,17,17,
17,17,17,17,17,17,17,17,17,17,17,17,17,17,17,17,
17,17,17,17,17,17,17,17,17,17,17,17,17,17,17,17,
17,17,17,17,17,17,17,17,17,17,17,17,17,17,17,17,
17,17,17,17,17,17,17,17,17,17,17,17,17,17,17,17,
17,17,17,17,17,17,17,17,17,17,17,17,17,17,17,17
</chunk>
   <chunk x="160" y="-48" width="16" height="16">
0,0,0,0,0,0,0,0,0,0,17,17,17,17,17,17,
0,0,0,0,0,0,0,0,0,0,17,17,17,17,17,17,
0,0,0,0,0,0,0,0,0,0,17,17,17,17,17,17,
0,0,0,0,0,0,0,0,0,0,17,17,17,17,17,17,
0,0,0,0,0,0,0,0,0,0,17,17,17,17,17,17,
0,0,0,0,0,0,0,0,0,0,17,17,17,17,17,17,
0,0,0,0,0,0,0,0,0,0,17,17,17,17,17,17,
0,0,0,0,0,0,0,0,0,0,17,17,17,17,17,17,
0,0,0,0,0,0,0,0,0,0,17,17,17,17,17,17,
0,0,0,0,0,0,0,0,0,0,17,17,17,17,17,17,
0,0,0,0,0,0,0,0,0,0,17,17,17,17,17,17,
0,0,0,0,0,0,0,0,0,0,17,17,17,17,17,17,
0,0,0,0,0,0,0,0,0,0,17,17,17,17,17,17,
0,0,0,0,0,0,0,0,0,0,17,17,17,17,17,17,
0,0,0,0,0,0,0,0,0,0,17,17,17,17,17,17,
0,0,0,0,0,0,0,0,0,0,17,17,17,17,17,17
</chunk>
   <chunk x="176" y="-48" width="16" height="16">
17,17,17,17,17,17,17,17,17,17,17,17,17,17,17,17,
17,17,17,17,17,17,17,17,17,17,17,17,17,17,17,17,
17,17,17,17,17,17,17,17,17,17,17,17,17,17,17,17,
17,17,17,17,17,17,17,17,17,17,17,17,17,17,17,17,
17,17,17,17,17,17,17,17,17,17,17,17,17,17,17,17,
17,17,17,17,17,17,17,17,17,17,17,17,17,17,17,17,
17,17,17,17,17,17,17,17,17,17,17,17,17,17,17,17,
17,17,17,17,17,17,17,17,17,17,17,17,17,17,17,17,
17,17,17,17,17,17,17,17,17,17,17,17,17,17,17,17,
17,17,17,17,17,17,17,17,17,17,17,17,17,17,17,17,
17,17,17,17,17,17,17,17,17,17,17,17,17,17,17,17,
17,17,17,17,17,17,17,17,17,17,17,17,17,17,17,17,
17,17,17,17,17,17,17,17,17,17,17,17,17,17,17,17,
17,17,17,17,17,17,17,17,17,17,17,17,17,17,17,17,
17,17,17,17,17,17,17,17,17,17,17,17,17,17,17,17,
17,17,17,17,17,17,17,17,17,17,17,17,17,17,17,17
</chunk>
   <chunk x="192" y="-48" width="16" height="16">
17,17,17,17,17,17,17,17,17,17,17,17,17,17,17,17,
17,17,17,17,17,17,17,17,17,17,17,17,17,17,17,17,
17,17,17,17,17,17,17,17,17,17,17,17,17,17,17,17,
17,17,17,17,17,17,17,17,17,17,17,17,17,17,17,17,
17,17,17,17,17,17,17,17,17,17,17,17,17,17,17,17,
17,17,17,17,17,17,17,17,17,17,17,17,17,17,17,17,
17,17,17,17,17,17,17,17,17,17,17,17,17,17,17,17,
17,17,17,17,17,17,17,17,17,17,17,17,17,17,17,17,
17,17,17,17,17,17,17,17,17,17,17,17,17,17,17,17,
17,17,17,17,17,17,17,17,17,17,17,17,17,17,17,17,
17,17,17,17,17,17,17,17,17,17,17,17,17,17,17,17,
17,17,17,17,17,17,17,17,17,17,17,17,17,17,17,17,
17,17,17,17,17,17,17,17,17,17,17,17,17,17,17,17,
17,17,17,17,17,17,17,17,17,17,17,17,17,17,17,17,
17,17,17,17,17,17,17,17,17,17,17,17,17,17,17,17,
17,17,17,17,17,17,17,17,17,17,17,17,17,17,17,17
</chunk>
   <chunk x="208" y="-48" width="16" height="16">
17,17,17,17,17,17,17,17,17,17,17,0,0,0,0,0,
17,17,17,17,17,17,17,17,17,17,17,0,0,0,0,0,
17,17,17,17,17,17,17,17,17,17,17,0,0,0,0,0,
17,17,17,17,17,17,17,17,17,17,17,0,0,0,0,0,
17,17,17,17,17,17,17,17,17,17,17,0,0,0,0,0,
17,17,17,17,17,17,17,17,17,17,17,0,0,0,0,0,
17,17,17,17,17,17,17,17,17,17,17,0,0,0,0,0,
17,17,17,17,17,17,17,17,17,17,17,0,0,0,0,0,
17,17,17,17,17,17,17,17,17,17,17,0,0,0,0,0,
17,17,17,17,17,17,17,17,17,17,17,0,0,0,0,0,
17,17,17,17,17,17,17,17,17,17,17,0,0,0,0,0,
17,17,17,17,17,17,17,17,17,17,17,0,0,0,0,0,
17,17,17,17,17,17,17,17,17,17,17,0,0,0,0,0,
17,17,17,17,17,17,17,17,17,17,17,0,0,0,0,0,
17,17,17,17,17,17,17,17,17,17,17,0,0,0,0,0,
17,17,17,17,17,17,17,17,17,17,17,0,0,0,0,0
</chunk>
   <chunk x="224" y="-48" width="16" height="16">
0,0,0,0,17,17,17,17,17,17,17,17,17,17,17,17,
0,0,0,0,17,17,17,17,17,17,17,17,17,17,17,17,
0,0,0,0,17,17,17,17,17,17,17,17,17,17,17,17,
0,0,0,0,17,17,17,17,17,17,17,17,17,17,17,17,
0,0,0,0,17,17,17,17,17,17,17,17,17,17,17,17,
0,0,0,0,17,17,17,17,17,17,17,17,17,17,17,17,
0,0,0,0,17,17,17,17,17,17,17,17,17,17,17,17,
0,0,0,0,17,17,17,17,17,17,17,17,17,17,17,17,
0,0,0,0,17,17,17,17,17,17,17,17,17,17,17,17,
0,0,0,0,17,17,17,17,17,17,17,17,17,17,17,17,
0,0,0,0,17,17,17,17,17,17,17,17,17,17,17,17,
0,0,0,0,17,17,17,17,17,17,17,17,17,17,17,17,
0,0,0,0,17,17,17,17,17,17,17,17,17,17,17,17,
0,0,0,0,17,17,17,17,17,17,17,17,17,17,17,17,
0,0,0,0,17,17,17,17,17,17,17,17,17,17,17,17,
0,0,0,0,17,17,17,17,17,17,17,17,17,17,17,17
</chunk>
   <chunk x="240" y="-48" width="16" height="16">
17,17,17,17,17,17,17,17,17,17,17,17,17,17,17,17,
17,17,17,17,17,17,17,17,17,17,17,17,17,17,17,17,
17,17,17,17,17,17,17,17,17,17,17,17,17,17,17,17,
17,17,17,17,17,17,17,17,17,17,17,17,17,17,17,17,
17,17,17,17,17,17,17,17,17,17,17,17,17,17,17,17,
17,17,17,17,17,17,17,17,17,17,17,17,17,17,17,17,
17,17,17,17,17,17,17,17,17,17,17,17,17,17,17,17,
17,17,17,17,17,17,17,17,17,17,17,17,17,17,17,17,
17,17,17,17,17,17,17,17,17,17,17,17,17,17,17,17,
17,17,17,17,17,17,17,17,17,17,17,17,17,17,17,17,
17,17,17,17,17,17,17,17,17,17,17,17,17,17,17,17,
17,17,17,17,17,17,17,17,0,0,0,0,0,0,0,0,
17,17,17,17,17,17,17,17,0,0,0,0,0,0,0,0,
17,17,17,17,17,17,17,17,0,0,0,0,0,0,0,0,
17,17,17,17,17,17,17,17,0,0,0,0,0,0,0,0,
17,17,17,17,17,17,17,17,0,0,0,0,0,0,0,0
</chunk>
   <chunk x="256" y="-48" width="16" height="16">
17,17,17,17,17,17,17,17,17,17,17,17,17,17,17,17,
17,17,17,17,17,17,17,17,17,17,17,17,17,17,17,17,
17,17,17,17,17,17,17,17,17,17,17,17,17,17,17,17,
17,17,17,17,17,17,17,17,17,17,17,17,17,17,17,17,
17,17,17,17,17,17,17,17,17,17,17,17,17,17,17,17,
17,17,17,17,17,17,17,17,17,17,17,17,17,17,17,17,
17,17,17,17,17,17,17,17,17,17,17,17,17,17,17,17,
17,17,17,17,17,17,17,17,17,17,17,17,17,17,17,17,
17,17,17,17,17,17,17,17,17,17,17,17,17,17,17,17,
17,17,17,17,17,17,17,17,17,17,17,17,17,17,17,17,
17,17,17,17,17,17,17,17,17,17,17,17,17,17,17,17,
0,0,0,0,0,0,0,0,0,0,0,0,0,0,0,0,
0,0,0,0,0,0,0,0,0,0,0,0,0,0,0,0,
0,0,0,0,0,0,0,0,0,0,0,0,0,0,0,0,
0,0,0,0,0,0,0,0,0,0,0,0,0,0,0,0,
0,0,0,0,0,0,0,0,0,0,0,0,0,0,0,0
</chunk>
   <chunk x="272" y="-48" width="16" height="16">
17,17,17,17,17,17,17,17,17,17,17,17,17,17,17,17,
17,17,17,17,17,17,17,17,17,17,17,17,17,17,17,17,
17,17,17,17,17,17,17,17,17,17,17,17,17,17,17,17,
17,17,17,17,17,17,17,17,17,17,17,17,17,17,17,17,
17,17,17,17,17,17,17,17,17,17,17,17,17,17,17,17,
17,17,17,17,17,17,17,17,17,17,17,17,17,17,17,17,
17,17,17,17,17,17,17,17,17,17,17,17,17,17,17,17,
17,17,17,17,17,17,17,17,17,17,17,17,17,17,17,17,
17,17,17,17,17,17,17,17,17,17,17,17,17,17,17,17,
17,17,17,17,17,17,17,17,17,17,17,17,17,17,17,17,
17,17,17,17,17,17,17,17,17,17,17,17,17,17,17,17,
0,0,0,0,0,0,0,0,0,0,0,0,0,0,0,0,
0,0,0,0,0,0,0,0,0,0,0,0,0,0,0,0,
0,0,0,0,0,0,0,0,0,0,0,0,0,0,0,0,
0,0,0,0,0,0,0,0,0,0,0,0,0,0,0,0,
0,0,0,0,0,0,0,0,0,0,0,0,0,0,0,0
</chunk>
   <chunk x="288" y="-48" width="16" height="16">
17,17,17,17,17,17,17,17,17,17,17,17,17,17,17,17,
17,17,17,17,17,17,17,17,17,17,17,17,17,17,17,17,
17,17,17,17,17,17,17,17,17,17,17,17,17,17,17,17,
17,17,17,17,17,17,17,17,17,17,17,17,17,17,17,17,
17,17,17,17,17,17,17,17,17,17,17,17,17,17,17,17,
17,17,17,17,17,17,17,17,17,17,17,17,17,17,17,17,
17,17,17,17,17,17,17,17,17,17,17,17,17,17,17,17,
17,17,17,17,17,17,17,17,17,17,17,17,17,17,17,17,
17,17,17,17,17,17,17,17,17,17,17,17,17,17,17,17,
17,17,17,17,17,17,17,17,17,17,17,17,17,17,17,17,
17,17,17,17,17,17,17,17,17,17,17,17,17,17,17,17,
0,0,0,0,0,0,0,0,0,0,0,0,0,0,0,0,
0,0,0,0,0,0,0,0,0,0,0,0,0,0,0,0,
0,0,0,0,0,0,0,0,0,0,0,0,0,0,0,0,
0,0,0,0,0,0,0,0,0,0,0,0,0,0,0,0,
0,0,0,0,0,0,0,0,0,0,0,0,0,0,0,0
</chunk>
   <chunk x="304" y="-48" width="16" height="16">
17,17,17,17,17,17,17,17,17,17,17,17,17,17,17,17,
17,17,17,17,17,17,17,17,17,17,17,17,17,17,17,17,
17,17,17,17,17,17,17,17,17,17,17,17,17,17,17,17,
17,17,17,17,17,17,17,17,17,17,17,17,17,17,17,17,
17,17,17,17,17,17,17,17,17,17,17,17,17,17,17,17,
17,17,17,17,17,17,17,17,17,17,17,17,17,17,17,17,
17,17,17,17,17,17,17,17,17,17,17,17,17,17,17,17,
17,17,17,17,17,17,17,17,17,17,17,17,17,17,17,17,
17,17,17,17,17,17,17,17,17,17,17,17,17,17,17,17,
17,17,17,17,17,17,17,17,17,17,17,17,17,17,17,17,
17,17,17,17,17,17,17,17,17,17,17,17,17,17,17,17,
17,17,17,17,17,17,17,17,17,17,17,17,17,17,0,0,
17,17,17,17,17,17,17,17,17,17,17,17,17,0,0,0,
17,17,17,17,17,17,17,17,17,17,17,17,0,0,0,0,
17,17,17,17,17,17,17,17,17,17,17,17,0,0,0,0,
17,17,17,17,17,17,17,17,17,17,17,17,0,0,0,0
</chunk>
   <chunk x="320" y="-48" width="16" height="16">
17,17,17,17,17,17,17,17,17,17,17,17,17,17,17,17,
17,17,17,17,17,17,17,17,17,17,17,17,17,17,17,17,
17,17,17,17,17,17,17,17,17,17,17,17,17,17,17,17,
17,17,17,17,17,17,17,17,17,17,17,17,17,17,17,17,
17,17,17,17,17,17,17,17,17,17,17,17,17,17,17,17,
17,17,17,17,17,17,17,17,17,17,17,17,17,17,17,17,
17,17,17,17,17,17,17,17,17,17,17,17,17,17,17,17,
17,17,17,17,17,17,17,17,17,17,17,17,17,17,17,17,
17,17,17,17,17,17,17,17,17,17,17,17,17,17,17,17,
17,17,17,17,17,17,17,17,17,17,17,17,17,17,17,17,
17,17,17,17,17,17,17,17,17,17,17,17,17,17,17,17,
0,0,0,0,0,0,0,0,0,0,0,0,0,0,0,0,
0,0,0,0,0,0,0,0,0,0,0,0,0,0,0,0,
0,0,0,0,0,0,0,0,0,0,0,0,0,0,0,0,
0,0,0,0,0,0,0,0,0,0,0,0,0,0,0,0,
0,0,0,0,0,0,0,0,0,0,0,0,0,0,0,0
</chunk>
   <chunk x="336" y="-48" width="16" height="16">
17,17,17,17,17,17,17,17,17,17,17,17,17,17,17,17,
17,17,17,17,17,17,17,17,17,17,17,17,17,17,17,17,
17,17,17,17,17,17,17,17,17,17,17,17,17,17,17,17,
17,17,17,17,17,17,17,17,17,17,17,17,17,17,17,17,
17,17,17,17,17,17,17,17,17,17,17,17,17,17,17,17,
17,17,17,17,17,17,17,17,17,17,17,17,17,17,17,17,
17,17,17,17,17,17,17,17,17,17,17,17,17,17,17,17,
17,17,17,17,17,17,17,17,17,17,17,17,17,17,17,17,
17,17,17,17,17,17,17,17,17,17,17,17,17,17,17,17,
17,17,17,17,17,17,17,17,17,17,17,17,17,17,17,17,
17,17,17,17,17,17,17,17,17,17,17,17,17,17,17,17,
0,0,0,0,0,0,0,0,0,0,0,0,0,0,0,0,
0,0,0,0,0,0,0,0,0,0,0,0,0,0,0,0,
0,0,0,0,0,0,0,0,0,0,0,0,0,0,0,0,
0,0,0,0,0,0,0,0,0,0,0,0,0,0,0,0,
0,0,0,0,0,0,0,0,0,0,0,0,0,0,0,0
</chunk>
   <chunk x="352" y="-48" width="16" height="16">
17,17,17,17,17,17,17,17,17,17,17,17,17,17,17,17,
17,17,17,17,17,17,17,17,17,17,17,17,17,17,17,17,
17,17,17,17,17,17,17,17,17,17,17,17,17,17,17,17,
17,17,17,17,17,17,17,17,17,17,17,17,17,17,17,17,
17,17,17,17,17,17,17,17,17,17,17,17,17,17,17,17,
17,17,17,17,17,17,17,17,17,17,17,17,17,17,17,17,
17,17,17,17,17,17,17,17,17,17,17,17,17,17,17,17,
17,17,17,17,17,17,17,17,17,17,17,17,17,17,17,17,
17,17,17,17,17,17,17,17,17,17,17,17,17,17,17,17,
17,17,17,17,17,17,17,17,17,17,17,17,17,17,17,17,
17,17,17,17,17,17,17,17,17,17,17,17,17,17,17,17,
0,0,0,0,0,0,0,0,0,0,0,0,0,0,0,0,
0,0,0,0,0,0,0,0,0,0,0,0,0,0,0,0,
0,0,0,0,0,0,0,0,0,0,0,0,0,0,0,0,
0,0,0,0,0,0,0,0,0,0,0,0,0,0,0,0,
0,0,0,0,0,0,0,0,0,0,0,0,0,0,0,0
</chunk>
   <chunk x="368" y="-48" width="16" height="16">
17,17,17,17,17,17,17,17,17,17,17,17,17,17,17,17,
17,17,17,17,17,17,17,17,17,17,17,17,17,17,17,17,
17,17,17,17,17,17,17,17,17,17,17,17,17,17,17,17,
17,17,17,17,17,17,17,17,17,17,17,17,17,17,17,17,
17,17,17,17,17,17,17,17,17,17,17,17,17,17,17,17,
17,17,17,17,17,17,17,17,17,17,17,17,17,17,17,17,
17,17,17,17,17,17,17,17,17,17,17,17,17,17,17,0,
17,17,17,17,17,17,17,17,17,17,17,17,17,17,0,0,
17,17,17,17,17,17,17,17,17,17,17,17,17,0,0,0,
17,17,17,17,17,17,17,17,17,17,17,17,17,0,0,0,
17,17,17,17,17,17,17,0,0,0,0,0,0,0,0,0,
0,0,0,0,0,0,0,0,0,0,0,0,0,0,0,0,
0,0,0,0,0,0,0,0,0,0,0,0,0,0,0,0,
0,0,0,0,0,0,0,0,0,0,0,0,0,0,0,0,
0,0,0,0,0,0,0,0,0,0,0,0,0,0,0,0,
0,0,0,0,0,0,0,0,0,0,0,0,0,0,0,0
</chunk>
   <chunk x="400" y="-48" width="16" height="16">
0,0,0,0,0,0,0,0,0,0,0,0,0,0,0,17,
0,0,0,0,0,0,0,0,0,0,0,0,0,0,0,17,
0,0,0,0,0,0,0,0,0,0,0,0,0,0,0,17,
0,0,0,0,0,0,0,0,0,0,0,0,0,0,0,17,
0,0,0,0,0,0,0,0,0,0,0,0,0,0,0,17,
0,0,0,0,0,0,0,0,0,0,0,0,0,0,0,17,
0,0,0,0,0,0,0,0,0,0,0,0,0,0,0,17,
0,0,0,0,0,0,0,0,0,0,0,0,0,0,0,17,
0,0,0,0,0,0,0,0,0,0,0,0,0,0,0,17,
0,0,0,0,0,0,0,0,0,0,0,0,0,0,0,17,
0,0,0,0,0,0,0,0,0,0,0,0,0,0,0,17,
0,0,0,0,0,0,0,0,0,0,0,0,0,0,0,17,
0,0,0,0,0,0,0,0,0,0,0,0,0,0,0,17,
0,0,0,0,0,0,0,0,0,0,0,0,0,0,0,17,
0,0,0,0,0,0,0,0,0,0,0,0,0,0,0,17,
0,0,0,0,0,0,0,0,0,0,0,0,0,0,0,17
</chunk>
   <chunk x="416" y="-48" width="16" height="16">
17,17,17,17,17,17,17,17,17,17,17,17,17,17,17,17,
17,17,17,17,17,17,17,17,17,17,17,17,17,17,17,17,
17,17,17,17,17,17,17,17,17,17,17,17,17,17,17,17,
17,17,17,17,17,17,17,17,17,17,17,17,17,17,17,17,
17,17,17,17,17,17,17,17,17,17,17,17,17,17,17,17,
17,17,17,17,17,17,17,17,17,17,17,17,17,17,17,17,
17,17,17,17,17,17,17,17,17,17,17,17,17,17,17,17,
17,17,17,17,17,17,17,17,17,17,17,17,17,17,17,17,
17,17,17,17,17,17,17,17,17,17,17,17,17,17,17,17,
17,17,17,17,17,17,17,17,17,17,17,17,17,17,17,17,
17,17,17,17,17,17,17,17,17,17,17,17,17,17,17,17,
17,17,17,17,17,17,17,17,17,17,17,17,17,17,17,17,
17,17,17,17,17,17,17,17,17,17,17,17,17,17,17,17,
17,17,17,17,17,17,17,17,17,17,17,17,17,17,17,17,
17,17,17,17,17,17,17,17,17,17,17,17,17,17,17,17,
17,17,17,17,17,17,17,17,17,17,17,17,17,17,17,17
</chunk>
   <chunk x="160" y="-32" width="16" height="16">
0,0,0,0,0,0,0,0,0,0,17,17,17,17,17,17,
0,0,0,0,0,0,0,0,0,0,17,17,17,17,17,17,
0,0,0,0,0,0,0,0,0,0,17,17,17,17,17,17,
0,0,0,0,0,0,0,0,0,0,17,17,17,17,17,17,
0,0,0,0,0,0,0,0,0,0,17,17,17,17,17,17,
0,0,0,0,0,0,0,0,0,0,17,17,17,17,17,17,
0,0,0,0,0,0,0,0,0,0,17,17,17,17,17,17,
0,0,0,0,0,0,0,0,0,0,17,17,17,17,17,17,
0,0,0,0,0,0,0,0,0,0,17,17,17,17,17,17,
0,0,0,0,0,0,0,0,0,0,17,17,17,17,17,17,
0,0,0,0,0,0,0,0,0,0,17,17,17,17,17,17,
0,0,0,0,0,0,0,0,0,0,17,17,17,17,17,17,
0,0,0,0,0,0,0,0,0,0,17,17,17,17,17,17,
0,0,0,0,0,0,0,0,0,0,17,17,17,17,17,17,
0,0,0,0,0,0,0,0,0,0,17,17,17,17,17,17,
0,0,0,0,0,0,0,0,0,0,17,17,17,17,17,17
</chunk>
   <chunk x="176" y="-32" width="16" height="16">
17,17,17,17,17,17,17,17,17,17,17,17,17,17,17,17,
17,17,17,17,17,17,17,17,17,17,17,17,17,17,17,17,
17,17,17,17,17,17,17,17,17,17,17,17,17,17,17,17,
17,17,17,17,17,17,17,17,17,17,17,17,17,17,17,17,
17,17,17,17,17,17,17,17,17,17,17,17,17,17,17,17,
17,17,17,17,17,17,17,17,17,17,17,17,17,17,17,17,
17,17,17,17,17,17,17,17,17,17,17,17,17,17,17,17,
17,17,17,17,17,17,17,17,17,17,17,17,17,17,17,17,
17,17,17,17,17,17,17,17,17,17,17,17,17,17,17,17,
17,17,17,17,17,17,17,17,17,17,17,17,17,17,17,17,
17,17,17,17,17,17,17,17,17,17,17,17,17,17,17,17,
17,17,17,17,17,17,17,17,17,17,17,17,17,17,17,17,
17,17,17,17,17,17,17,17,17,17,17,17,17,17,17,17,
17,17,17,17,17,17,17,17,17,17,17,17,17,17,17,17,
17,17,17,17,17,17,17,17,17,17,17,17,17,17,17,17,
17,17,17,17,17,17,17,17,17,17,17,17,17,17,17,17
</chunk>
   <chunk x="192" y="-32" width="16" height="16">
17,17,17,17,17,17,17,17,17,17,17,17,17,17,17,17,
17,17,17,17,17,17,17,17,17,17,17,17,17,17,17,17,
17,17,17,17,17,17,17,17,17,17,17,17,17,17,17,17,
17,17,17,17,17,17,17,17,17,17,17,17,17,17,17,17,
17,17,17,17,17,17,17,17,17,17,17,17,17,17,17,17,
17,17,17,17,17,17,17,17,17,17,17,17,17,17,17,17,
17,17,17,17,17,17,17,17,17,17,17,17,17,17,17,17,
17,17,17,17,17,17,17,17,17,17,17,17,17,17,17,17,
17,17,17,17,17,17,17,17,17,17,17,17,17,17,17,17,
17,17,17,17,17,17,17,17,17,17,17,17,17,17,17,17,
17,17,17,17,17,17,17,17,17,17,17,17,17,17,17,17,
17,17,17,17,17,17,17,17,17,17,17,17,17,17,17,17,
17,17,17,17,17,17,17,17,17,17,17,17,17,17,17,17,
17,17,17,17,17,17,17,17,17,17,17,17,17,17,17,17,
17,17,17,17,17,17,17,17,17,17,17,17,17,17,17,17,
17,17,17,17,17,17,17,17,17,17,17,17,17,17,17,17
</chunk>
   <chunk x="208" y="-32" width="16" height="16">
17,17,17,17,17,17,17,17,17,17,17,0,0,0,0,0,
17,17,17,17,17,17,17,17,17,17,17,0,0,0,0,0,
17,17,17,17,17,17,17,17,17,17,17,0,0,0,0,0,
17,17,17,17,17,17,17,17,17,17,17,0,0,0,0,0,
17,17,17,17,17,17,17,17,17,17,17,0,0,0,0,0,
17,17,17,17,17,17,17,17,17,17,17,0,0,0,0,0,
17,17,17,17,17,17,17,17,17,17,17,0,0,0,0,0,
17,17,17,17,17,17,17,17,17,17,17,0,0,0,0,0,
17,17,17,17,17,17,17,17,17,17,17,0,0,0,0,0,
17,17,17,17,17,17,17,17,17,17,17,0,0,0,0,0,
17,17,17,17,17,17,17,17,17,17,17,0,0,0,0,0,
17,17,17,17,17,17,17,17,17,17,17,0,0,0,0,0,
17,17,17,17,17,17,17,17,17,17,17,0,0,0,0,0,
17,17,17,17,17,17,17,17,17,17,17,0,0,0,0,0,
17,17,17,17,17,17,17,17,17,17,17,0,0,0,0,0,
17,17,17,17,17,17,17,17,17,17,17,0,0,0,0,0
</chunk>
   <chunk x="224" y="-32" width="16" height="16">
0,0,0,0,17,17,17,17,17,17,17,17,17,17,17,17,
0,0,0,0,17,17,17,17,17,17,17,17,17,17,17,17,
0,0,0,0,17,17,17,17,17,17,17,17,17,17,17,17,
0,0,0,0,17,17,17,17,17,17,17,17,17,17,17,17,
0,0,0,0,17,17,17,17,17,17,17,17,17,17,17,17,
0,0,0,0,17,17,17,17,17,17,17,17,17,17,17,17,
0,0,0,0,17,17,17,17,17,17,17,17,17,17,17,17,
0,0,0,0,17,17,17,17,17,17,17,17,17,17,17,17,
0,0,0,0,0,17,17,17,17,17,17,17,17,17,17,17,
0,0,0,0,0,0,17,17,17,17,17,17,17,17,17,17,
0,0,0,0,0,0,0,0,0,0,0,0,0,0,0,0,
0,0,0,0,0,0,0,0,0,0,0,0,0,0,0,0,
0,0,0,0,0,0,0,0,0,0,0,0,0,0,0,0,
0,0,0,0,0,0,0,0,0,0,0,0,0,0,0,0,
0,0,0,0,0,0,0,0,0,0,0,0,0,0,0,0,
0,0,0,0,0,0,0,0,0,0,0,0,0,0,0,0
</chunk>
   <chunk x="240" y="-32" width="16" height="16">
17,17,17,17,17,17,17,17,0,0,0,0,0,0,0,0,
17,17,17,17,17,17,17,17,0,0,0,0,0,0,0,0,
17,17,17,17,17,17,17,17,0,0,0,0,0,0,0,0,
17,17,17,17,17,17,17,17,0,0,0,0,0,0,0,0,
17,17,17,17,17,17,17,17,0,0,0,0,0,0,0,0,
17,17,17,17,17,17,17,17,0,0,0,0,0,0,0,0,
17,17,17,17,17,17,17,17,0,0,0,0,0,0,0,0,
17,17,17,17,17,17,17,0,0,0,0,0,0,0,0,0,
17,17,17,17,17,17,0,0,0,0,0,0,0,0,0,0,
17,17,17,17,17,17,0,0,0,0,0,0,0,0,0,0,
0,0,0,0,0,0,0,0,0,0,0,0,0,0,0,0,
0,0,0,0,0,0,0,0,0,0,0,0,0,0,0,0,
0,0,0,0,0,0,0,0,0,0,0,0,0,0,0,0,
0,0,0,0,0,0,0,0,0,0,0,0,0,0,0,0,
0,0,0,0,0,0,0,0,0,0,0,0,0,0,0,0,
0,0,0,0,0,0,0,0,0,0,0,0,0,0,0,0
</chunk>
   <chunk x="272" y="-32" width="16" height="16">
0,0,0,0,0,0,0,0,0,0,0,0,0,0,0,0,
0,0,0,0,0,0,0,0,0,0,0,0,0,0,0,0,
0,0,0,0,0,0,0,0,0,0,0,0,0,0,0,0,
0,0,0,0,0,0,0,0,0,0,0,0,0,0,0,0,
0,0,0,0,0,0,0,0,0,0,0,17,17,17,17,17,
0,0,0,0,0,0,0,0,0,0,0,17,17,17,17,17,
0,0,0,0,0,0,0,0,0,0,0,0,17,17,17,17,
0,0,0,0,0,0,0,0,0,0,0,0,0,0,17,17,
0,0,0,0,0,0,0,0,0,0,0,0,0,0,0,17,
0,0,0,0,0,0,0,0,0,0,0,0,0,0,0,0,
0,0,0,0,0,0,0,0,0,0,0,0,0,0,0,0,
0,0,0,0,0,0,0,0,0,0,0,0,0,0,0,0,
0,0,0,0,0,0,0,0,0,0,0,0,0,0,0,0,
0,0,0,0,0,0,0,0,0,0,0,0,0,0,0,0,
0,0,0,0,0,0,0,0,0,0,0,0,0,0,0,0,
0,0,0,0,0,0,0,0,0,0,0,0,0,0,0,0
</chunk>
   <chunk x="288" y="-32" width="16" height="16">
0,0,0,0,0,0,0,0,0,0,0,0,0,0,0,0,
0,0,0,0,0,0,0,0,0,0,0,0,0,0,0,0,
0,0,0,0,0,0,0,0,0,0,0,0,0,0,0,0,
0,0,0,0,0,0,0,0,0,0,0,0,0,0,0,0,
17,17,17,17,0,0,0,0,0,0,0,0,0,0,0,0,
17,17,17,17,0,0,0,0,0,0,0,0,0,0,0,0,
17,17,17,17,17,17,17,17,17,17,17,17,17,17,17,17,
17,17,17,17,17,17,17,17,17,17,17,17,17,17,17,17,
17,17,17,17,17,17,17,17,17,17,17,17,17,17,17,17,
17,17,17,17,17,17,17,17,17,17,17,17,17,17,17,17,
17,17,17,17,17,17,17,17,17,17,17,17,17,17,17,17,
0,0,0,0,0,0,0,0,0,0,0,0,0,0,0,0,
0,0,0,0,0,0,0,0,0,0,0,0,0,0,0,0,
0,0,0,0,0,0,0,0,0,0,0,0,0,0,0,0,
0,0,0,0,0,0,0,0,0,0,0,0,0,0,0,0,
0,0,0,0,0,0,0,0,0,0,0,0,0,0,0,0
</chunk>
   <chunk x="304" y="-32" width="16" height="16">
17,17,17,17,17,17,17,17,17,17,17,17,0,0,0,0,
17,17,17,17,17,17,17,17,17,17,17,17,0,0,0,0,
17,17,17,17,17,17,17,17,17,17,17,17,0,0,0,0,
17,17,17,17,17,17,17,17,17,17,17,17,0,0,0,0,
17,17,17,17,17,17,17,17,17,17,17,17,0,0,0,0,
17,17,17,17,17,17,17,17,17,17,17,17,0,0,0,0,
17,17,17,17,17,17,17,17,17,17,17,17,0,0,0,0,
17,17,17,17,17,17,17,17,17,17,17,17,0,0,0,0,
17,17,17,17,17,17,17,17,17,17,17,17,0,0,0,0,
17,17,17,17,17,17,17,17,17,17,17,0,0,0,0,0,
17,17,17,17,17,17,17,17,17,17,0,0,0,0,0,0,
0,0,0,0,0,0,0,0,0,0,0,0,0,0,0,0,
0,0,0,0,0,0,0,0,0,0,0,0,0,0,0,0,
0,0,0,0,0,0,0,0,0,0,0,0,0,0,0,0,
0,0,0,0,0,0,0,0,0,0,0,0,0,0,0,0,
0,0,0,0,0,0,0,0,0,0,0,0,0,0,0,0
</chunk>
   <chunk x="336" y="-32" width="16" height="16">
0,0,0,0,0,0,0,0,0,0,0,0,0,0,0,0,
0,0,0,0,17,17,17,17,17,17,17,17,17,17,17,17,
0,0,0,0,17,17,17,17,17,17,17,17,17,17,17,17,
0,0,0,0,0,0,0,0,0,0,0,0,0,0,0,0,
0,0,0,0,0,0,0,0,0,0,0,0,0,0,0,0,
0,0,0,0,0,0,0,0,0,0,0,0,0,0,0,0,
0,0,0,0,0,0,0,0,0,0,0,0,0,0,0,0,
0,0,0,0,0,0,0,0,0,0,0,0,0,0,0,0,
0,0,0,0,0,0,0,0,0,0,0,0,0,0,0,0,
0,0,0,0,0,0,0,0,0,0,0,0,0,0,0,0,
0,0,0,0,0,0,0,0,0,0,0,0,0,0,0,0,
0,0,0,0,0,0,0,0,0,0,0,0,0,0,0,0,
0,0,0,0,0,0,0,0,0,0,0,0,0,0,0,0,
0,0,0,0,0,0,0,0,0,0,0,0,0,0,0,0,
0,0,0,0,0,0,0,0,0,0,0,0,0,0,0,0,
0,0,0,0,0,0,0,0,0,0,0,0,0,0,0,0
</chunk>
   <chunk x="352" y="-32" width="16" height="16">
0,0,0,0,0,0,0,0,0,0,0,0,0,0,0,0,
17,17,17,17,17,17,17,17,17,17,17,17,17,0,0,0,
17,17,17,17,17,17,17,17,17,17,17,17,17,0,0,0,
0,17,17,17,0,0,0,0,0,0,0,0,0,0,0,0,
0,17,17,17,0,0,0,0,0,0,0,0,0,0,0,0,
0,17,17,17,0,0,0,0,0,0,0,0,0,0,0,0,
0,17,17,17,0,0,0,0,0,0,0,0,0,0,0,0,
0,17,17,17,0,0,0,0,0,0,0,0,0,0,0,0,
0,17,17,17,0,0,0,0,0,0,0,0,0,0,0,0,
0,17,17,17,0,0,0,0,0,0,0,0,0,0,0,0,
0,17,17,17,0,0,0,0,0,0,0,0,0,0,0,0,
0,0,0,0,0,0,0,0,0,0,0,0,0,0,0,0,
0,0,0,0,0,0,0,0,0,0,0,0,0,0,0,0,
0,0,0,0,0,0,0,0,0,0,0,0,0,0,0,0,
0,0,0,0,0,0,0,0,0,0,0,0,0,0,0,0,
0,0,0,0,0,0,0,0,0,0,0,0,0,0,0,0
</chunk>
   <chunk x="368" y="-32" width="16" height="16">
0,0,0,0,0,0,0,0,0,0,0,0,0,0,0,0,
0,0,0,0,0,0,0,0,0,0,0,0,0,0,0,0,
0,0,0,0,0,0,0,0,0,0,0,0,0,0,0,0,
0,0,0,0,0,0,0,0,0,0,0,0,0,0,0,0,
0,0,0,0,0,0,0,0,0,0,0,0,0,0,0,0,
0,0,0,0,0,0,0,0,0,0,0,0,0,0,0,0,
0,0,0,0,0,0,0,0,0,0,0,0,0,0,0,0,
0,0,0,0,0,0,0,0,0,0,0,0,0,0,0,0,
0,0,0,0,0,0,0,0,0,0,0,0,0,0,0,0,
0,0,0,0,0,0,0,0,0,0,0,0,0,0,0,0,
0,17,17,17,17,17,17,17,17,17,17,17,17,17,17,17,
0,17,17,17,17,17,17,17,17,17,17,17,17,17,17,17,
0,17,17,17,17,17,17,17,17,17,17,17,17,17,17,17,
0,17,17,17,17,17,17,17,17,17,17,17,17,17,17,17,
0,17,17,17,17,17,17,17,17,17,17,17,17,17,17,17,
0,17,17,17,17,17,17,17,17,17,17,17,17,17,17,17
</chunk>
   <chunk x="384" y="-32" width="16" height="16">
0,0,0,0,0,0,0,0,0,0,0,0,0,0,0,0,
0,0,0,0,0,0,0,0,0,0,0,0,0,0,0,0,
0,0,0,0,0,0,0,0,0,0,0,0,0,0,0,0,
0,0,0,0,0,0,0,0,0,0,0,0,0,0,0,0,
0,0,0,0,0,0,0,0,0,0,0,0,0,0,0,0,
0,0,0,0,0,0,0,0,0,0,0,0,0,0,0,0,
0,0,0,0,0,0,0,0,0,0,0,0,0,0,0,0,
0,0,0,0,0,0,0,0,0,0,0,0,0,0,0,0,
0,0,0,0,0,0,0,0,0,0,0,0,0,0,0,0,
0,0,0,0,0,0,0,0,0,0,0,0,0,0,0,0,
17,17,17,17,17,17,17,17,17,17,17,17,17,17,17,17,
17,17,17,17,17,17,17,17,17,17,17,17,17,17,17,17,
17,17,17,17,17,17,17,17,17,17,17,17,17,17,17,17,
17,17,17,17,17,17,17,17,17,17,17,17,17,17,17,17,
17,17,17,17,17,17,17,17,17,17,17,17,17,17,17,17,
17,17,17,17,17,17,17,17,17,17,17,17,17,17,17,17
</chunk>
   <chunk x="400" y="-32" width="16" height="16">
0,0,0,0,0,0,0,0,0,0,0,0,0,0,0,17,
0,0,0,0,0,0,0,0,0,0,0,0,0,0,0,17,
0,0,0,0,0,0,0,0,0,0,0,0,0,0,0,17,
0,0,0,0,0,0,0,0,0,0,0,0,0,0,0,17,
0,0,0,0,0,0,0,0,0,0,0,0,0,0,0,17,
0,0,0,0,0,0,0,0,0,0,0,0,0,0,0,17,
0,0,0,0,0,0,0,0,0,0,0,0,0,0,0,17,
0,0,0,0,0,0,0,0,0,0,0,0,0,0,0,17,
0,0,0,0,0,0,0,0,0,0,0,0,0,0,0,17,
0,0,0,0,0,0,0,0,0,0,0,0,0,0,0,17,
17,17,17,17,17,17,17,17,17,17,17,17,17,17,17,17,
17,17,17,17,17,17,17,17,17,17,17,17,17,17,17,17,
17,17,17,17,17,17,17,17,17,17,17,17,17,17,17,17,
17,17,17,17,17,17,17,17,17,17,17,17,17,17,17,17,
17,17,17,17,17,17,17,17,17,17,17,17,17,17,17,17,
17,17,17,17,17,17,17,17,17,17,17,17,17,17,17,17
</chunk>
   <chunk x="416" y="-32" width="16" height="16">
17,17,17,17,17,17,17,17,17,17,17,17,17,17,17,17,
17,17,17,17,17,17,17,17,17,17,17,17,17,17,17,17,
17,17,17,17,17,17,17,17,17,17,17,17,17,17,17,17,
17,17,17,17,17,17,17,17,17,17,17,17,17,17,17,17,
17,17,17,17,17,17,17,17,17,17,17,17,17,17,17,17,
17,17,17,17,17,17,17,17,17,17,17,17,17,17,17,17,
17,17,17,17,17,17,17,17,17,17,17,17,17,17,17,17,
17,17,17,17,17,17,17,17,17,17,17,17,17,17,17,17,
17,17,17,17,17,17,17,17,17,17,17,17,17,17,17,17,
17,17,17,17,17,17,17,17,17,17,17,17,17,17,17,17,
17,17,17,17,17,17,17,17,17,17,17,17,17,17,17,17,
17,17,17,17,17,17,17,17,17,17,17,17,17,17,17,17,
17,17,17,17,17,17,17,17,17,17,17,17,17,17,17,17,
17,17,17,17,17,17,17,17,17,17,17,17,17,17,17,17,
17,17,17,17,17,17,17,17,17,17,17,17,17,17,17,17,
17,17,17,17,17,17,17,17,17,17,17,17,17,17,17,17
</chunk>
   <chunk x="160" y="-16" width="16" height="16">
0,0,0,0,0,0,0,0,0,0,17,17,17,17,17,17,
0,0,0,0,0,0,0,0,0,0,17,17,17,17,17,17,
0,0,0,0,0,0,0,0,0,0,17,17,17,17,17,17,
0,0,0,0,0,0,0,0,0,0,17,17,17,17,17,17,
0,0,0,0,0,0,0,0,0,0,17,17,17,17,17,17,
0,0,0,0,0,0,0,0,0,0,17,17,17,17,17,17,
0,0,0,0,0,0,0,0,0,0,17,17,17,17,17,17,
0,0,0,0,0,0,0,0,0,0,17,17,17,17,17,17,
0,0,0,0,0,0,0,0,0,0,17,17,17,17,17,17,
0,0,0,0,0,0,0,0,0,0,17,17,17,17,17,17,
0,0,0,0,0,0,0,0,0,0,17,17,17,17,17,17,
0,0,0,0,0,0,0,0,0,0,17,17,17,17,17,17,
0,0,0,0,0,0,0,0,0,0,17,17,17,17,17,17,
0,0,0,0,0,0,0,0,0,0,17,17,17,17,17,17,
0,0,0,0,0,0,0,0,0,0,17,17,17,17,17,17,
0,0,0,0,0,0,0,0,0,0,17,17,17,17,17,17
</chunk>
   <chunk x="176" y="-16" width="16" height="16">
17,17,17,17,17,17,17,17,17,17,17,17,17,17,17,17,
17,17,17,17,17,17,17,17,17,17,17,17,17,17,17,17,
17,17,17,17,17,17,17,17,17,17,17,17,17,17,17,17,
17,17,17,17,17,17,17,17,17,17,17,17,17,17,17,17,
17,17,17,17,17,17,17,17,17,17,17,17,17,17,17,17,
17,17,17,17,17,17,17,17,17,17,17,17,17,17,17,17,
17,17,17,17,17,17,17,17,17,17,17,17,17,17,17,17,
17,17,17,17,17,17,17,17,17,17,17,17,17,17,17,17,
17,17,17,17,17,17,17,17,17,17,17,17,17,17,17,17,
17,17,17,17,17,17,17,17,17,17,17,17,17,17,17,17,
17,17,17,17,17,17,17,17,17,17,17,17,17,17,17,17,
17,17,17,17,17,17,17,17,17,17,17,17,17,17,17,17,
17,17,17,17,17,17,17,17,17,17,17,17,17,17,17,17,
17,17,17,17,17,17,17,17,17,17,17,17,17,17,17,17,
17,17,17,17,17,17,17,17,17,17,17,17,17,17,17,17,
17,17,17,17,17,17,17,17,17,17,17,17,17,17,17,17
</chunk>
   <chunk x="192" y="-16" width="16" height="16">
17,17,17,17,17,17,17,17,17,17,17,17,17,17,17,17,
17,17,17,17,17,17,17,17,17,17,17,17,17,17,17,17,
17,17,17,17,17,17,17,17,17,17,17,17,17,17,17,17,
17,17,17,17,17,17,17,17,17,17,17,17,17,17,17,17,
17,17,17,17,17,17,17,17,17,17,17,17,17,17,17,17,
17,17,17,17,17,17,17,17,17,17,17,17,17,17,17,17,
17,17,17,17,17,17,17,17,17,17,17,17,17,17,17,17,
17,17,17,17,17,17,17,17,17,17,17,17,17,17,17,17,
17,17,17,17,17,17,17,17,17,17,17,17,17,17,17,17,
17,17,17,17,17,17,17,17,17,17,17,17,17,17,17,17,
17,17,17,17,17,17,17,17,17,17,17,17,17,17,17,17,
17,17,17,17,17,17,17,17,17,17,17,17,17,17,17,17,
17,17,17,17,17,17,17,17,17,17,17,17,17,17,17,17,
17,17,17,17,17,17,17,17,17,17,17,17,17,17,17,17,
17,17,17,17,17,17,17,17,17,17,17,17,17,17,17,17,
17,17,17,17,17,17,17,17,17,17,17,17,17,17,17,17
</chunk>
   <chunk x="208" y="-16" width="16" height="16">
17,17,17,17,17,17,17,17,17,17,17,0,0,0,0,0,
17,17,17,17,17,17,17,17,17,17,17,0,0,0,0,0,
17,17,17,17,17,17,17,17,17,17,17,0,0,0,0,0,
17,17,17,17,17,17,17,17,17,17,17,0,0,0,0,0,
17,17,17,17,17,17,17,17,17,17,17,0,0,0,0,0,
17,17,17,17,17,17,17,17,17,17,17,0,0,0,0,0,
17,17,17,17,17,17,17,17,17,17,17,0,0,0,0,0,
17,17,17,17,17,17,17,17,17,17,17,0,0,0,0,0,
17,17,17,17,17,17,17,17,17,17,17,17,17,17,17,17,
17,17,17,17,17,17,17,17,17,17,17,17,17,17,17,17,
17,17,17,17,17,17,17,17,17,17,17,17,17,17,17,17,
17,17,17,17,17,17,17,17,17,17,17,17,17,17,17,17,
17,17,17,17,17,17,17,17,17,17,17,17,17,17,17,17,
17,17,17,17,17,17,17,17,17,17,17,17,17,17,17,17,
17,17,17,17,17,17,17,17,17,17,17,17,17,17,17,17,
17,17,17,17,17,17,17,17,17,17,17,17,17,17,17,17
</chunk>
   <chunk x="224" y="-16" width="16" height="16">
0,0,0,0,0,0,0,0,0,0,0,0,0,0,0,0,
0,0,0,0,0,0,0,0,0,0,0,0,0,0,0,0,
0,0,0,0,0,0,0,0,0,0,0,0,0,0,0,0,
0,0,0,0,0,0,0,0,0,0,0,0,0,0,0,0,
0,0,0,0,0,0,0,0,0,0,0,0,0,0,0,0,
0,0,0,0,0,0,0,0,0,0,0,0,0,0,0,0,
0,0,0,0,0,0,0,0,0,0,0,0,0,0,0,0,
0,0,0,0,0,0,0,0,0,0,0,0,0,0,0,0,
17,17,17,17,17,17,17,17,17,17,17,17,17,17,17,17,
17,17,17,17,17,17,17,17,17,17,17,17,17,17,17,17,
17,17,17,17,17,17,17,17,17,17,17,17,17,17,17,17,
17,17,17,17,17,17,17,17,17,17,17,17,17,17,17,17,
17,17,17,17,17,17,17,17,17,17,17,17,17,17,17,17,
17,17,17,17,17,17,17,17,17,17,17,17,17,17,17,17,
17,17,17,17,17,17,17,17,17,17,17,17,17,17,17,17,
17,17,17,17,17,17,17,17,17,17,17,17,17,17,17,17
</chunk>
   <chunk x="304" y="-16" width="16" height="16">
0,0,0,0,0,0,0,0,0,0,0,0,0,0,0,0,
0,0,0,0,0,0,0,0,0,0,0,0,0,0,0,0,
0,0,0,0,0,0,0,0,0,0,0,0,0,0,0,0,
0,0,0,0,0,0,0,0,0,0,0,0,0,0,0,0,
0,0,0,0,0,0,0,0,0,0,0,0,0,0,0,0,
0,0,0,0,0,0,0,0,0,0,0,0,0,0,0,0,
0,0,0,0,0,0,0,0,0,0,0,0,0,0,0,0,
0,0,0,0,0,0,0,0,0,0,0,0,0,0,0,0,
0,0,0,0,0,0,0,0,0,0,0,0,0,0,0,0,
0,0,0,0,0,0,0,0,0,0,0,0,0,0,0,0,
0,0,0,0,0,0,0,0,0,0,0,0,0,0,0,0,
0,0,0,0,0,0,0,0,0,0,0,0,0,0,0,0,
0,0,0,0,0,0,0,0,0,0,0,0,0,0,0,0,
0,0,0,0,0,0,0,0,0,0,0,0,0,0,0,0,
0,0,0,0,0,0,0,0,0,0,0,0,0,0,17,17,
0,0,0,0,0,0,0,0,0,0,0,0,0,0,17,17
</chunk>
   <chunk x="320" y="-16" width="16" height="16">
0,0,0,0,0,0,0,0,0,0,0,0,0,0,0,0,
0,0,0,0,0,0,0,0,0,0,0,0,0,0,0,0,
0,0,0,0,0,0,0,0,0,0,0,0,0,0,0,0,
0,0,0,0,0,0,0,0,0,0,0,0,0,0,0,0,
0,0,0,0,0,0,0,0,0,0,0,0,0,0,0,0,
0,0,0,0,0,0,0,0,0,0,0,0,0,0,0,0,
0,0,0,0,0,0,0,0,0,0,0,0,0,0,0,0,
0,0,0,0,0,0,0,0,0,0,0,0,0,0,0,0,
0,0,0,0,0,0,0,0,0,0,0,0,0,0,0,0,
0,0,0,0,0,0,0,0,0,0,0,0,0,0,0,0,
0,0,0,0,0,0,0,0,0,0,0,0,0,0,0,0,
0,0,0,0,0,0,0,0,0,0,0,0,0,0,0,0,
0,0,0,0,0,0,0,0,0,0,0,0,0,0,0,0,
0,0,0,0,0,0,0,0,0,0,0,0,0,0,0,0,
17,17,17,17,17,17,17,17,17,17,17,17,17,17,17,17,
17,17,17,17,17,17,17,17,17,17,17,17,17,17,17,17
</chunk>
   <chunk x="336" y="-16" width="16" height="16">
0,0,0,0,0,0,0,0,0,0,0,0,0,0,0,0,
0,0,0,0,0,0,0,0,0,0,0,0,0,0,0,0,
0,0,0,0,0,0,0,0,0,0,0,0,0,0,0,0,
0,0,0,0,0,0,0,0,0,0,0,0,0,0,0,0,
0,0,0,0,0,0,0,0,0,0,0,0,0,0,0,0,
0,0,0,0,0,0,0,0,0,0,0,0,0,0,0,0,
0,0,0,0,0,0,0,0,0,0,0,0,0,0,0,0,
0,0,0,0,0,0,0,0,0,0,0,0,0,0,0,0,
0,0,0,0,0,0,0,0,0,0,0,0,0,0,0,0,
0,0,0,0,0,0,0,0,0,0,0,0,0,0,0,0,
0,0,0,0,0,0,0,0,0,0,0,0,0,0,0,0,
0,0,0,0,0,0,0,0,0,0,0,0,0,0,0,0,
0,0,0,0,0,0,0,0,0,0,0,0,0,0,0,0,
0,0,0,0,0,0,0,0,0,0,0,0,0,0,0,0,
17,17,17,17,17,17,17,17,17,17,17,17,17,17,17,17,
17,17,17,17,17,17,17,17,17,17,17,17,17,17,17,17
</chunk>
   <chunk x="368" y="-16" width="16" height="16">
0,17,17,17,17,17,17,17,17,17,17,17,17,17,17,17,
0,17,17,17,17,17,17,17,17,17,17,17,17,17,17,17,
0,17,17,17,17,17,17,17,17,17,17,17,17,17,17,17,
0,17,17,17,17,17,17,17,17,17,17,17,17,17,17,17,
0,17,17,17,17,17,17,17,17,17,17,17,17,17,17,17,
0,17,17,17,17,17,17,17,17,17,17,17,17,17,17,17,
0,17,17,17,17,17,17,17,17,17,17,17,17,17,17,17,
0,17,17,17,17,17,17,17,17,17,17,17,17,17,17,17,
0,17,17,17,17,17,17,17,17,17,17,17,17,17,17,17,
0,17,17,17,17,17,17,17,17,17,17,17,17,17,17,17,
0,17,17,17,17,17,17,17,17,17,17,17,17,17,17,17,
0,17,17,17,17,17,17,17,17,17,17,17,17,17,17,17,
0,17,17,17,17,17,17,17,17,17,17,17,17,17,17,17,
0,17,17,17,17,17,17,17,17,17,17,17,17,17,17,17,
0,17,17,17,17,17,17,17,17,17,17,17,17,17,17,17,
0,17,17,17,17,17,17,17,17,17,17,17,17,17,17,17
</chunk>
   <chunk x="384" y="-16" width="16" height="16">
17,17,17,17,17,17,17,17,17,17,17,17,17,17,17,17,
17,17,17,17,17,17,17,17,17,17,17,17,17,17,17,17,
17,17,17,17,17,17,17,17,17,17,17,17,17,17,17,17,
17,17,17,17,17,17,17,17,17,17,17,17,17,17,17,17,
17,17,17,17,17,17,17,17,17,17,17,17,17,17,17,17,
17,17,17,17,17,17,17,17,17,17,17,17,17,17,17,17,
17,17,17,17,17,17,17,17,17,17,17,17,17,17,17,17,
17,17,17,17,17,17,17,17,17,17,17,17,17,17,17,17,
17,17,17,17,17,17,17,17,17,17,17,17,17,17,17,17,
17,17,17,17,17,17,17,17,17,17,17,17,17,17,17,17,
17,17,17,17,17,17,17,17,17,17,17,17,17,17,17,17,
17,17,17,17,17,17,17,17,17,17,17,17,17,17,17,17,
17,17,17,17,17,17,17,17,17,17,17,17,17,17,17,17,
17,17,17,17,17,17,17,17,17,17,17,17,17,17,17,17,
17,17,17,17,17,17,17,17,17,17,17,17,17,17,17,17,
17,17,17,17,17,17,17,17,17,17,17,17,17,17,17,17
</chunk>
   <chunk x="400" y="-16" width="16" height="16">
17,17,17,17,17,17,17,17,17,17,17,17,17,17,17,17,
17,17,17,17,17,17,17,17,17,17,17,17,17,17,17,17,
17,17,17,17,17,17,17,17,17,17,17,17,17,17,17,17,
17,17,17,17,17,17,17,17,17,17,17,17,17,17,17,17,
17,17,17,17,17,17,17,17,17,17,17,17,17,17,17,17,
17,17,17,17,17,17,17,17,17,17,17,17,17,17,17,17,
17,17,17,17,17,17,17,17,17,17,17,17,17,17,17,17,
17,17,17,17,17,17,17,17,17,17,17,17,17,17,17,17,
17,17,17,17,17,17,17,17,17,17,17,17,17,17,17,17,
17,17,17,17,17,17,17,17,17,17,17,17,17,17,17,17,
17,17,17,17,17,17,17,17,17,17,17,17,17,17,17,17,
17,17,17,17,17,17,17,17,17,17,17,17,17,17,17,17,
17,17,17,17,17,17,17,17,17,17,17,17,17,17,17,17,
17,17,17,17,17,17,17,17,17,17,17,17,17,17,17,17,
17,17,17,17,17,17,17,17,17,17,17,17,17,17,17,17,
17,17,17,17,17,17,17,17,17,17,17,17,17,17,17,17
</chunk>
   <chunk x="416" y="-16" width="16" height="16">
17,17,17,17,17,17,17,17,17,17,17,17,17,17,17,17,
17,17,17,17,17,17,17,17,17,17,17,17,17,17,17,17,
17,17,17,17,17,17,17,17,17,17,17,17,17,17,17,17,
17,17,17,17,17,17,17,17,17,17,17,17,17,17,17,17,
17,17,17,17,17,17,17,17,17,17,17,17,17,17,17,17,
17,17,17,17,17,17,17,17,17,17,17,17,17,17,17,17,
17,17,17,17,17,17,17,17,17,17,17,17,17,17,17,17,
17,17,17,17,17,17,17,17,17,17,17,17,17,17,17,17,
17,17,17,17,17,17,17,17,17,17,17,17,17,17,17,17,
17,17,17,17,17,17,17,17,17,17,17,17,17,17,17,17,
17,17,17,17,17,17,17,17,17,17,17,17,17,17,17,17,
17,17,17,17,17,17,17,17,17,17,17,17,17,17,17,17,
17,17,17,17,17,17,17,17,17,17,17,17,17,17,17,17,
17,17,17,17,17,17,17,17,17,17,17,17,17,17,17,17,
17,17,17,17,17,17,17,17,17,17,17,17,17,17,17,17,
17,17,17,17,17,17,17,17,17,17,17,17,17,17,17,17
</chunk>
   <chunk x="160" y="0" width="16" height="16">
0,0,0,0,0,0,0,0,0,0,17,17,17,17,17,17,
0,0,0,0,0,0,0,0,0,0,17,17,17,17,17,17,
0,0,0,0,0,0,0,0,0,0,17,17,17,17,17,17,
0,0,0,0,0,0,0,0,0,0,17,17,17,17,17,17,
0,0,0,0,0,0,0,0,0,0,17,17,17,17,17,17,
0,0,0,0,0,0,0,0,0,0,17,17,17,17,17,17,
0,0,0,0,0,0,0,0,0,0,17,17,17,17,17,17,
0,0,0,0,0,0,0,0,0,0,17,17,17,17,17,17,
0,0,0,0,0,0,0,0,0,0,17,17,17,17,17,17,
0,0,0,0,0,0,0,0,0,0,17,17,17,17,17,17,
0,0,0,0,0,0,0,0,0,0,17,17,17,17,17,17,
0,0,0,0,0,0,0,0,0,0,17,17,17,17,17,17,
0,0,0,0,0,0,0,0,0,0,17,17,17,17,17,17,
0,0,0,0,0,0,0,0,0,0,17,17,17,17,17,17,
0,0,0,0,0,0,0,0,0,0,17,17,17,17,17,17,
0,0,0,0,0,0,0,0,0,0,17,17,17,17,17,17
</chunk>
   <chunk x="176" y="0" width="16" height="16">
17,17,17,17,17,17,17,17,17,17,17,17,17,17,17,17,
17,17,17,17,17,17,17,17,17,17,17,17,17,17,17,17,
17,17,17,17,17,17,17,17,17,17,17,17,17,17,17,17,
17,17,17,17,17,17,17,17,17,17,17,17,17,17,17,17,
17,17,17,17,17,17,17,17,17,17,17,17,17,17,17,17,
17,17,17,17,17,17,17,17,17,17,17,17,17,17,17,17,
17,17,17,17,17,17,17,17,17,17,17,17,17,17,17,17,
17,17,17,17,17,17,17,17,17,17,17,17,17,17,17,17,
17,17,17,17,17,17,17,17,17,17,17,17,17,17,17,17,
17,17,17,17,17,17,17,17,17,17,17,17,17,17,17,17,
17,17,17,17,17,17,17,17,17,17,17,17,17,17,17,17,
17,17,17,17,17,17,17,17,17,17,17,17,17,17,17,17,
17,17,17,17,17,17,17,17,17,17,17,17,17,17,17,17,
17,17,17,17,17,17,17,17,17,17,17,17,17,17,17,17,
17,17,17,17,17,17,17,17,17,17,17,17,17,17,17,17,
17,17,17,17,17,17,17,17,17,17,17,17,17,17,17,17
</chunk>
   <chunk x="192" y="0" width="16" height="16">
17,17,17,17,17,17,17,17,17,17,17,17,17,17,17,17,
17,17,17,17,17,17,17,17,17,17,17,17,17,17,17,17,
17,17,17,17,17,17,17,17,17,17,17,17,17,17,17,17,
17,17,17,17,17,17,17,17,17,17,17,17,17,17,17,17,
17,17,17,17,17,17,17,17,17,17,17,17,17,17,17,17,
17,17,17,17,17,17,17,17,17,17,17,17,17,17,17,17,
17,17,17,17,17,17,17,17,17,17,17,17,17,17,17,17,
17,17,17,17,17,17,17,17,17,17,17,17,17,17,17,17,
17,17,17,17,17,17,17,17,17,17,17,17,17,17,17,17,
17,17,17,17,17,17,17,17,17,17,17,17,17,17,17,17,
17,17,17,17,17,17,17,17,17,17,17,17,17,17,17,17,
17,17,17,17,17,17,17,17,17,17,17,17,17,17,17,17,
17,17,17,17,17,17,17,17,17,17,17,17,17,17,17,17,
17,17,17,17,17,17,17,17,17,17,17,17,17,17,17,17,
17,17,17,17,17,17,17,17,17,17,17,17,17,17,17,17,
17,17,17,17,17,17,17,17,17,17,17,17,17,17,17,17
</chunk>
   <chunk x="208" y="0" width="16" height="16">
17,17,17,17,17,17,17,17,17,17,17,17,17,17,17,17,
17,17,17,17,17,17,17,17,17,17,17,17,17,17,17,17,
17,17,17,17,17,17,17,17,17,17,17,17,17,17,17,17,
17,17,17,17,17,17,17,17,17,17,17,17,17,17,17,17,
17,17,17,17,17,17,17,17,17,17,17,17,17,17,17,17,
17,17,17,17,17,17,17,17,17,17,17,17,17,17,17,17,
17,17,17,17,17,17,17,17,17,17,17,17,17,17,17,17,
17,17,17,17,17,17,17,17,17,17,17,17,17,17,17,17,
17,17,17,17,17,17,17,17,17,17,17,17,17,17,17,17,
17,17,17,17,17,17,17,17,17,17,17,17,17,17,17,17,
17,17,17,17,17,17,17,17,17,17,17,17,17,17,17,17,
17,17,17,17,17,17,17,17,17,17,17,17,17,17,17,17,
17,17,17,17,17,17,17,17,17,17,17,17,17,17,17,17,
17,17,17,17,17,17,17,17,17,17,17,17,17,17,17,17,
17,17,17,17,17,17,17,17,17,17,17,17,17,17,17,17,
17,17,17,17,17,17,17,17,17,17,17,17,17,17,17,17
</chunk>
   <chunk x="224" y="0" width="16" height="16">
17,17,17,17,17,17,17,17,17,17,17,17,17,17,17,17,
17,17,17,17,17,17,17,17,17,17,17,17,17,17,17,17,
17,17,17,17,17,17,17,17,17,17,17,17,17,17,17,17,
17,17,17,17,17,17,17,17,17,17,17,17,17,17,17,17,
17,17,17,17,17,17,17,17,17,17,17,17,17,17,17,17,
17,17,17,17,17,17,17,17,17,17,17,17,17,17,17,17,
17,17,17,17,17,17,17,17,17,17,17,17,17,17,17,17,
17,17,17,17,17,17,17,17,17,17,17,17,17,17,17,17,
17,17,17,17,17,17,17,17,17,17,17,17,17,17,17,17,
17,17,17,17,17,17,17,17,17,17,17,17,17,17,17,17,
17,17,17,17,17,17,17,17,17,17,17,17,17,17,17,17,
17,17,17,17,17,17,17,17,17,17,17,17,17,17,17,17,
17,17,17,17,17,17,17,17,17,17,17,17,17,17,17,17,
17,17,17,17,17,17,17,17,17,17,17,17,17,17,17,17,
17,17,17,17,17,17,17,17,17,17,17,17,17,17,17,17,
17,17,17,17,17,17,17,17,17,17,17,17,17,17,17,17
</chunk>
   <chunk x="240" y="0" width="16" height="16">
0,0,0,0,0,0,0,0,0,0,0,0,0,0,0,0,
0,0,0,0,0,0,0,0,0,0,0,0,0,0,0,0,
0,0,0,0,0,0,0,0,0,0,0,0,0,0,0,0,
0,0,0,0,0,0,0,0,0,0,0,0,0,0,0,0,
17,17,17,17,17,17,17,17,17,17,17,17,17,0,0,0,
17,17,17,17,17,17,17,17,17,17,17,17,17,0,0,0,
17,17,17,17,17,17,17,17,17,17,17,17,0,0,0,0,
17,17,17,17,17,17,17,17,17,17,0,0,0,0,0,0,
17,17,17,0,0,0,0,0,0,0,0,0,0,0,0,0,
17,17,17,0,0,0,0,0,0,0,0,0,0,0,0,0,
17,17,17,0,0,0,0,0,0,0,0,0,0,0,0,0,
17,17,17,0,0,0,0,0,0,0,0,0,0,0,0,0,
17,17,17,0,0,0,0,0,0,0,0,0,0,0,0,0,
17,17,17,0,0,0,0,0,0,0,0,0,0,0,0,0,
17,17,17,0,0,0,0,0,0,0,0,0,0,0,0,0,
17,17,0,0,0,0,0,0,0,0,0,0,0,0,0,0
</chunk>
   <chunk x="304" y="0" width="16" height="16">
0,0,0,0,0,0,0,0,0,0,0,0,0,0,17,17,
0,0,0,0,0,0,0,0,0,0,0,0,0,0,17,17,
0,0,0,0,0,0,0,0,0,0,0,0,0,0,17,17,
0,0,0,0,0,0,0,0,0,0,0,0,0,0,17,17,
0,0,0,0,0,0,0,0,0,0,0,0,0,0,17,17,
0,0,0,0,0,0,0,0,0,0,0,0,0,0,17,17,
0,0,0,0,0,0,0,0,0,0,0,0,0,0,17,17,
0,0,0,0,0,0,0,0,0,0,0,0,0,0,17,17,
0,0,0,0,0,0,0,0,0,0,0,0,0,0,17,17,
0,0,0,0,0,0,0,0,0,0,0,0,0,0,17,17,
0,0,0,0,0,0,0,0,0,0,0,0,0,0,17,17,
0,0,0,0,0,0,0,0,0,0,0,0,0,0,17,17,
0,0,0,0,0,0,0,0,0,0,0,0,0,0,17,17,
0,0,0,0,0,0,0,0,0,0,0,0,0,0,17,17,
0,0,0,0,0,0,0,0,0,0,0,0,0,0,17,17,
0,0,0,0,0,0,0,0,0,0,0,0,0,0,17,17
</chunk>
   <chunk x="320" y="0" width="16" height="16">
17,17,17,17,17,17,17,17,17,17,17,17,17,17,17,17,
17,17,17,17,17,17,17,17,17,17,17,17,17,17,17,17,
17,17,17,17,17,17,17,17,17,17,17,17,17,17,17,17,
17,17,17,17,17,17,17,17,17,17,17,17,17,17,17,17,
17,17,17,17,17,17,17,17,17,17,17,17,17,17,17,17,
17,17,17,17,17,17,17,17,17,17,17,17,17,17,17,17,
17,17,17,17,17,17,17,17,17,17,17,17,17,17,17,17,
17,17,17,17,17,17,17,17,17,17,17,17,17,17,17,17,
17,17,17,17,17,17,17,17,17,17,17,17,17,17,17,17,
17,17,17,17,17,17,17,17,17,17,17,17,17,17,17,17,
17,17,17,17,17,17,17,17,17,17,17,17,17,17,17,17,
17,17,17,17,17,17,17,17,17,17,17,17,17,17,17,17,
17,17,17,17,17,17,17,17,17,17,17,17,17,17,17,17,
17,17,17,17,17,17,17,17,17,17,17,17,17,17,17,17,
17,17,17,17,17,17,17,17,17,17,17,17,17,17,17,17,
17,17,17,17,17,17,17,17,17,17,17,17,17,17,17,17
</chunk>
   <chunk x="336" y="0" width="16" height="16">
17,17,17,17,17,17,17,17,17,17,17,17,17,17,17,17,
17,17,17,17,17,17,17,17,17,17,17,17,17,17,17,17,
17,17,17,17,17,17,17,17,17,17,17,17,17,17,17,17,
17,17,17,17,17,17,17,17,17,17,17,17,17,17,17,17,
17,17,17,17,17,17,17,17,17,17,17,17,17,17,17,17,
17,17,17,17,17,17,17,17,17,17,17,17,17,17,17,17,
17,17,17,17,17,17,17,17,17,17,17,17,17,17,17,17,
17,17,17,17,17,17,17,17,17,17,17,17,17,17,17,17,
17,17,17,17,17,17,17,17,17,17,17,17,17,17,17,17,
17,17,17,17,17,17,17,17,17,17,17,17,17,17,17,17,
17,17,17,17,17,17,17,17,17,17,17,17,17,17,17,17,
17,17,17,17,17,17,17,17,17,17,17,17,17,17,17,17,
17,17,17,17,17,17,17,17,17,17,17,17,17,17,17,17,
17,17,17,17,17,17,17,17,17,17,17,17,17,17,17,17,
17,17,17,17,17,17,17,17,17,17,17,17,17,17,17,17,
17,17,17,17,17,17,17,17,17,17,17,17,17,17,17,17
</chunk>
   <chunk x="368" y="0" width="16" height="16">
0,17,17,17,17,17,17,17,17,17,17,17,17,17,17,17,
0,17,17,17,17,17,17,17,17,17,17,17,17,17,17,17,
0,17,17,17,17,17,17,17,17,17,17,17,17,17,17,17,
0,17,17,17,17,17,17,17,17,17,17,17,17,17,17,17,
0,17,17,17,17,17,17,17,17,17,17,17,17,17,17,17,
0,17,17,17,17,17,17,17,17,17,17,17,17,17,17,17,
0,17,17,17,17,17,17,17,17,17,17,17,17,17,17,17,
0,17,17,17,17,17,17,17,17,17,17,17,17,17,17,17,
0,17,17,17,17,17,17,17,17,17,17,17,17,17,17,17,
0,17,17,17,17,17,17,17,17,17,17,17,17,17,17,17,
0,17,17,17,17,17,17,17,17,17,17,17,17,17,17,17,
0,17,17,17,17,17,17,17,17,17,17,17,17,17,17,17,
0,17,17,17,17,17,17,17,17,17,17,17,17,17,17,17,
0,17,17,17,17,17,17,17,17,17,17,17,17,17,17,17,
0,17,17,17,17,17,17,17,17,17,17,17,17,17,17,17,
0,17,17,17,17,17,17,17,17,17,17,17,17,17,17,17
</chunk>
   <chunk x="384" y="0" width="16" height="16">
17,17,17,17,17,17,17,17,17,17,17,17,17,17,17,17,
17,17,17,17,17,17,17,17,17,17,17,17,17,17,17,17,
17,17,17,17,17,17,17,17,17,17,17,17,17,17,17,17,
17,17,17,17,17,17,17,17,17,17,17,17,17,17,17,17,
17,17,17,17,17,17,17,17,17,17,17,17,17,17,17,17,
17,17,17,17,17,17,17,17,17,17,17,17,17,17,17,17,
17,17,17,17,17,17,17,17,17,17,17,17,17,17,17,17,
17,17,17,17,17,17,17,17,17,17,17,17,17,17,17,17,
17,17,17,17,17,17,17,17,17,17,17,17,17,17,17,17,
17,17,17,17,17,17,17,17,17,17,17,17,17,17,17,17,
17,17,17,17,17,17,17,17,17,17,17,17,17,17,17,17,
17,17,17,17,17,17,17,17,17,17,17,17,17,17,17,17,
17,17,17,17,17,17,17,17,17,17,17,17,17,17,17,17,
17,17,17,17,17,17,17,17,17,17,17,17,17,17,17,17,
17,17,17,17,17,17,17,17,17,17,17,17,17,17,17,17,
17,17,17,17,17,17,17,17,17,17,17,17,17,17,17,17
</chunk>
   <chunk x="400" y="0" width="16" height="16">
17,17,17,17,17,17,17,17,17,17,17,17,17,17,17,17,
17,17,17,17,17,17,17,17,17,17,17,17,17,17,17,17,
17,17,17,17,17,17,17,17,17,17,17,17,17,17,17,17,
17,17,17,17,17,17,17,17,17,17,17,17,17,17,17,17,
17,17,17,17,17,17,17,17,17,17,17,17,17,17,17,17,
17,17,17,17,17,17,17,17,17,17,17,17,17,17,17,17,
17,17,17,17,17,17,17,17,17,17,17,17,17,17,17,17,
17,17,17,17,17,17,17,17,17,17,17,17,17,17,17,17,
17,17,17,17,17,17,17,17,17,17,17,17,17,17,17,17,
17,17,17,17,17,17,17,17,17,17,17,17,17,17,17,17,
17,17,17,17,17,17,17,17,17,17,17,17,17,17,17,17,
17,17,17,17,17,17,17,17,17,17,17,17,17,17,17,17,
17,17,17,17,17,17,17,17,17,17,17,17,17,17,17,17,
17,17,17,17,17,17,17,17,17,17,17,17,17,17,17,17,
17,17,17,17,17,17,17,17,17,17,17,17,17,17,17,17,
17,17,17,17,17,17,17,17,17,17,17,17,17,17,17,17
</chunk>
   <chunk x="416" y="0" width="16" height="16">
17,17,17,17,17,17,17,17,17,17,17,17,17,17,17,17,
17,17,17,17,17,17,17,17,17,17,17,17,17,17,17,17,
17,17,17,17,17,17,17,17,17,17,17,17,17,17,17,17,
17,17,17,17,17,17,17,17,17,17,17,17,17,17,17,17,
17,17,17,17,17,17,17,17,17,17,17,17,17,17,17,17,
17,17,17,17,17,17,17,17,17,17,17,17,17,17,17,17,
17,17,17,17,17,17,17,17,17,17,17,17,17,17,17,17,
17,17,17,17,17,17,17,17,17,17,17,17,17,17,17,17,
17,17,17,17,17,17,17,17,17,17,17,17,17,17,17,17,
17,17,17,17,17,17,17,17,17,17,17,17,17,17,17,17,
17,17,17,17,17,17,17,17,17,17,17,17,17,17,17,17,
17,17,17,17,17,17,17,17,17,17,17,17,17,17,17,17,
17,17,17,17,17,17,17,17,17,17,17,17,17,17,17,17,
17,17,17,17,17,17,17,17,17,17,17,17,17,17,17,17,
17,17,17,17,17,17,17,17,17,17,17,17,17,17,17,17,
17,17,17,17,17,17,17,17,17,17,17,17,17,17,17,17
</chunk>
   <chunk x="160" y="16" width="16" height="16">
0,0,0,0,0,0,0,0,0,0,17,17,17,17,17,17,
0,0,0,0,0,0,0,0,0,0,17,17,17,17,17,17,
0,0,0,0,0,0,0,0,0,0,17,17,17,17,17,17,
0,0,0,0,0,0,0,0,0,0,17,17,17,17,17,17,
0,0,0,0,0,0,0,0,0,0,17,17,17,17,17,17,
0,0,0,0,0,0,0,0,0,0,17,17,17,17,17,17,
0,0,0,0,0,0,0,0,0,0,17,17,17,17,17,17,
0,0,0,0,0,0,0,0,0,0,17,17,17,17,17,17,
0,0,0,0,0,0,0,0,0,0,17,17,17,17,17,17,
0,0,0,0,0,0,0,0,0,0,17,17,17,17,17,17,
0,0,0,0,0,0,0,0,0,0,17,17,17,17,17,17,
0,0,0,0,0,0,0,0,0,0,17,17,17,17,17,17,
0,0,0,0,0,0,0,0,0,0,17,17,17,17,17,17,
0,0,0,0,0,0,0,0,0,0,17,17,17,17,17,17,
0,0,0,0,0,0,0,0,0,0,17,17,17,17,17,17,
0,0,0,0,0,0,0,0,0,0,17,17,17,17,17,17
</chunk>
   <chunk x="176" y="16" width="16" height="16">
17,17,17,17,17,17,17,17,17,17,17,17,17,17,17,17,
17,17,17,17,17,17,17,17,17,17,17,17,17,17,17,17,
17,17,17,17,17,17,17,17,17,17,17,17,17,17,17,17,
17,17,17,17,17,17,17,17,17,17,17,17,17,17,17,17,
17,17,17,17,17,17,17,17,17,17,17,17,17,17,17,17,
17,17,17,17,17,17,17,17,17,17,17,17,17,17,17,17,
17,17,17,17,17,17,17,17,17,17,17,17,17,17,17,17,
17,17,17,17,17,17,17,17,17,17,17,17,17,17,17,17,
17,17,17,17,17,17,17,17,17,17,17,17,17,17,17,17,
17,17,17,17,17,17,17,17,17,17,17,17,17,17,17,17,
17,17,17,17,17,17,17,17,17,17,17,17,17,17,17,17,
17,17,17,17,17,17,17,17,17,17,17,17,17,17,17,17,
17,17,17,17,17,17,17,17,17,17,17,17,17,17,17,17,
17,17,17,17,17,17,17,17,17,17,17,17,17,17,17,17,
17,17,17,17,17,17,17,17,17,17,17,17,17,17,17,17,
17,17,17,17,17,17,17,17,17,17,17,17,17,17,17,17
</chunk>
   <chunk x="192" y="16" width="16" height="16">
17,17,17,17,17,17,17,17,17,17,17,17,17,17,17,17,
17,17,17,17,17,17,17,17,17,17,17,17,17,17,17,17,
17,17,17,17,17,17,17,17,17,17,17,17,17,17,17,17,
17,17,17,17,17,17,17,17,17,17,17,17,17,17,17,17,
17,17,17,17,17,17,17,17,17,17,17,17,17,17,17,17,
17,17,17,17,17,17,17,17,17,17,17,17,17,17,17,17,
17,17,17,17,17,17,17,17,17,17,17,17,17,17,17,17,
17,17,17,17,17,17,17,17,17,17,17,17,17,17,17,17,
17,17,17,17,17,17,17,17,17,17,17,17,17,17,17,17,
17,17,17,17,17,17,17,17,17,17,17,17,17,17,17,17,
17,17,17,17,17,17,17,17,17,17,17,17,17,17,17,17,
17,17,17,17,17,17,17,17,17,17,17,17,17,17,17,17,
17,17,17,17,17,17,17,17,17,17,17,17,17,17,17,17,
17,17,17,17,17,17,17,17,17,17,17,17,17,17,17,17,
17,17,17,17,17,17,17,17,17,17,17,17,17,17,17,17,
17,17,17,17,17,17,17,17,17,17,17,17,17,17,17,17
</chunk>
   <chunk x="208" y="16" width="16" height="16">
17,17,17,17,17,17,17,17,17,17,17,17,17,17,17,17,
17,17,17,17,17,17,17,17,17,17,17,17,17,17,17,17,
17,17,17,17,17,17,17,17,17,17,17,17,17,17,17,17,
17,17,17,17,17,17,17,17,17,17,17,17,17,17,17,17,
17,17,17,17,17,17,17,17,17,17,17,17,17,17,17,17,
17,17,17,17,17,17,17,17,17,17,17,17,17,17,17,17,
17,17,17,17,17,17,17,17,17,17,17,17,17,17,17,17,
17,17,17,17,17,17,17,17,17,17,17,17,17,17,17,0,
17,17,17,17,17,17,17,17,17,17,17,17,17,17,17,0,
17,17,17,17,17,17,17,17,17,17,17,17,17,17,17,0,
17,17,17,17,17,17,17,17,17,17,17,17,17,17,17,0,
17,17,17,17,17,17,17,17,17,17,17,17,17,17,17,0,
17,17,17,17,17,17,17,17,17,17,17,17,17,17,17,0,
17,17,17,17,17,17,17,17,17,17,17,17,17,17,17,0,
17,17,17,17,17,17,17,17,17,17,17,17,17,17,17,17,
17,17,17,17,17,17,17,17,17,17,17,17,17,17,17,17
</chunk>
   <chunk x="224" y="16" width="16" height="16">
17,17,17,17,17,17,17,17,17,17,17,17,17,17,17,17,
17,17,17,17,17,17,17,17,17,17,17,17,17,17,17,17,
17,17,17,17,17,17,17,17,17,17,17,17,17,17,17,17,
17,17,17,17,17,17,17,17,17,17,17,17,17,17,17,17,
17,17,17,17,17,17,17,17,17,17,17,17,17,17,17,17,
17,17,17,17,17,17,17,17,17,17,17,17,17,17,17,17,
17,17,17,17,17,17,17,17,17,17,17,17,17,17,17,17,
0,0,0,0,0,0,0,0,0,0,0,0,0,0,0,0,
0,0,0,0,0,0,0,0,0,0,0,0,0,0,0,0,
0,0,0,0,0,0,0,0,0,0,0,0,0,0,0,0,
0,0,0,0,0,0,0,0,0,0,0,0,0,0,0,0,
0,0,0,0,0,0,0,0,0,0,0,0,0,0,0,0,
0,0,0,0,0,0,0,0,0,0,0,0,0,0,0,0,
0,0,0,0,0,0,0,0,0,0,0,0,0,0,0,0,
17,17,17,17,17,17,17,17,17,17,17,17,17,17,17,17,
17,17,17,17,17,17,17,17,17,17,17,17,17,17,17,17
</chunk>
   <chunk x="240" y="16" width="16" height="16">
17,0,0,0,0,0,0,0,0,0,0,0,0,0,0,0,
0,0,0,0,0,0,0,0,0,0,0,0,0,0,0,0,
0,0,0,0,0,0,0,0,0,0,0,0,0,0,0,0,
0,0,0,0,0,0,0,0,0,0,0,0,0,0,0,0,
0,0,0,0,0,0,0,0,0,0,0,0,0,0,0,0,
0,0,0,0,0,0,0,0,0,0,0,0,0,0,0,0,
0,0,0,0,0,0,0,0,0,0,0,0,0,0,0,0,
0,0,0,0,0,0,0,0,0,0,0,0,0,0,0,0,
0,0,0,0,0,0,0,0,0,0,0,0,0,0,0,0,
0,0,0,0,0,0,0,0,0,0,0,0,0,0,0,0,
0,0,0,0,0,0,0,0,0,0,0,0,0,0,0,0,
0,0,0,0,0,0,0,0,0,0,0,0,0,0,0,0,
0,0,0,0,0,0,0,0,0,0,0,0,0,0,0,0,
0,0,0,0,0,0,0,0,0,0,0,0,0,0,0,0,
17,17,17,17,17,17,17,0,0,0,0,0,0,0,0,0,
17,17,17,17,17,17,17,0,0,0,0,0,0,0,0,0
</chunk>
   <chunk x="304" y="16" width="16" height="16">
0,0,0,0,0,0,0,0,0,0,0,0,0,0,17,17,
0,0,0,0,0,0,0,0,0,0,0,0,0,0,17,17,
0,0,0,0,0,0,0,0,0,0,0,0,0,0,17,17,
0,0,0,0,0,0,0,0,0,0,0,0,0,0,17,17,
0,0,0,0,0,0,0,0,0,0,0,0,0,0,17,17,
0,0,0,0,0,0,0,0,0,0,0,0,0,0,17,17,
0,0,0,0,0,0,0,0,0,0,0,0,0,0,17,17,
0,0,0,0,0,0,0,0,0,0,0,0,0,0,17,17,
0,0,0,0,0,0,0,0,0,0,0,0,0,0,17,17,
0,0,0,0,0,0,0,0,0,0,0,0,0,0,17,17,
0,0,0,0,0,0,0,0,0,0,0,0,0,0,17,17,
0,0,0,0,0,0,0,0,0,0,0,0,0,0,17,17,
0,0,0,0,0,0,0,0,0,0,0,0,0,0,17,17,
0,0,0,0,0,0,0,0,0,0,0,0,0,0,17,17,
0,0,0,0,0,0,0,0,0,0,0,0,0,0,17,17,
0,0,0,0,0,0,0,0,0,0,0,0,0,0,17,17
</chunk>
   <chunk x="320" y="16" width="16" height="16">
17,17,17,17,17,17,17,17,17,17,17,17,17,17,17,17,
17,17,17,17,17,17,17,17,17,17,17,17,17,17,17,17,
17,17,17,17,17,17,17,17,17,17,17,17,17,17,17,17,
17,17,17,17,17,17,17,17,17,17,17,17,17,17,0,0,
17,17,17,17,17,17,17,17,17,17,17,17,17,0,0,0,
17,17,17,17,17,17,17,17,17,17,17,17,0,0,0,0,
17,17,17,17,17,17,17,17,17,17,17,17,0,0,0,0,
17,17,17,17,17,17,17,17,17,17,17,17,0,0,0,0,
17,17,17,17,17,17,17,17,17,17,17,17,0,0,0,0,
17,17,17,17,17,17,17,17,17,17,17,17,0,0,0,0,
17,17,17,17,17,17,17,17,17,17,17,17,0,0,0,0,
17,17,17,17,17,17,17,17,17,17,17,17,0,0,0,0,
17,17,17,17,17,17,17,17,17,17,17,17,0,0,0,0,
17,17,17,17,17,17,17,17,17,17,17,17,0,0,0,0,
17,17,17,17,17,17,17,17,17,17,17,17,0,0,0,0,
17,17,17,17,17,17,17,17,17,17,17,17,0,0,0,0
</chunk>
   <chunk x="336" y="16" width="16" height="16">
17,17,17,17,17,17,17,17,17,17,17,17,17,17,17,0,
17,17,17,17,17,17,17,17,17,17,17,17,17,17,0,0,
17,17,17,17,17,17,17,17,17,17,17,17,17,0,0,0,
0,0,0,0,0,0,0,0,0,0,0,0,0,0,0,0,
0,0,0,0,0,0,0,0,0,0,0,0,0,0,0,0,
0,0,0,0,0,0,0,0,0,0,0,0,0,0,0,0,
0,0,0,0,0,0,0,0,0,0,0,0,0,0,0,0,
0,0,0,0,0,0,0,0,0,0,0,0,0,0,0,0,
0,0,0,0,0,0,0,0,0,0,0,0,0,0,0,0,
0,0,0,0,0,0,0,0,0,0,0,0,0,0,0,0,
0,0,0,0,0,0,0,0,0,0,0,0,0,0,0,0,
0,0,0,0,0,0,0,0,0,0,0,0,0,0,0,0,
0,0,0,0,0,0,0,0,0,0,0,0,0,0,0,0,
0,0,0,0,0,0,0,0,0,0,0,0,0,0,0,0,
0,0,0,0,0,0,0,0,0,0,0,0,0,0,0,0,
0,0,0,0,0,0,0,0,0,0,0,0,0,0,0,0
</chunk>
   <chunk x="352" y="16" width="16" height="16">
0,0,0,0,0,0,0,0,0,0,0,0,0,0,0,0,
0,0,0,0,0,0,0,0,0,0,0,0,0,0,0,0,
0,0,0,0,0,0,0,0,0,0,0,0,0,0,0,0,
0,0,0,0,0,0,0,0,0,0,0,0,0,0,0,0,
0,0,0,0,0,0,0,0,0,0,0,0,0,0,0,0,
0,0,0,0,0,0,0,0,0,0,0,0,0,0,0,0,
0,0,0,0,0,0,0,0,0,0,0,0,0,0,0,0,
0,0,0,0,0,0,0,0,0,0,0,0,0,0,0,0,
0,0,0,0,0,0,0,0,0,0,0,0,0,0,0,0,
0,0,0,0,0,0,0,0,0,0,0,0,0,0,0,0,
0,0,0,0,0,0,0,0,0,0,0,0,0,0,0,0,
0,0,0,0,17,17,17,17,17,17,17,17,17,17,17,17,
0,0,0,0,17,17,17,17,17,17,17,17,17,17,17,17,
0,0,0,0,17,17,17,17,17,17,17,17,17,17,17,17,
0,0,0,0,17,17,17,17,17,17,17,17,17,17,17,17,
0,0,0,0,17,17,17,17,17,17,17,17,17,17,17,17
</chunk>
   <chunk x="368" y="16" width="16" height="16">
0,17,17,17,17,17,17,17,17,17,17,17,17,17,17,17,
0,17,17,17,17,17,17,17,17,17,17,17,17,17,17,17,
0,17,17,17,17,17,17,17,17,17,17,17,17,17,17,17,
0,17,17,17,17,17,17,17,17,17,17,17,17,17,17,17,
0,17,17,17,17,17,17,17,17,17,17,17,17,17,17,17,
0,17,17,17,17,17,17,17,17,17,17,17,17,17,17,17,
0,17,17,17,17,17,17,17,17,17,17,17,17,17,17,17,
0,17,17,17,17,17,17,17,17,17,17,17,17,17,17,17,
0,17,17,17,17,17,17,17,17,17,17,17,17,17,17,17,
0,17,17,17,17,17,17,17,17,17,17,17,17,17,17,17,
0,17,17,17,17,17,17,17,17,17,17,17,17,17,17,17,
17,17,17,17,17,17,17,17,17,17,17,17,17,17,17,17,
17,17,17,17,17,17,17,17,17,17,17,17,17,17,17,17,
17,17,17,17,17,17,17,17,17,17,17,17,17,17,17,17,
17,17,17,17,17,17,17,17,17,17,17,17,17,17,17,17,
17,17,17,17,17,17,17,17,17,17,17,17,17,17,17,17
</chunk>
   <chunk x="384" y="16" width="16" height="16">
17,17,17,17,17,17,17,17,17,17,17,17,17,17,17,17,
17,17,17,17,17,17,17,17,17,17,17,17,17,17,17,17,
17,17,17,17,17,17,17,17,17,17,17,17,17,17,17,17,
17,17,17,17,17,17,17,17,17,17,17,17,17,17,17,17,
17,17,17,17,17,17,17,17,17,17,17,17,17,17,17,17,
17,17,17,17,17,17,17,17,17,17,17,17,17,17,17,17,
17,17,17,17,17,17,17,17,17,17,17,17,17,17,17,17,
17,17,17,17,17,17,17,17,17,17,17,17,17,17,17,17,
17,17,17,17,17,17,17,17,17,17,17,17,17,17,17,17,
17,17,17,17,17,17,17,17,17,17,17,17,17,17,17,17,
17,17,17,17,17,17,17,17,17,17,17,17,17,17,17,17,
17,17,17,17,17,17,17,17,17,17,17,17,17,17,17,17,
17,17,17,17,17,17,17,17,17,17,17,17,17,17,17,17,
17,17,17,17,17,17,17,17,17,17,17,17,17,17,17,17,
17,17,17,17,17,17,17,17,17,17,17,17,17,17,17,17,
17,17,17,17,17,17,17,17,17,17,17,17,17,17,17,17
</chunk>
   <chunk x="400" y="16" width="16" height="16">
17,17,17,17,17,17,17,17,17,17,17,17,17,17,17,17,
17,17,17,17,17,17,17,17,17,17,17,17,17,17,17,17,
17,17,17,17,17,17,17,17,17,17,17,17,17,17,17,17,
17,17,17,17,17,17,17,17,17,17,17,17,17,17,17,17,
17,17,17,17,17,17,17,17,17,17,17,17,17,17,17,17,
17,17,17,17,17,17,17,17,17,17,17,17,17,17,17,17,
17,17,17,17,17,17,17,17,17,17,17,17,17,17,17,17,
17,17,17,17,17,17,17,17,17,17,17,17,17,17,17,17,
17,17,17,17,17,17,17,17,17,17,17,17,17,17,17,17,
17,17,17,17,17,17,17,17,17,17,17,17,17,17,17,17,
17,17,17,17,17,17,17,17,17,17,17,17,17,17,17,17,
17,17,17,17,17,17,17,17,17,17,17,17,17,17,17,17,
17,17,17,17,17,17,17,17,17,17,17,17,17,17,17,17,
17,17,17,17,17,17,17,17,17,17,17,17,17,17,17,17,
17,17,17,17,17,17,17,17,17,17,17,17,17,17,17,17,
17,17,17,17,17,17,17,17,17,17,17,17,17,17,17,17
</chunk>
   <chunk x="416" y="16" width="16" height="16">
17,17,17,17,17,17,17,17,17,17,17,17,17,17,17,17,
17,17,17,17,17,17,17,17,17,17,17,17,17,17,17,17,
17,17,17,17,17,17,17,17,17,17,17,17,17,17,17,17,
17,17,17,17,17,17,17,17,17,17,17,17,17,17,17,17,
17,17,17,17,17,17,17,17,17,17,17,17,17,17,17,17,
17,17,17,17,17,17,17,17,17,17,17,17,17,17,17,17,
17,17,17,17,17,17,17,17,17,17,17,17,17,17,17,17,
17,17,17,17,17,17,17,17,17,17,17,17,17,17,17,17,
17,17,17,17,17,17,17,17,17,17,17,17,17,17,17,17,
17,17,17,17,17,17,17,17,17,17,17,17,17,17,17,17,
17,17,17,17,17,17,17,17,17,17,17,17,17,17,17,17,
17,17,17,17,17,17,17,17,17,17,17,17,17,17,17,17,
17,17,17,17,17,17,17,17,17,17,17,17,17,17,17,17,
17,17,17,17,17,17,17,17,17,17,17,17,17,17,17,17,
17,17,17,17,17,17,17,17,17,17,17,17,17,17,17,17,
17,17,17,17,17,17,17,17,17,17,17,17,17,17,17,17
</chunk>
   <chunk x="160" y="32" width="16" height="16">
0,0,0,0,0,0,0,0,0,0,17,17,17,17,17,17,
0,0,0,0,0,0,0,0,0,0,17,17,17,17,17,17,
0,0,0,0,0,0,0,0,0,0,17,17,17,17,17,17,
0,0,0,0,0,0,0,0,0,0,17,17,17,17,17,17,
0,0,0,0,0,0,0,0,0,0,17,17,17,17,17,17,
0,0,0,0,0,0,0,0,0,0,17,17,17,17,17,17,
0,0,0,0,0,0,0,0,0,0,17,17,17,17,17,17,
0,0,0,0,0,0,0,0,0,0,17,17,17,17,17,17,
0,0,0,0,0,0,0,0,0,0,17,17,17,17,17,17,
0,0,0,0,0,0,0,0,0,0,17,17,17,17,17,17,
0,0,0,0,0,0,0,0,0,0,17,17,17,17,17,17,
0,0,0,0,0,0,0,0,0,0,17,17,17,17,17,17,
0,0,0,0,0,0,0,0,0,0,17,17,17,17,17,17,
0,0,0,0,0,0,0,0,0,0,17,17,17,17,17,17,
0,0,0,0,0,0,0,0,0,0,17,17,17,17,17,17,
0,0,0,0,0,0,0,0,0,0,0,0,0,0,0,0
</chunk>
   <chunk x="176" y="32" width="16" height="16">
17,17,17,17,17,17,17,17,0,0,0,0,0,0,0,0,
17,17,17,17,17,17,17,17,0,0,0,0,0,0,0,0,
17,17,17,17,17,17,17,17,0,0,0,0,0,0,0,0,
17,17,17,17,17,17,17,0,0,0,0,0,0,0,0,0,
17,17,17,17,17,17,17,0,0,0,0,0,0,0,0,0,
17,17,17,17,17,17,17,0,0,0,0,0,0,0,0,0,
17,17,0,0,0,0,0,0,0,0,0,0,0,0,0,0,
17,0,0,0,0,0,0,0,0,0,0,0,0,0,0,0,
0,0,0,0,0,0,0,0,0,0,0,0,0,0,0,0,
0,0,0,0,0,0,0,0,0,0,0,0,0,0,0,0,
0,0,0,0,0,0,0,0,0,0,0,17,17,17,17,17,
0,0,0,0,0,0,0,0,0,0,0,17,17,17,17,17,
0,0,0,0,0,0,0,0,0,0,0,0,17,17,17,17,
0,0,0,0,0,0,0,0,0,0,0,0,0,0,0,0,
0,0,0,0,0,0,0,0,0,0,0,0,0,0,0,0,
0,0,0,0,0,0,0,0,0,0,0,0,0,0,0,0
</chunk>
   <chunk x="192" y="32" width="16" height="16">
0,0,0,17,17,17,17,17,17,17,17,17,17,17,17,17,
0,0,0,17,17,17,17,17,17,17,17,17,17,17,17,17,
0,0,0,17,17,17,17,17,17,17,17,17,17,17,17,17,
0,0,0,17,17,17,17,17,17,17,17,17,17,17,17,17,
0,0,0,17,17,17,17,17,17,17,17,17,17,17,17,17,
0,0,0,17,17,17,17,17,17,17,17,17,17,17,17,17,
0,0,0,17,17,17,17,17,17,17,17,17,17,17,17,17,
0,0,0,17,17,17,17,17,17,17,17,17,17,17,17,17,
0,0,0,17,17,17,17,17,17,17,17,17,17,17,17,17,
0,0,0,17,17,17,17,17,17,17,17,17,17,17,17,17,
17,17,17,17,17,17,17,17,17,17,17,17,17,17,17,17,
17,17,17,17,17,17,17,17,17,17,17,17,17,17,17,17,
17,17,17,17,17,17,17,17,17,17,17,17,17,17,17,17,
0,0,0,0,0,0,0,0,0,0,0,0,0,0,0,0,
0,0,0,0,0,0,0,0,0,0,0,0,0,0,0,0,
0,0,0,0,0,0,0,0,0,0,0,0,0,0,0,0
</chunk>
   <chunk x="208" y="32" width="16" height="16">
17,17,17,17,17,17,17,17,17,17,17,17,17,17,17,17,
17,17,17,17,17,17,17,17,17,17,17,17,17,17,17,17,
17,17,17,17,17,17,17,17,17,17,17,17,17,17,17,17,
17,17,17,17,17,17,17,17,17,0,0,0,0,0,0,0,
17,17,17,17,17,17,17,17,0,0,0,0,0,0,0,0,
17,17,17,17,17,17,17,0,0,0,0,0,0,0,0,0,
17,17,17,17,17,17,0,0,0,0,0,0,0,0,0,0,
17,17,17,17,17,17,0,0,0,0,0,0,0,0,0,0,
17,17,17,17,17,17,0,0,0,0,0,0,0,0,0,0,
17,17,17,17,17,17,0,0,0,0,0,0,0,0,0,0,
17,17,17,17,17,17,0,0,0,0,0,0,0,0,0,0,
17,17,17,17,17,0,0,0,0,0,0,0,0,0,0,0,
17,17,17,17,0,0,0,0,0,0,0,0,0,0,0,0,
0,0,0,0,0,0,0,0,0,0,0,0,0,0,0,0,
0,0,0,0,0,0,0,0,0,0,0,0,0,0,0,0,
0,0,0,0,0,0,0,0,0,0,0,0,0,0,0,0
</chunk>
   <chunk x="224" y="32" width="16" height="16">
17,17,17,17,17,17,17,17,17,17,17,17,17,17,17,17,
17,17,17,17,17,17,17,17,17,17,17,17,17,17,17,17,
17,17,17,17,17,17,17,17,17,17,17,17,17,17,17,17,
0,0,0,0,0,0,0,0,0,0,0,0,0,0,0,0,
0,0,0,0,0,0,0,0,0,0,0,0,0,0,0,0,
0,0,0,0,0,0,0,0,0,0,0,0,0,0,0,0,
0,0,0,0,0,0,0,0,0,0,0,0,0,0,0,0,
0,0,0,0,0,0,0,0,0,0,0,0,0,0,0,0,
0,0,0,0,0,0,0,0,0,0,0,0,0,0,0,0,
0,0,0,0,0,0,0,0,0,0,0,0,0,0,0,0,
0,0,0,0,0,0,0,0,0,0,0,0,0,0,0,0,
0,0,0,0,0,0,0,0,0,0,0,0,0,0,0,0,
0,0,0,0,0,0,0,0,0,0,0,0,0,0,0,0,
0,0,0,0,0,0,0,0,0,0,0,0,0,0,0,0,
0,0,0,0,0,0,0,0,0,0,0,0,0,0,0,0,
0,0,0,0,0,0,0,0,0,0,0,0,0,0,0,0
</chunk>
   <chunk x="240" y="32" width="16" height="16">
17,17,17,17,17,17,0,0,0,0,0,0,0,0,0,0,
17,0,0,0,0,0,0,0,0,0,0,0,0,0,0,0,
0,0,0,0,0,0,0,0,0,0,0,0,0,0,0,0,
0,0,0,0,0,0,0,0,0,0,0,0,0,0,0,0,
0,0,0,0,0,0,0,0,0,0,0,0,0,0,0,0,
0,0,0,0,0,0,0,0,0,0,0,0,0,0,0,0,
0,0,0,0,0,0,0,0,0,0,0,0,0,0,0,0,
0,0,0,0,0,0,0,0,0,0,0,0,0,0,0,0,
0,0,0,0,0,0,0,0,0,0,0,0,0,0,0,0,
0,0,0,0,0,0,0,0,0,0,0,0,0,0,0,0,
0,0,0,0,0,0,0,0,0,0,0,0,0,0,0,0,
0,0,0,0,0,0,0,0,0,0,0,0,0,0,0,0,
0,0,0,0,0,0,0,0,0,0,0,0,0,0,0,0,
0,0,0,0,0,0,0,0,0,0,0,0,0,0,0,0,
0,0,0,0,0,0,0,0,0,0,0,0,0,0,0,0,
0,0,0,0,0,0,0,0,0,0,0,0,0,0,0,0
</chunk>
   <chunk x="272" y="32" width="16" height="16">
0,0,0,0,0,0,0,0,0,0,0,0,0,0,0,0,
0,0,0,0,0,0,0,0,0,0,0,0,0,0,0,0,
0,0,0,0,0,0,0,0,0,0,0,0,0,0,0,0,
0,0,0,0,0,0,0,0,17,17,17,17,17,17,17,17,
0,0,0,0,0,0,0,0,0,17,17,17,17,17,17,17,
0,0,0,0,0,0,0,0,0,0,17,17,17,17,17,17,
0,0,0,0,0,0,0,0,0,0,0,17,17,17,17,17,
0,0,0,0,0,0,0,0,0,0,0,17,17,17,17,17,
0,0,0,0,0,0,0,0,0,0,0,17,17,17,17,17,
0,0,0,0,0,0,0,0,0,0,0,17,17,17,17,17,
0,0,0,0,0,0,0,0,0,0,0,17,17,17,17,17,
0,0,0,0,0,0,0,0,0,0,0,17,17,17,17,17,
0,0,0,0,0,0,0,0,0,0,0,17,17,17,17,17,
0,0,0,0,0,0,0,0,0,0,0,17,17,17,17,17,
0,0,0,0,0,0,0,0,0,0,0,17,17,17,17,17,
0,0,0,0,0,0,0,0,0,0,0,17,17,17,17,17
</chunk>
   <chunk x="288" y="32" width="16" height="16">
0,0,0,0,0,0,0,0,0,0,0,0,0,0,0,0,
0,0,0,0,0,0,0,0,0,0,0,0,0,0,0,0,
0,0,0,0,0,0,0,0,0,0,0,0,0,0,0,0,
17,17,17,17,17,17,17,0,0,0,0,0,0,0,0,0,
17,17,17,17,17,17,17,0,0,0,0,0,0,0,0,0,
17,17,17,17,17,17,17,0,0,0,0,0,0,0,0,0,
17,17,17,17,17,17,17,0,0,0,0,0,0,0,0,0,
17,17,17,17,17,17,17,0,0,0,0,0,0,0,0,0,
17,17,17,17,17,17,17,0,0,0,0,0,0,0,0,0,
17,17,17,17,17,17,17,0,0,0,0,0,0,0,0,0,
17,17,17,17,17,17,17,0,0,0,0,0,0,0,0,0,
17,17,17,17,17,17,17,0,0,0,0,0,0,0,0,0,
17,17,17,17,17,17,17,0,0,0,0,0,0,0,0,0,
17,17,17,17,17,17,17,0,0,0,0,0,0,0,0,0,
17,17,17,17,17,17,17,0,0,0,0,0,0,0,0,0,
17,17,17,17,17,17,17,0,0,0,0,0,0,0,0,0
</chunk>
   <chunk x="304" y="32" width="16" height="16">
0,0,0,0,0,0,0,0,0,0,0,0,0,0,17,17,
0,0,0,0,0,0,0,0,0,0,0,0,0,0,17,17,
0,0,0,0,0,0,0,0,0,0,0,0,0,0,17,17,
0,0,0,0,0,0,0,0,0,0,0,0,0,0,17,17,
0,0,0,0,0,0,0,0,0,0,0,0,0,0,17,17,
0,0,0,0,0,0,0,0,0,0,0,0,0,0,17,17,
0,0,0,0,0,0,0,0,0,0,0,0,0,0,17,17,
0,0,0,0,0,0,0,0,0,0,0,0,0,0,17,17,
0,0,0,0,0,0,0,0,0,0,0,0,0,0,17,17,
0,0,0,0,0,0,0,0,0,0,0,0,0,0,17,17,
0,0,0,0,0,0,0,0,0,0,0,0,0,0,17,17,
0,0,0,0,0,0,0,0,0,0,0,0,0,0,17,17,
0,0,0,0,0,0,0,0,0,0,0,0,0,0,17,17,
0,0,0,0,0,0,0,0,0,0,0,0,0,0,17,17,
0,0,0,0,0,0,0,0,0,0,0,0,0,0,17,17,
0,0,0,0,0,0,0,0,0,0,0,0,0,0,17,17
</chunk>
   <chunk x="320" y="32" width="16" height="16">
17,17,17,17,17,17,17,17,17,17,17,17,0,0,0,0,
17,17,0,0,0,0,0,0,0,0,0,0,0,0,0,0,
17,17,0,0,0,0,0,0,0,0,0,0,0,0,0,0,
17,17,0,0,0,0,0,0,0,0,0,0,0,0,0,0,
17,17,0,0,0,0,0,0,0,0,0,0,0,0,0,0,
17,17,0,0,0,0,0,0,0,0,0,0,0,0,0,0,
17,17,0,0,0,0,0,0,0,0,0,0,0,0,0,0,
17,17,0,0,0,0,0,0,0,0,0,0,0,0,0,0,
17,17,17,17,17,17,17,17,17,17,17,17,0,0,0,0,
17,17,17,17,17,17,17,17,17,17,17,17,0,0,0,0,
17,17,17,17,17,17,17,17,17,17,17,17,0,0,0,0,
17,17,17,17,17,17,17,17,17,17,17,17,0,0,0,0,
17,17,17,17,17,17,17,17,17,17,17,17,0,0,0,0,
17,17,17,17,17,17,17,17,17,17,17,17,0,0,0,0,
17,17,17,17,17,17,17,17,17,17,17,17,0,0,0,0,
17,17,17,17,17,17,17,17,17,17,17,17,0,0,0,0
</chunk>
   <chunk x="352" y="32" width="16" height="16">
0,0,0,0,17,17,17,17,17,17,17,17,17,17,17,17,
0,0,0,0,17,17,17,17,17,17,17,17,17,17,17,17,
0,0,0,0,17,17,17,17,17,17,17,17,17,17,17,17,
0,0,0,0,0,17,17,17,17,17,17,17,17,17,17,17,
0,0,0,0,0,17,17,17,17,17,17,17,17,17,17,17,
0,0,0,0,0,0,17,17,17,17,17,17,17,17,17,17,
0,0,0,0,0,0,0,17,17,17,17,17,17,17,17,17,
0,0,0,0,0,0,0,0,0,0,0,0,0,0,0,0,
0,0,0,0,0,0,0,0,0,0,0,0,0,0,0,0,
0,0,0,0,0,0,0,0,0,0,0,0,0,0,0,0,
0,0,0,0,0,0,0,0,0,0,0,0,0,0,0,0,
0,0,0,0,0,0,0,0,0,0,0,0,0,0,0,0,
0,0,0,0,0,0,0,0,0,0,0,0,0,0,0,0,
0,0,0,0,0,0,0,0,0,0,0,0,0,0,0,0,
0,0,0,0,0,0,0,0,0,0,0,0,0,0,0,0,
0,0,0,0,0,0,0,0,0,0,0,0,0,0,0,0
</chunk>
   <chunk x="368" y="32" width="16" height="16">
17,17,17,17,17,17,17,17,17,17,17,17,17,17,17,17,
17,17,17,17,17,17,17,17,17,17,17,17,17,17,17,17,
17,17,17,17,17,17,17,17,17,17,17,17,17,17,17,17,
17,17,17,17,17,17,17,17,17,17,17,17,17,17,17,17,
17,17,17,17,17,17,17,17,17,17,17,17,17,17,17,17,
17,17,17,17,17,17,17,17,17,17,17,17,17,17,17,17,
17,17,17,17,17,17,17,17,17,17,17,17,17,17,17,17,
0,0,0,0,0,0,0,0,17,17,17,17,17,17,17,17,
0,0,0,0,0,0,0,0,0,17,17,17,17,17,17,17,
0,0,0,0,0,0,0,0,0,17,17,17,17,17,17,17,
0,0,0,0,0,0,0,0,0,0,17,17,17,17,17,17,
0,0,0,0,0,0,0,0,0,0,0,17,17,17,17,17,
0,0,0,0,0,0,0,0,0,0,0,17,17,17,17,17,
0,0,0,0,0,0,0,0,0,0,0,17,17,17,17,17,
0,0,0,0,0,0,0,0,0,0,0,17,17,17,17,17,
0,0,0,0,0,0,0,0,0,0,0,17,17,17,17,17
</chunk>
   <chunk x="384" y="32" width="16" height="16">
17,17,17,17,17,17,17,17,17,17,17,17,17,17,17,17,
17,17,17,17,17,17,17,17,17,17,17,17,17,17,17,17,
17,17,17,17,17,17,17,17,17,17,17,17,17,17,17,17,
17,17,17,17,17,17,17,17,17,17,17,17,17,17,17,17,
17,17,17,17,17,17,17,17,17,17,17,17,17,17,17,17,
17,17,17,17,17,17,17,17,17,17,17,17,17,17,17,17,
17,17,17,17,17,17,17,17,17,17,17,17,17,17,17,17,
17,17,17,17,17,17,17,17,17,17,17,17,17,17,17,17,
17,17,17,17,17,17,17,17,17,17,17,17,17,17,17,17,
17,17,17,17,17,17,17,17,17,17,17,17,17,17,17,17,
17,17,17,17,17,17,17,17,17,17,17,17,17,17,17,17,
17,17,17,17,17,17,17,17,17,17,17,17,17,17,17,17,
17,17,17,17,17,17,17,17,17,17,17,17,17,17,17,17,
17,17,17,17,17,17,17,17,17,17,17,17,17,17,17,17,
17,17,17,17,17,17,17,17,17,17,17,17,17,17,17,17,
17,17,17,17,17,17,17,17,17,17,17,17,17,17,17,17
</chunk>
   <chunk x="400" y="32" width="16" height="16">
17,17,17,17,17,17,17,17,17,17,17,17,17,17,17,17,
17,17,17,17,17,17,17,17,17,17,17,17,17,17,17,17,
17,17,17,17,17,17,17,17,17,17,17,17,17,17,17,17,
17,17,17,17,17,17,17,17,17,17,17,17,17,17,17,17,
17,17,17,17,17,17,17,17,17,17,17,17,17,17,17,17,
17,17,17,17,17,17,17,17,17,17,17,17,17,17,17,17,
17,17,17,17,17,17,17,17,17,17,17,17,17,17,17,17,
17,17,17,17,17,17,17,17,17,17,17,17,17,17,17,17,
17,17,17,17,17,17,17,17,17,17,17,17,17,17,17,17,
17,17,17,17,17,17,17,17,17,17,17,17,17,17,17,17,
17,17,17,17,17,17,17,17,17,17,17,17,17,17,17,17,
17,17,17,17,17,17,17,17,17,17,17,17,17,17,17,17,
17,17,17,17,17,17,17,17,17,17,17,17,17,17,17,17,
17,17,17,17,17,17,17,17,17,17,17,17,17,17,17,17,
17,17,17,17,17,17,17,17,17,17,17,17,17,17,17,17,
17,17,17,17,17,17,17,17,17,17,17,17,17,17,17,17
</chunk>
   <chunk x="416" y="32" width="16" height="16">
17,17,17,17,17,17,17,17,17,17,17,17,17,17,17,17,
17,17,17,17,17,17,17,17,17,17,17,17,17,17,17,17,
17,17,17,17,17,17,17,17,17,17,17,17,17,17,17,17,
17,17,17,17,17,17,17,17,17,17,17,17,17,17,17,17,
17,17,17,17,17,17,17,17,17,17,17,17,17,17,17,17,
17,17,17,17,17,17,17,17,17,17,17,17,17,17,17,17,
17,17,17,17,17,17,17,17,17,17,17,17,17,17,17,17,
17,17,17,17,17,17,17,17,17,17,17,17,17,17,17,17,
17,17,17,17,17,17,17,17,17,17,17,17,17,17,17,17,
17,17,17,17,17,17,17,17,17,17,17,17,17,17,17,17,
17,17,17,17,17,17,17,17,17,17,17,17,17,17,17,17,
17,17,17,17,17,17,17,17,17,17,17,17,17,17,17,17,
17,17,17,17,17,17,17,17,17,17,17,17,17,17,17,17,
17,17,17,17,17,17,17,17,17,17,17,17,17,17,17,17,
17,17,17,17,17,17,17,17,17,17,17,17,17,17,17,17,
17,17,17,17,17,17,17,17,17,17,17,17,17,17,17,17
</chunk>
   <chunk x="160" y="48" width="16" height="16">
0,0,0,0,0,0,0,0,0,0,0,0,0,0,0,0,
0,0,0,0,0,0,0,0,0,0,0,0,0,0,0,0,
0,0,0,0,0,0,0,0,0,0,0,0,0,0,0,0,
0,0,0,0,0,0,0,0,0,0,0,0,0,0,0,0,
0,0,0,0,0,0,0,0,0,0,0,0,0,0,0,0,
0,0,0,0,0,0,0,0,0,0,0,0,0,0,0,0,
0,0,0,0,0,0,0,0,0,0,17,17,17,17,17,17,
0,0,0,0,0,0,0,0,0,0,17,17,17,17,17,17,
0,0,0,0,0,0,0,0,0,0,17,17,17,17,17,17,
0,0,0,0,0,0,0,0,0,0,17,17,17,17,17,17,
0,0,0,0,0,0,0,0,0,0,17,17,17,17,17,17,
0,0,0,0,0,0,0,0,0,0,17,17,17,17,17,17,
0,0,0,0,0,0,0,0,0,0,17,17,17,17,17,17,
0,0,0,0,0,0,0,0,0,0,17,17,17,17,17,17,
0,0,0,0,0,0,0,0,0,0,17,17,17,17,17,17,
0,0,0,0,0,0,0,0,0,0,17,17,17,17,17,17
</chunk>
   <chunk x="176" y="48" width="16" height="16">
0,0,0,0,0,0,0,0,0,0,0,0,0,0,0,0,
0,0,0,0,0,0,0,0,0,0,0,0,0,0,0,0,
0,0,0,0,0,0,0,0,0,0,0,0,0,0,0,0,
0,0,0,0,0,0,0,0,0,0,0,0,0,0,0,0,
0,0,0,0,0,0,0,0,0,0,0,0,0,0,0,0,
0,0,0,0,0,0,0,0,0,0,0,0,0,0,0,0,
17,17,17,17,17,17,17,17,17,17,17,17,17,17,17,17,
17,17,17,17,17,17,17,17,17,17,17,17,17,17,17,17,
17,17,17,17,17,17,17,17,17,17,17,17,17,17,17,17,
17,17,17,17,17,17,17,17,17,17,17,17,17,17,17,17,
17,17,17,17,17,17,17,17,17,17,17,17,17,17,17,17,
17,17,17,17,17,17,17,17,17,17,17,17,17,17,17,17,
17,17,17,17,17,17,17,17,17,17,17,17,17,17,17,17,
17,17,17,17,17,17,17,17,17,17,17,17,17,17,17,17,
17,17,17,17,17,17,17,17,17,17,17,17,17,17,17,17,
17,17,17,17,17,17,17,17,17,17,17,17,17,17,17,17
</chunk>
   <chunk x="192" y="48" width="16" height="16">
0,0,0,0,0,0,0,0,0,0,0,0,0,0,0,0,
0,0,0,0,0,0,0,0,0,0,0,0,0,0,0,0,
0,0,0,0,0,0,0,0,0,0,0,0,0,0,0,0,
0,0,0,0,0,0,0,0,0,0,0,0,0,0,0,0,
0,0,0,0,0,0,0,0,0,0,0,0,0,0,0,0,
0,0,0,0,0,0,0,0,0,0,0,0,0,0,0,0,
17,17,17,17,17,17,17,17,17,17,17,17,17,17,17,17,
17,17,17,17,17,17,17,17,17,17,17,17,17,17,17,17,
17,17,17,17,17,17,17,17,17,17,17,17,17,17,17,17,
17,17,17,17,17,17,17,17,17,17,17,17,17,17,17,17,
17,17,17,17,17,17,17,17,17,17,17,17,17,17,17,17,
17,17,17,17,17,17,17,17,17,17,17,17,17,17,17,17,
17,17,17,17,17,17,17,17,17,17,17,17,17,17,17,17,
17,17,17,17,17,17,17,17,17,17,17,17,17,17,17,17,
17,17,17,17,17,17,17,17,17,17,17,17,17,17,17,17,
17,17,17,17,17,17,17,17,17,17,17,17,17,17,17,17
</chunk>
   <chunk x="208" y="48" width="16" height="16">
0,0,0,0,0,0,0,0,0,0,0,0,0,0,0,0,
0,0,0,0,0,0,0,0,0,0,0,0,0,0,0,0,
0,0,0,0,0,0,0,0,0,0,0,0,0,0,0,0,
0,0,0,0,0,0,0,0,0,0,0,0,0,0,0,0,
0,0,0,0,0,0,0,0,0,0,0,0,0,0,0,0,
0,0,0,0,0,0,0,0,0,0,0,0,0,0,0,0,
17,17,17,17,17,17,17,17,17,17,17,17,17,17,17,17,
17,17,17,17,17,17,17,17,17,17,17,17,17,17,17,17,
17,17,17,17,17,17,17,17,17,17,17,17,17,17,17,17,
17,17,17,17,17,17,17,17,17,17,17,17,17,17,17,17,
17,17,17,17,17,17,17,17,17,17,17,17,17,17,17,17,
17,17,17,17,17,17,17,17,17,17,17,17,17,17,17,17,
17,17,17,17,17,17,17,17,17,17,17,17,17,17,17,17,
17,17,17,17,17,17,17,17,17,17,17,17,17,17,17,17,
17,17,17,17,17,17,17,17,17,17,17,17,17,17,17,17,
17,17,17,17,17,17,17,17,17,17,17,17,17,17,17,17
</chunk>
   <chunk x="224" y="48" width="16" height="16">
0,0,0,0,0,0,0,0,0,0,0,0,0,0,0,0,
0,0,0,0,0,0,0,0,0,0,0,0,0,0,0,0,
0,0,0,0,0,0,0,0,0,0,0,0,0,0,0,0,
0,0,0,0,0,0,0,0,0,0,0,0,0,0,0,0,
0,0,0,0,0,0,0,0,0,0,0,0,0,0,0,0,
0,0,0,0,0,0,0,0,0,0,0,0,0,0,0,0,
17,17,17,17,17,17,17,17,17,17,17,17,17,17,17,17,
17,17,17,17,17,17,17,17,17,17,17,17,17,17,17,17,
17,17,17,17,17,17,17,17,17,17,17,17,17,17,17,17,
17,17,17,17,17,17,17,17,17,17,17,17,17,17,17,17,
17,17,17,17,17,17,17,17,17,17,17,17,17,17,17,17,
17,17,17,17,17,17,17,17,17,17,17,17,17,17,17,17,
17,17,17,17,17,17,17,17,17,17,17,17,17,17,17,17,
17,17,17,17,17,17,17,17,17,17,17,17,17,17,17,17,
17,17,17,17,17,17,17,17,17,17,17,17,17,17,17,17,
17,17,17,17,17,17,17,17,17,17,17,17,17,17,17,17
</chunk>
   <chunk x="240" y="48" width="16" height="16">
0,0,0,0,0,0,0,0,0,0,0,0,0,0,0,0,
0,0,0,0,0,0,0,0,0,0,0,0,0,0,0,0,
0,0,0,0,0,0,0,0,0,0,0,0,0,0,0,0,
0,0,0,0,0,0,0,0,0,0,0,0,0,0,0,0,
0,0,0,0,0,0,0,0,0,0,0,0,0,0,0,0,
0,0,0,0,0,0,0,0,0,0,0,0,0,0,0,0,
17,17,17,17,17,17,17,17,0,0,0,0,0,0,0,0,
17,17,17,17,17,17,17,17,0,0,0,0,0,0,0,0,
17,17,17,17,17,17,17,17,0,0,0,0,0,0,0,0,
17,17,17,17,17,17,17,17,17,17,17,17,17,17,17,17,
17,17,17,17,17,17,17,17,17,17,17,17,17,17,17,17,
17,17,17,17,17,17,17,17,17,17,17,17,17,17,17,17,
17,17,17,17,17,17,17,17,17,17,17,17,17,17,17,17,
17,17,17,17,17,17,17,17,17,17,17,17,17,17,17,17,
17,17,17,17,17,17,17,17,17,17,17,17,17,17,17,17,
17,17,17,17,17,17,17,17,17,17,17,17,17,17,17,17
</chunk>
   <chunk x="256" y="48" width="16" height="16">
0,0,0,0,0,0,0,0,0,0,0,0,0,0,0,0,
0,0,0,0,0,0,0,0,0,0,0,0,0,0,0,0,
0,0,0,0,0,0,0,0,0,0,0,0,0,0,0,0,
0,0,0,0,0,0,0,0,0,0,0,0,0,0,0,0,
0,0,0,0,0,0,0,0,0,0,0,0,0,0,0,0,
0,0,0,0,0,0,0,0,0,0,0,0,0,0,0,0,
0,0,0,0,0,0,0,0,0,0,0,0,0,0,0,0,
0,0,0,0,0,0,0,0,0,0,0,0,0,0,0,0,
0,0,0,0,0,0,0,0,0,0,0,0,0,0,0,0,
17,17,17,17,17,17,17,17,17,17,17,17,17,17,17,17,
17,17,17,17,17,17,17,17,17,17,17,17,17,17,17,17,
17,17,17,17,17,17,17,17,17,17,17,17,17,17,17,17,
17,17,17,17,17,17,17,17,17,17,17,17,17,17,17,17,
17,17,17,17,17,17,17,17,17,17,17,17,17,17,17,17,
17,17,17,17,17,17,17,17,17,17,17,17,17,17,17,17,
17,17,17,17,17,17,17,17,17,17,17,17,17,17,17,17
</chunk>
   <chunk x="272" y="48" width="16" height="16">
0,0,0,0,0,0,0,0,0,0,0,17,17,17,17,17,
0,0,0,0,0,0,0,0,0,0,0,17,17,17,17,17,
0,0,0,0,0,0,0,0,0,0,0,17,17,17,17,17,
0,0,0,0,0,0,0,0,0,0,0,17,17,17,17,17,
0,0,0,0,0,0,0,0,0,0,0,17,17,17,17,17,
0,0,0,0,0,0,0,0,0,0,0,17,17,17,17,17,
0,0,0,0,0,0,0,0,0,0,0,17,17,17,17,17,
0,0,0,0,0,0,0,0,0,0,0,17,17,17,17,17,
0,0,0,0,0,0,0,0,0,0,0,17,17,17,17,17,
17,17,17,17,17,17,17,17,17,17,17,17,17,17,17,17,
17,17,17,17,17,17,17,17,17,17,17,17,17,17,17,17,
17,17,17,17,17,17,17,17,17,17,17,17,17,17,17,17,
17,17,17,17,17,17,17,17,17,17,17,17,17,17,17,17,
17,17,17,17,17,17,17,17,17,17,17,17,17,17,17,17,
17,17,17,17,17,17,17,17,17,17,17,17,17,17,17,17,
17,17,17,17,17,17,17,17,17,17,17,17,17,17,17,17
</chunk>
   <chunk x="288" y="48" width="16" height="16">
17,17,17,17,17,17,17,0,0,0,0,0,0,0,0,0,
17,17,17,17,17,17,17,0,0,0,0,0,0,0,0,0,
17,17,17,17,17,17,17,0,0,0,0,0,0,0,0,0,
17,17,17,17,17,17,17,0,0,0,0,0,0,0,0,0,
17,17,17,17,17,17,17,0,0,0,0,0,0,0,0,0,
17,17,17,17,17,17,17,0,0,0,0,0,0,0,0,0,
17,17,17,17,17,17,17,0,0,0,0,0,0,0,0,0,
17,17,17,17,17,17,17,0,0,0,0,0,0,0,0,0,
17,17,17,17,17,17,17,0,0,0,0,0,0,0,0,0,
17,17,17,17,17,17,17,17,17,17,17,17,17,17,17,17,
17,17,17,17,17,17,17,17,17,17,17,17,17,17,17,17,
17,17,17,17,17,17,17,17,17,17,17,17,17,17,17,17,
17,17,17,17,17,17,17,17,17,17,17,17,17,17,17,17,
17,17,17,17,17,17,17,17,17,17,17,17,17,17,17,17,
17,17,17,17,17,17,17,17,17,17,17,17,17,17,17,17,
17,17,17,17,17,17,17,17,17,17,17,17,17,17,17,17
</chunk>
   <chunk x="304" y="48" width="16" height="16">
0,0,0,0,0,0,0,0,0,0,0,0,0,0,17,17,
0,0,0,0,0,0,0,0,0,0,0,0,0,0,17,17,
0,0,0,0,0,0,0,0,0,0,0,0,0,0,17,17,
0,0,0,0,0,0,0,0,0,0,0,0,0,0,17,17,
0,0,0,0,0,0,0,0,0,0,0,0,0,0,17,17,
0,0,0,0,0,0,0,0,0,0,0,0,0,0,17,17,
0,0,0,0,0,0,0,0,0,0,0,0,0,0,17,17,
0,0,0,0,0,0,0,0,0,0,0,0,0,0,17,17,
0,0,0,0,0,0,0,0,0,0,0,0,0,0,17,17,
17,17,17,17,17,17,17,17,17,17,17,17,17,17,17,17,
17,17,17,17,17,17,17,17,17,17,17,17,17,17,17,17,
17,17,17,17,17,17,17,17,17,17,17,17,17,17,17,17,
17,17,17,17,17,17,17,17,17,17,17,17,17,17,17,17,
17,17,17,17,17,17,17,17,17,17,17,17,17,17,17,17,
17,17,17,17,17,17,17,17,17,17,17,17,17,17,17,17,
17,17,17,17,17,17,17,17,17,17,17,17,17,17,17,17
</chunk>
   <chunk x="320" y="48" width="16" height="16">
17,17,17,17,17,17,17,17,17,17,17,17,0,0,0,0,
17,17,17,17,17,17,17,17,17,17,17,17,0,0,0,0,
17,17,17,17,17,17,17,17,17,17,17,17,0,0,0,0,
17,17,17,17,17,17,17,17,17,17,17,17,0,0,0,0,
17,17,17,17,17,17,17,17,17,17,17,17,0,0,0,0,
17,17,17,17,17,17,17,17,17,17,17,17,17,17,17,17,
17,17,17,17,17,17,17,17,17,17,17,17,17,17,17,17,
17,17,17,17,17,17,17,17,17,17,17,17,17,17,17,17,
17,17,17,17,17,17,17,17,17,17,17,17,17,17,17,17,
17,17,17,17,17,17,17,17,17,17,17,17,17,17,17,17,
17,17,17,17,17,17,17,17,17,17,17,17,17,17,17,17,
17,17,17,17,17,17,17,17,17,17,17,17,17,17,17,17,
17,17,17,17,17,17,17,17,17,17,17,17,17,17,17,17,
17,17,17,17,17,17,17,17,17,17,17,17,17,17,17,17,
17,17,17,17,17,17,17,17,17,17,17,17,17,17,17,17,
17,17,17,17,17,17,17,17,17,17,17,17,17,17,17,17
</chunk>
   <chunk x="336" y="48" width="16" height="16">
0,0,0,0,0,0,0,0,0,0,0,0,0,0,0,0,
0,0,0,0,0,0,0,0,0,0,0,0,0,0,0,0,
0,0,0,0,0,0,0,0,0,0,0,0,0,0,0,0,
0,0,0,0,0,0,0,0,0,0,0,0,0,0,0,0,
0,0,0,0,0,0,0,0,0,0,0,0,0,0,0,0,
17,17,17,17,17,17,17,17,17,17,17,17,17,17,17,17,
17,17,17,17,17,17,17,17,17,17,17,17,17,17,17,17,
17,17,17,17,17,17,17,17,17,17,17,17,17,17,17,17,
17,17,17,17,17,17,17,17,17,17,17,17,17,17,17,17,
17,17,17,17,17,17,17,17,17,17,17,17,17,17,17,17,
17,17,17,17,17,17,17,17,17,17,17,17,17,17,17,17,
17,17,17,17,17,17,17,17,17,17,17,17,17,17,17,17,
17,17,17,17,17,17,17,17,17,17,17,17,17,17,17,17,
17,17,17,17,17,17,17,17,17,17,17,17,17,17,17,17,
17,17,17,17,17,17,17,17,17,17,17,17,17,17,17,17,
17,17,17,17,17,17,17,17,17,17,17,17,17,17,17,17
</chunk>
   <chunk x="352" y="48" width="16" height="16">
0,0,0,0,0,0,0,0,0,0,0,0,0,0,0,0,
0,0,0,0,0,0,0,0,0,0,0,0,0,0,0,0,
0,0,0,0,0,0,0,0,0,0,0,0,0,0,0,0,
0,0,0,0,0,0,0,0,0,0,0,0,0,0,0,0,
0,0,0,0,0,0,0,0,0,0,0,0,0,0,0,0,
17,17,17,17,0,0,0,0,0,0,0,0,0,0,0,0,
17,17,17,17,0,0,0,0,0,0,0,0,0,0,0,0,
17,17,17,17,0,0,0,0,0,0,0,0,0,0,0,0,
17,17,17,17,0,0,0,0,0,0,0,0,0,0,0,0,
17,17,17,17,0,0,0,0,0,0,0,0,0,0,0,0,
17,17,17,17,0,0,0,0,0,0,0,0,0,0,0,0,
17,17,17,17,0,0,0,0,0,0,0,0,0,0,0,0,
17,17,17,17,0,0,0,0,0,0,0,0,0,0,0,0,
17,17,17,17,0,0,0,0,0,0,0,0,0,0,0,0,
17,17,17,17,0,0,0,0,0,0,0,0,0,0,0,0,
17,17,17,17,0,0,0,0,0,0,0,0,0,0,0,0
</chunk>
   <chunk x="368" y="48" width="16" height="16">
0,0,0,0,0,0,0,0,0,0,0,17,17,17,17,17,
0,0,0,0,0,0,0,0,0,0,0,17,17,17,17,17,
0,0,0,0,0,0,0,0,0,0,0,17,17,17,17,17,
0,0,0,0,0,0,0,0,0,0,0,17,17,17,17,17,
0,0,0,0,0,0,0,0,0,0,0,17,17,17,17,17,
0,0,0,0,0,0,0,0,0,0,0,17,17,17,17,17,
0,0,0,0,0,0,0,0,0,0,0,17,17,17,17,17,
0,0,0,0,0,0,0,0,0,0,0,17,17,17,17,17,
0,0,0,0,0,0,0,0,0,0,0,17,17,17,17,17,
0,0,0,0,0,0,0,0,0,0,0,17,17,17,17,17,
0,0,0,0,0,0,0,0,0,0,0,17,17,17,17,17,
0,0,0,0,0,0,0,0,0,0,0,17,17,17,17,17,
0,0,0,0,0,0,0,0,0,0,0,17,17,17,17,17,
0,0,0,0,0,0,0,0,0,0,0,17,17,17,17,17,
0,0,0,0,0,0,0,0,0,0,0,17,17,17,17,17,
0,0,0,0,0,0,0,0,0,0,0,17,17,17,17,17
</chunk>
   <chunk x="384" y="48" width="16" height="16">
17,17,17,17,17,17,17,17,17,17,17,17,17,17,17,17,
17,17,17,17,17,17,17,17,17,17,17,17,17,17,17,17,
17,17,17,17,17,17,17,17,17,17,17,17,17,17,17,17,
17,17,17,17,17,17,17,17,17,17,17,17,17,17,17,17,
17,17,17,17,17,17,17,17,17,17,17,17,17,17,17,17,
17,17,17,17,17,17,17,17,17,17,17,17,17,17,17,17,
17,17,17,17,17,17,17,17,17,17,17,17,17,17,17,17,
17,17,17,17,17,17,17,17,17,17,17,17,17,17,17,17,
17,17,17,17,17,17,17,17,17,17,17,17,17,17,17,17,
17,17,17,17,17,17,17,17,17,17,17,17,17,17,17,17,
17,17,17,17,17,17,17,17,17,17,17,17,17,17,17,17,
17,17,17,17,17,17,17,17,17,17,17,17,17,17,17,17,
17,17,17,17,17,17,17,17,17,17,17,17,17,17,17,17,
17,17,17,17,17,17,17,17,17,17,17,17,17,17,17,17,
17,17,17,17,17,17,17,17,17,17,17,17,17,17,17,17,
17,17,17,17,17,17,17,17,17,17,17,17,17,17,17,17
</chunk>
   <chunk x="400" y="48" width="16" height="16">
17,17,17,17,17,17,17,17,17,17,17,17,17,17,17,17,
17,17,17,17,17,17,17,17,17,17,17,17,17,17,17,17,
17,17,17,17,17,17,17,17,17,17,17,17,17,17,17,17,
17,17,17,17,17,17,17,17,17,17,17,17,17,17,17,17,
17,17,17,17,17,17,17,17,17,17,17,17,17,17,17,17,
17,17,17,17,17,17,17,17,17,17,17,17,17,17,17,17,
17,17,17,17,17,17,17,17,17,17,17,17,17,17,17,17,
17,17,17,17,17,17,17,17,17,17,17,17,17,17,17,17,
17,17,17,17,17,17,17,17,17,17,17,17,17,17,17,17,
17,17,17,17,17,17,17,17,17,17,17,17,17,17,17,17,
17,17,17,17,17,17,17,17,17,17,17,17,17,17,17,17,
17,17,17,17,17,17,17,17,17,17,17,17,17,17,17,17,
17,17,17,17,17,17,17,17,17,17,17,17,17,17,17,17,
17,17,17,17,17,17,17,17,17,17,17,17,17,17,17,17,
17,17,17,17,17,17,17,17,17,17,17,17,17,17,17,17,
17,17,17,17,17,17,17,17,17,17,17,17,17,17,17,17
</chunk>
   <chunk x="416" y="48" width="16" height="16">
17,17,17,17,17,17,17,17,17,17,17,17,17,17,17,17,
17,17,17,17,17,17,17,17,17,17,17,17,17,17,17,17,
17,17,17,17,17,17,17,17,17,17,17,17,17,17,17,17,
17,17,17,17,17,17,17,17,17,17,17,17,17,17,17,17,
17,17,17,17,17,17,17,17,17,17,17,17,17,17,17,17,
17,17,17,17,17,17,17,17,17,17,17,17,17,17,17,17,
17,17,17,17,17,17,17,17,17,17,17,17,17,17,17,17,
17,17,17,17,17,17,17,17,17,17,17,17,17,17,17,17,
17,17,17,17,17,17,17,17,17,17,17,17,17,17,17,17,
17,17,17,17,17,17,17,17,17,17,17,17,17,17,17,17,
17,17,17,17,17,17,17,17,17,17,17,17,17,17,17,17,
17,17,17,17,17,17,17,17,17,17,17,17,17,17,17,17,
17,17,17,17,17,17,17,17,17,17,17,17,17,17,17,17,
17,17,17,17,17,17,17,17,17,17,17,17,17,17,17,17,
17,17,17,17,17,17,17,17,17,17,17,17,17,17,17,17,
17,17,17,17,17,17,17,17,17,17,17,17,17,17,17,17
</chunk>
   <chunk x="160" y="64" width="16" height="16">
0,0,0,0,0,0,0,0,0,0,17,17,17,17,17,17,
0,0,0,0,0,0,0,0,0,0,17,17,17,17,17,17,
0,0,0,0,0,0,0,0,0,0,17,17,17,17,17,17,
0,0,0,0,0,0,0,0,0,0,17,17,17,17,17,17,
0,0,0,0,0,0,0,0,0,0,17,17,17,17,17,17,
0,0,0,0,0,0,0,0,0,0,17,17,17,17,17,17,
0,0,0,0,0,0,0,0,0,0,17,17,17,17,17,17,
0,0,0,0,0,0,0,0,0,0,17,17,17,17,17,17,
0,0,0,0,0,0,0,0,0,0,17,17,17,17,17,17,
0,0,0,0,0,0,0,0,0,0,17,17,17,17,17,17,
0,0,0,0,0,0,0,0,0,0,17,17,17,17,17,17,
0,0,0,0,0,0,0,0,0,0,17,17,17,17,17,17,
0,0,0,0,0,0,0,0,0,0,0,0,0,0,0,0,
0,0,0,0,0,0,0,0,0,0,0,0,0,0,0,0,
0,0,0,0,0,0,0,0,0,0,0,0,0,0,0,0,
0,0,0,0,0,0,0,0,0,0,0,0,0,0,0,0
</chunk>
   <chunk x="176" y="64" width="16" height="16">
17,17,17,17,17,17,17,17,17,17,17,17,17,17,17,17,
17,17,17,17,17,17,17,17,17,17,17,17,17,17,17,17,
17,17,17,17,17,17,17,17,17,17,17,17,17,17,17,17,
17,17,17,17,17,17,17,17,17,17,17,17,17,17,17,17,
17,17,17,17,17,17,17,17,17,17,17,17,17,17,17,17,
17,17,17,17,17,17,17,17,17,17,17,17,17,17,17,17,
17,17,17,17,17,17,17,17,17,17,17,17,17,17,17,17,
17,17,17,17,17,17,17,17,17,17,17,17,17,17,17,17,
17,17,17,17,17,17,17,17,17,17,17,17,17,17,17,17,
17,17,17,17,17,17,17,17,17,17,17,17,17,17,17,17,
17,17,17,17,17,17,17,17,17,17,17,17,17,17,17,17,
17,17,17,17,17,17,17,17,17,17,17,17,17,17,17,17,
0,0,0,0,0,0,0,0,0,0,0,0,0,0,0,0,
0,0,0,0,0,0,0,0,0,0,0,0,0,0,0,0,
0,0,0,0,0,0,0,0,0,0,0,0,0,0,0,0,
0,0,0,0,0,0,0,0,0,0,0,0,0,0,0,0
</chunk>
   <chunk x="192" y="64" width="16" height="16">
17,17,17,17,17,17,17,17,17,17,17,17,17,17,17,17,
17,17,17,17,17,17,17,17,17,17,17,17,17,17,17,17,
17,17,17,17,17,17,17,17,17,17,17,17,17,17,17,17,
17,17,17,17,17,17,17,17,17,17,17,17,17,17,17,17,
17,17,17,17,17,17,17,17,17,17,17,17,17,17,17,17,
17,17,17,17,17,17,17,17,17,17,17,17,17,17,17,17,
17,17,17,17,17,17,17,17,17,17,17,17,17,17,17,17,
17,17,17,17,17,17,17,17,17,17,17,17,17,17,17,17,
17,17,17,17,17,17,17,17,17,17,17,17,17,17,17,17,
17,17,17,17,17,17,17,17,17,17,17,17,17,17,17,17,
17,17,17,17,17,17,17,17,17,17,17,17,17,17,17,17,
17,17,17,17,17,17,17,17,17,17,17,17,17,17,17,17,
0,0,0,0,0,0,0,0,0,0,0,0,0,0,0,0,
0,0,0,0,0,0,0,0,0,0,0,0,0,0,0,0,
0,0,0,0,0,0,0,0,0,0,0,0,0,0,0,0,
0,0,0,0,0,0,0,0,0,0,0,0,0,0,0,0
</chunk>
   <chunk x="208" y="64" width="16" height="16">
17,17,17,17,17,17,17,17,17,17,17,17,17,17,17,17,
17,17,17,17,17,17,17,17,17,17,17,17,17,17,17,17,
17,17,17,17,17,17,17,17,17,17,17,17,17,17,17,17,
17,17,17,17,17,17,17,17,17,17,17,17,17,17,17,17,
17,17,17,17,17,17,17,17,17,17,17,17,17,17,17,17,
17,17,17,17,17,17,17,17,17,17,17,17,17,17,17,17,
17,17,17,17,17,17,17,17,17,17,17,17,17,17,17,17,
17,17,17,17,17,17,17,17,17,17,17,17,17,17,17,17,
17,17,17,17,17,17,17,17,17,17,17,17,17,17,17,17,
17,17,17,17,17,17,17,17,17,17,17,17,17,17,17,17,
17,17,17,17,17,17,17,17,17,17,17,17,17,17,17,17,
17,17,17,17,17,17,17,17,17,17,17,17,17,17,17,17,
0,0,0,0,0,0,0,0,0,0,0,0,0,0,0,0,
0,0,0,0,0,0,0,0,0,0,0,0,0,0,0,0,
0,0,0,0,0,0,0,0,0,0,0,0,0,0,0,0,
0,0,0,0,0,0,0,0,0,0,0,0,0,0,0,0
</chunk>
   <chunk x="224" y="64" width="16" height="16">
17,17,17,17,17,17,17,17,17,17,17,17,17,17,17,17,
17,17,17,17,17,17,17,17,17,17,17,17,17,17,17,17,
17,17,17,17,17,17,17,17,17,17,17,17,17,17,17,17,
17,17,17,17,17,17,17,17,17,17,17,17,17,17,17,17,
17,17,17,17,17,17,17,17,17,17,17,17,17,17,17,17,
17,17,17,17,17,17,17,17,17,17,17,17,17,17,17,17,
17,17,17,17,17,17,17,17,17,17,17,17,17,17,17,17,
17,17,17,17,17,17,17,17,17,17,17,17,17,17,17,17,
17,17,17,17,17,17,17,17,17,17,17,17,17,17,17,17,
17,17,17,17,17,17,17,17,17,17,17,17,17,17,17,17,
17,17,17,17,17,17,17,17,17,17,17,17,17,17,17,17,
17,17,17,17,17,17,17,17,17,17,17,17,17,17,17,17,
0,0,0,0,0,0,0,0,0,0,0,0,0,0,0,0,
0,0,0,0,0,0,0,0,0,0,0,0,0,0,0,0,
0,0,0,0,0,0,0,0,0,0,0,0,0,0,0,0,
0,0,0,0,0,0,0,0,0,0,0,0,0,0,0,0
</chunk>
   <chunk x="240" y="64" width="16" height="16">
17,17,17,17,17,17,17,17,17,17,17,17,17,17,17,17,
17,17,17,17,17,17,17,17,17,17,17,17,17,17,17,17,
17,17,17,17,17,17,17,17,17,17,17,17,17,17,17,17,
17,17,17,17,17,17,17,17,17,17,17,17,17,17,17,17,
17,17,17,17,17,17,17,17,17,17,17,17,17,17,17,17,
17,17,17,17,17,17,17,17,17,17,17,17,17,17,17,17,
17,17,17,17,17,17,17,17,17,17,17,17,17,17,17,17,
17,17,17,17,17,17,17,17,17,17,17,17,17,17,17,17,
17,17,17,17,17,17,17,17,17,17,17,17,17,17,17,17,
17,17,17,17,17,17,17,17,17,17,17,17,17,17,17,17,
17,17,17,17,17,17,17,17,17,17,17,17,17,17,17,17,
17,17,17,17,17,17,17,17,17,17,17,17,17,17,17,17,
0,0,0,0,0,0,0,0,0,0,0,0,0,0,0,0,
0,0,0,0,0,0,0,0,0,0,0,0,0,0,0,0,
0,0,0,0,0,0,0,0,0,0,0,0,0,0,0,0,
0,0,0,0,0,0,0,0,0,0,0,0,0,0,0,0
</chunk>
   <chunk x="256" y="64" width="16" height="16">
17,17,17,17,17,17,17,17,17,17,17,17,17,17,17,17,
17,17,17,17,17,17,17,17,17,17,17,17,17,17,17,17,
17,17,17,17,17,17,17,17,17,17,17,17,17,17,17,17,
17,17,17,17,17,17,17,17,17,17,17,17,17,17,17,17,
17,17,17,17,17,17,17,17,17,17,17,17,17,17,17,17,
17,17,17,17,17,17,17,17,17,17,17,17,17,17,17,17,
17,17,17,17,17,17,17,17,17,17,17,17,17,17,17,17,
17,17,17,17,17,17,17,17,17,17,17,17,17,17,17,17,
17,17,17,17,17,17,17,17,17,17,17,17,17,17,17,17,
17,17,17,17,17,17,17,17,17,17,17,17,17,17,17,17,
17,17,17,17,17,17,17,17,17,17,17,17,17,17,17,17,
17,17,17,17,17,17,17,17,17,17,17,17,17,17,17,17,
0,0,0,0,0,0,0,0,0,0,0,0,0,0,0,0,
0,0,0,0,0,0,0,0,0,0,0,0,0,0,0,0,
0,0,0,0,0,0,0,0,0,0,0,0,0,0,0,0,
0,0,0,0,0,0,0,0,0,0,0,0,0,0,0,0
</chunk>
   <chunk x="272" y="64" width="16" height="16">
17,17,17,17,17,17,17,17,17,17,17,17,17,17,17,17,
17,17,17,17,17,17,17,17,17,17,17,17,17,17,17,17,
17,17,17,17,17,17,17,17,17,17,17,17,17,17,17,17,
17,17,17,17,17,17,17,17,17,17,17,17,17,17,17,17,
17,17,17,17,17,17,17,17,17,17,17,17,17,17,17,17,
17,17,17,17,17,17,17,17,17,17,17,17,17,17,17,17,
17,17,17,17,17,17,17,17,17,17,17,17,17,17,17,17,
17,17,17,17,17,17,17,17,17,17,17,17,17,17,17,17,
17,17,17,17,17,17,17,17,17,17,17,17,17,17,17,17,
17,17,17,17,17,17,17,17,17,17,17,17,17,17,17,17,
17,17,17,17,17,17,17,17,17,17,17,17,17,17,17,17,
17,17,17,17,17,17,17,17,17,17,17,17,17,17,17,17,
0,0,0,0,0,0,0,0,0,0,0,0,0,0,0,0,
0,0,0,0,0,0,0,0,0,0,0,0,0,0,0,0,
0,0,0,0,0,0,0,0,0,0,0,0,0,0,0,0,
0,0,0,0,0,0,0,0,0,0,0,0,0,0,0,0
</chunk>
   <chunk x="288" y="64" width="16" height="16">
17,17,17,17,17,17,17,17,17,17,17,17,17,17,17,17,
17,17,17,17,17,17,17,17,17,17,17,17,17,17,17,17,
17,17,17,17,17,17,17,17,17,17,17,17,17,17,17,17,
17,17,17,17,17,17,17,17,17,17,17,17,17,17,17,17,
17,17,17,17,17,17,17,17,17,17,17,17,17,17,17,17,
17,17,17,17,17,17,17,17,17,17,17,17,17,17,17,17,
17,17,17,17,17,17,17,17,17,17,17,17,17,17,17,17,
17,17,17,17,17,17,17,17,17,17,17,17,17,17,17,17,
17,17,17,17,17,17,17,17,17,17,17,17,17,17,17,17,
17,17,17,17,17,17,17,17,17,17,17,17,17,17,17,17,
17,17,17,17,17,17,17,17,17,17,17,17,17,17,17,17,
17,17,17,17,17,17,17,17,17,17,17,17,17,17,17,17,
0,0,0,0,0,0,0,0,0,0,0,0,0,0,0,0,
0,0,0,0,0,0,0,0,0,0,0,0,0,0,0,0,
0,0,0,0,0,0,0,0,0,0,0,0,0,0,0,0,
0,0,0,0,0,0,0,0,0,0,0,0,0,0,0,0
</chunk>
   <chunk x="304" y="64" width="16" height="16">
17,17,17,17,17,17,17,17,17,17,17,17,17,17,17,17,
17,17,17,17,17,17,17,17,17,17,17,17,17,17,17,17,
17,17,17,17,17,17,17,17,17,17,17,17,17,17,17,17,
17,17,17,17,17,17,17,17,17,17,17,17,17,17,17,17,
17,17,17,17,17,17,17,17,17,17,17,17,17,17,17,17,
17,17,17,17,17,17,17,17,17,17,17,17,17,17,17,17,
17,17,17,17,17,17,17,17,17,17,17,17,17,17,17,17,
17,17,17,17,17,17,17,17,17,17,17,17,17,17,17,17,
17,17,17,17,17,17,17,17,17,17,17,17,17,17,17,17,
17,17,17,17,17,17,17,17,17,17,17,17,17,17,17,17,
17,17,17,17,17,17,17,17,17,17,17,17,17,17,17,17,
17,17,17,17,17,17,17,17,17,17,17,17,17,17,17,17,
0,0,0,0,0,0,0,0,0,0,0,0,0,0,0,0,
0,0,0,0,0,0,0,0,0,0,0,0,0,0,0,0,
0,0,0,0,0,0,0,0,0,0,0,0,0,0,0,0,
0,0,0,0,0,0,0,0,0,0,0,0,0,0,0,0
</chunk>
   <chunk x="320" y="64" width="16" height="16">
17,17,17,17,17,17,17,17,17,17,17,17,17,17,17,17,
17,17,17,17,17,17,17,17,17,17,17,17,17,17,17,17,
17,17,17,17,17,17,17,17,17,17,17,17,17,17,17,17,
17,17,17,17,17,17,17,17,17,17,17,17,17,17,17,17,
17,17,17,17,17,17,17,17,17,17,17,17,17,17,17,17,
17,17,17,17,17,17,17,17,17,17,17,17,17,17,17,17,
17,17,17,17,17,17,17,17,17,17,17,17,17,17,17,17,
17,17,17,17,17,17,17,17,17,17,17,17,17,17,17,17,
17,17,17,17,17,17,17,17,17,17,17,17,17,17,17,17,
17,17,17,17,17,17,17,17,17,17,17,17,17,17,17,17,
17,17,17,17,17,17,17,17,17,17,17,17,17,17,17,17,
17,17,17,17,17,17,17,17,17,17,17,17,17,17,17,17,
0,0,0,0,0,0,0,0,0,0,0,0,0,0,0,0,
0,0,0,0,0,0,0,0,0,0,0,0,0,0,0,0,
0,0,0,0,0,0,0,0,0,0,0,0,0,0,0,0,
0,0,0,0,0,0,0,0,0,0,0,0,0,0,0,0
</chunk>
   <chunk x="336" y="64" width="16" height="16">
17,17,17,17,17,17,17,17,17,17,17,17,17,17,17,17,
17,17,17,17,17,17,17,17,17,17,17,17,17,17,17,17,
17,17,17,17,17,17,17,17,17,17,17,17,17,17,17,17,
17,17,17,17,17,17,17,17,17,17,17,17,17,17,17,17,
17,17,17,17,17,17,17,17,17,17,17,17,17,17,17,17,
17,17,17,17,17,17,17,17,17,17,17,17,17,17,17,17,
17,17,17,17,17,17,17,17,17,17,17,17,17,17,17,17,
17,17,17,17,17,17,17,17,17,17,17,17,17,17,17,17,
17,17,17,17,17,17,17,17,17,17,17,17,17,17,17,17,
17,17,17,17,17,17,17,17,17,17,17,17,17,17,17,17,
17,17,17,17,17,17,17,17,17,17,17,17,17,17,17,17,
17,17,17,17,17,17,17,17,17,17,17,17,17,17,17,17,
0,0,0,0,0,0,0,0,0,0,0,0,0,0,0,0,
0,0,0,0,0,0,0,0,0,0,0,0,0,0,0,0,
0,0,0,0,0,0,0,0,0,0,0,0,0,0,0,0,
0,0,0,0,0,0,0,0,0,0,0,0,0,0,0,0
</chunk>
   <chunk x="352" y="64" width="16" height="16">
17,17,17,17,0,0,0,0,0,0,0,0,0,0,0,0,
17,17,17,17,0,0,0,0,0,0,0,0,0,0,0,0,
17,17,17,17,0,0,0,0,0,0,0,0,0,0,0,0,
17,17,17,17,0,0,0,0,0,0,0,0,0,0,0,0,
17,17,17,17,0,0,0,0,0,0,0,0,0,0,0,0,
17,17,17,17,0,0,0,0,0,0,0,0,0,0,0,0,
17,17,17,17,0,0,0,0,0,0,0,0,0,0,0,0,
17,17,17,17,0,0,0,0,0,0,0,0,0,0,0,0,
17,17,17,17,0,0,0,0,0,0,0,0,0,0,0,0,
17,17,17,17,0,0,0,0,0,0,0,0,0,0,0,0,
17,17,17,17,0,0,0,0,0,0,0,0,0,0,0,0,
17,17,17,17,17,17,17,17,17,17,17,17,17,17,17,17,
0,0,0,0,0,0,0,0,0,0,0,0,0,0,0,0,
0,0,0,0,0,0,0,0,0,0,0,0,0,0,0,0,
0,0,0,0,0,0,0,0,0,0,0,0,0,0,0,0,
0,0,0,0,0,0,0,0,0,0,0,0,0,0,0,0
</chunk>
   <chunk x="368" y="64" width="16" height="16">
0,0,0,0,0,0,0,0,0,0,0,17,17,17,17,17,
0,0,0,0,0,0,0,0,0,0,0,17,17,17,17,17,
0,0,0,0,0,0,0,0,0,0,0,17,17,17,17,17,
0,0,0,0,0,0,0,0,0,0,0,17,17,17,17,17,
0,0,0,0,0,0,0,0,0,0,0,17,17,17,17,17,
0,0,0,0,0,0,0,0,0,0,0,17,17,17,17,17,
0,0,0,0,0,0,0,0,0,0,0,17,17,17,17,17,
0,0,0,0,0,0,0,0,0,0,0,17,17,17,17,17,
0,0,0,0,0,0,0,0,0,0,0,17,17,17,17,17,
0,0,0,0,0,0,0,0,0,0,0,17,17,17,17,17,
0,0,0,0,0,0,0,0,0,0,0,17,17,17,17,17,
17,17,17,17,17,17,17,17,17,17,17,17,17,17,17,17,
0,0,0,0,0,0,0,0,0,0,0,0,0,0,0,0,
0,0,0,0,0,0,0,0,0,0,0,0,0,0,0,0,
0,0,0,0,0,0,0,0,0,0,0,0,0,0,0,0,
0,0,0,0,0,0,0,0,0,0,0,0,0,0,0,0
</chunk>
   <chunk x="384" y="64" width="16" height="16">
17,17,17,17,17,17,17,17,17,17,17,17,17,17,17,17,
17,17,17,17,17,17,17,17,17,17,17,17,17,17,17,17,
17,17,17,17,17,17,17,17,17,17,17,17,17,17,17,17,
17,17,17,17,17,17,17,17,17,17,17,17,17,17,17,17,
17,17,17,17,17,17,17,17,17,17,17,17,17,17,17,17,
17,17,17,17,17,17,17,17,17,17,17,17,17,17,17,17,
17,17,17,17,17,17,17,17,17,17,17,17,17,17,17,17,
17,17,17,17,17,17,17,17,17,17,17,17,17,17,17,17,
17,17,17,17,17,17,17,17,17,17,17,17,17,17,17,17,
17,17,17,17,17,17,17,17,17,17,17,17,17,17,17,17,
17,17,17,17,17,17,17,17,17,17,17,17,17,17,17,17,
17,17,17,17,17,17,17,17,17,17,17,17,17,17,17,17,
0,0,0,0,0,0,0,0,0,0,0,0,0,0,0,0,
0,0,0,0,0,0,0,0,0,0,0,0,0,0,0,0,
0,0,0,0,0,0,0,0,0,0,0,0,0,0,0,0,
0,0,0,0,0,0,0,0,0,0,0,0,0,0,0,0
</chunk>
   <chunk x="400" y="64" width="16" height="16">
17,17,17,17,17,17,17,17,17,17,17,17,17,17,17,17,
17,17,17,17,17,17,17,17,17,17,17,17,17,17,17,17,
17,17,17,17,17,17,17,17,17,17,17,17,17,17,17,17,
17,17,17,17,17,17,17,17,17,17,17,17,17,17,17,17,
17,17,17,17,17,17,17,17,17,17,17,17,17,17,17,17,
17,17,17,17,17,17,17,17,17,17,17,17,17,17,17,17,
17,17,17,17,17,17,17,17,17,17,17,17,17,17,17,17,
17,17,17,17,17,17,17,17,17,17,17,17,17,17,17,17,
17,17,17,17,17,17,17,17,17,17,17,17,17,17,17,17,
17,17,17,17,17,17,17,17,17,17,17,17,17,17,17,17,
17,17,17,17,17,17,17,17,17,17,17,17,17,17,17,17,
17,17,17,17,17,17,17,17,17,17,17,17,17,17,17,17,
0,0,0,0,0,0,0,0,0,0,0,0,0,0,0,0,
0,0,0,0,0,0,0,0,0,0,0,0,0,0,0,0,
0,0,0,0,0,0,0,0,0,0,0,0,0,0,0,0,
0,0,0,0,0,0,0,0,0,0,0,0,0,0,0,0
</chunk>
   <chunk x="416" y="64" width="16" height="16">
17,17,17,17,17,17,17,17,17,17,17,17,17,17,17,17,
17,17,17,17,17,17,17,17,17,17,17,17,17,17,17,17,
17,17,17,17,17,17,17,17,17,17,17,17,17,17,17,17,
17,17,17,17,17,17,17,17,17,17,17,17,17,17,17,17,
17,17,17,17,17,17,17,17,17,17,17,17,17,17,17,17,
17,17,17,17,17,17,17,17,17,17,17,17,17,17,17,17,
17,17,17,17,17,17,17,17,17,17,17,17,17,17,17,17,
17,17,17,17,17,17,17,17,17,17,17,17,17,17,17,17,
17,17,17,17,17,17,17,17,17,17,17,17,17,17,17,17,
17,17,17,17,17,17,17,17,17,17,17,17,17,17,17,17,
17,17,17,17,17,17,17,17,17,17,17,17,17,17,17,17,
17,17,17,17,17,17,17,17,17,17,17,17,17,17,17,17,
0,0,0,0,0,0,0,0,0,0,0,0,0,0,0,0,
0,0,0,0,0,0,0,0,0,0,0,0,0,0,0,0,
0,0,0,0,0,0,0,0,0,0,0,0,0,0,0,0,
0,0,0,0,0,0,0,0,0,0,0,0,0,0,0,0
</chunk>
  </data>
 </layer>
 <layer id="6" name="Overlay" width="30" height="20">
  <data encoding="csv">
   <chunk x="160" y="-80" width="16" height="16">
0,0,0,0,0,0,0,0,0,0,0,0,0,0,0,0,
0,0,0,0,0,0,0,0,0,0,0,0,0,0,0,0,
0,0,0,0,0,0,0,0,0,0,0,0,0,0,0,0,
0,0,0,0,0,0,0,0,0,0,0,0,0,0,0,0,
0,0,0,0,0,0,0,0,0,0,0,0,0,0,0,0,
0,0,0,0,0,0,0,0,0,0,0,0,0,0,0,0,
0,0,0,0,0,0,0,0,0,0,0,0,0,0,0,0,
0,0,0,0,0,0,0,0,0,0,0,0,0,0,0,0,
0,0,0,0,0,0,0,0,0,0,0,0,0,0,0,0,
0,0,0,0,0,0,0,0,0,0,0,0,0,0,0,0,
0,0,0,0,0,0,0,0,0,0,0,0,0,0,0,0,
0,0,0,0,0,0,0,0,0,0,0,0,0,0,0,0,
0,0,0,0,0,0,0,0,0,0,173,173,173,173,173,173,
0,0,0,0,0,0,0,0,0,0,173,173,173,173,173,173,
0,0,0,0,0,0,0,0,0,0,173,173,173,173,173,173,
0,0,0,0,0,0,0,0,0,0,173,173,173,173,173,173
</chunk>
   <chunk x="176" y="-80" width="16" height="16">
0,0,0,0,0,0,0,0,0,0,0,0,0,0,0,0,
0,0,0,0,0,0,0,0,0,0,0,0,0,0,0,0,
0,0,0,0,0,0,0,0,0,0,0,0,0,0,0,0,
0,0,0,0,0,0,0,0,0,0,0,0,0,0,0,0,
0,0,0,0,0,0,0,0,0,0,0,0,0,0,0,0,
0,0,0,0,0,0,0,0,0,0,0,0,0,0,0,0,
0,0,0,0,0,0,0,0,0,0,0,0,0,0,0,0,
0,0,0,0,0,0,0,0,0,0,0,0,0,0,0,0,
0,0,0,0,0,0,0,0,0,0,0,0,0,0,0,0,
0,0,0,0,0,0,0,0,0,0,0,0,0,0,0,0,
0,0,0,0,0,0,0,0,0,0,0,0,0,0,0,0,
0,0,0,0,0,0,0,0,0,0,0,0,0,0,0,0,
173,173,173,173,173,173,173,173,173,173,173,173,173,173,173,173,
173,173,173,173,173,173,173,173,173,173,173,173,173,173,173,173,
173,173,173,173,173,173,173,173,173,173,173,173,173,173,173,173,
173,173,173,173,173,173,173,173,173,173,173,173,173,173,173,173
</chunk>
   <chunk x="192" y="-80" width="16" height="16">
0,0,0,0,0,0,0,0,0,0,0,0,0,0,0,0,
0,0,0,0,0,0,0,0,0,0,0,0,0,0,0,0,
0,0,0,0,0,0,0,0,0,0,0,0,0,0,0,0,
0,0,0,0,0,0,0,0,0,0,0,0,0,0,0,0,
0,0,0,0,0,0,0,0,0,0,0,0,0,0,0,0,
0,0,0,0,0,0,0,0,0,0,0,0,0,0,0,0,
0,0,0,0,0,0,0,0,0,0,0,0,0,0,0,0,
0,0,0,0,0,0,0,0,0,0,0,0,0,0,0,0,
0,0,0,0,0,0,0,0,0,0,0,0,0,0,0,0,
0,0,0,0,0,0,0,0,0,0,0,0,0,0,0,0,
0,0,0,0,0,0,0,0,0,0,0,0,0,0,0,0,
0,0,0,0,0,0,0,0,0,0,0,0,0,0,0,0,
173,173,173,173,173,173,173,173,173,173,173,173,173,173,173,173,
173,173,173,173,173,173,173,173,173,173,173,173,173,173,173,173,
173,173,173,173,173,173,173,173,173,173,173,173,173,173,173,173,
173,173,173,173,173,173,173,173,173,173,173,173,173,173,173,173
</chunk>
   <chunk x="208" y="-80" width="16" height="16">
0,0,0,0,0,0,0,0,0,0,0,0,0,0,0,0,
0,0,0,0,0,0,0,0,0,0,0,0,0,0,0,0,
0,0,0,0,0,0,0,0,0,0,0,0,0,0,0,0,
0,0,0,0,0,0,0,0,0,0,0,0,0,0,0,0,
0,0,0,0,0,0,0,0,0,0,0,0,0,0,0,0,
0,0,0,0,0,0,0,0,0,0,0,0,0,0,0,0,
0,0,0,0,0,0,0,0,0,0,0,0,0,0,0,0,
0,0,0,0,0,0,0,0,0,0,0,0,0,0,0,0,
0,0,0,0,0,0,0,0,0,0,0,0,0,0,0,0,
0,0,0,0,0,0,0,0,0,0,0,0,0,0,0,0,
0,0,0,0,0,0,0,0,0,0,0,0,0,0,0,0,
0,0,0,0,0,0,0,0,0,0,0,0,0,0,0,0,
173,173,173,173,173,173,173,173,173,173,173,173,173,173,173,173,
173,173,173,173,173,173,173,173,173,173,173,173,173,173,173,173,
173,173,173,173,173,173,173,173,173,173,173,173,173,173,173,173,
173,173,173,173,173,173,173,173,173,173,173,173,173,173,173,173
</chunk>
   <chunk x="224" y="-80" width="16" height="16">
0,0,0,0,0,0,0,0,0,0,0,0,0,0,0,0,
0,0,0,0,0,0,0,0,0,0,0,0,0,0,0,0,
0,0,0,0,0,0,0,0,0,0,0,0,0,0,0,0,
0,0,0,0,0,0,0,0,0,0,0,0,0,0,0,0,
0,0,0,0,0,0,0,0,0,0,0,0,0,0,0,0,
0,0,0,0,0,0,0,0,0,0,0,0,0,0,0,0,
0,0,0,0,0,0,0,0,0,0,0,0,0,0,0,0,
0,0,0,0,0,0,0,0,0,0,0,0,0,0,0,0,
0,0,0,0,0,0,0,0,0,0,0,0,0,0,0,0,
0,0,0,0,0,0,0,0,0,0,0,0,0,0,0,0,
0,0,0,0,0,0,0,0,0,0,0,0,0,0,0,0,
0,0,0,0,0,0,0,0,0,0,0,0,0,0,0,0,
173,173,173,173,173,173,173,173,173,173,173,173,173,173,173,173,
173,173,173,173,173,173,173,173,173,173,173,173,173,173,173,173,
173,173,173,173,173,173,173,173,173,173,173,173,173,173,173,173,
173,173,173,173,173,173,173,173,173,173,173,173,173,173,173,173
</chunk>
   <chunk x="240" y="-80" width="16" height="16">
0,0,0,0,0,0,0,0,0,0,0,0,0,0,0,0,
0,0,0,0,0,0,0,0,0,0,0,0,0,0,0,0,
0,0,0,0,0,0,0,0,0,0,0,0,0,0,0,0,
0,0,0,0,0,0,0,0,0,0,0,0,0,0,0,0,
0,0,0,0,0,0,0,0,0,0,0,0,0,0,0,0,
0,0,0,0,0,0,0,0,0,0,0,0,0,0,0,0,
0,0,0,0,0,0,0,0,0,0,0,0,0,0,0,0,
0,0,0,0,0,0,0,0,0,0,0,0,0,0,0,0,
0,0,0,0,0,0,0,0,0,0,0,0,0,0,0,0,
0,0,0,0,0,0,0,0,0,0,0,0,0,0,0,0,
0,0,0,0,0,0,0,0,0,0,0,0,0,0,0,0,
0,0,0,0,0,0,0,0,0,0,0,0,0,0,0,0,
173,173,173,173,173,173,173,173,173,173,173,173,173,173,173,173,
173,173,173,173,173,173,173,173,173,173,173,173,173,173,173,173,
173,173,173,173,173,173,173,173,173,173,173,173,173,173,173,173,
173,173,173,173,173,173,173,173,173,173,173,173,173,173,173,173
</chunk>
   <chunk x="256" y="-80" width="16" height="16">
0,0,0,0,0,0,0,0,0,0,0,0,0,0,0,0,
0,0,0,0,0,0,0,0,0,0,0,0,0,0,0,0,
0,0,0,0,0,0,0,0,0,0,0,0,0,0,0,0,
0,0,0,0,0,0,0,0,0,0,0,0,0,0,0,0,
0,0,0,0,0,0,0,0,0,0,0,0,0,0,0,0,
0,0,0,0,0,0,0,0,0,0,0,0,0,0,0,0,
0,0,0,0,0,0,0,0,0,0,0,0,0,0,0,0,
0,0,0,0,0,0,0,0,0,0,0,0,0,0,0,0,
0,0,0,0,0,0,0,0,0,0,0,0,0,0,0,0,
0,0,0,0,0,0,0,0,0,0,0,0,0,0,0,0,
0,0,0,0,0,0,0,0,0,0,0,0,0,0,0,0,
0,0,0,0,0,0,0,0,0,0,0,0,0,0,0,0,
173,173,173,173,173,173,173,173,173,173,173,173,173,173,173,173,
173,173,173,173,173,173,173,173,173,173,173,173,173,173,173,173,
173,173,173,173,173,173,173,173,173,173,173,173,173,173,173,173,
173,173,173,173,173,173,173,173,173,173,173,173,173,173,173,173
</chunk>
   <chunk x="272" y="-80" width="16" height="16">
0,0,0,0,0,0,0,0,0,0,0,0,0,0,0,0,
0,0,0,0,0,0,0,0,0,0,0,0,0,0,0,0,
0,0,0,0,0,0,0,0,0,0,0,0,0,0,0,0,
0,0,0,0,0,0,0,0,0,0,0,0,0,0,0,0,
0,0,0,0,0,0,0,0,0,0,0,0,0,0,0,0,
0,0,0,0,0,0,0,0,0,0,0,0,0,0,0,0,
0,0,0,0,0,0,0,0,0,0,0,0,0,0,0,0,
0,0,0,0,0,0,0,0,0,0,0,0,0,0,0,0,
0,0,0,0,0,0,0,0,0,0,0,0,0,0,0,0,
0,0,0,0,0,0,0,0,0,0,0,0,0,0,0,0,
0,0,0,0,0,0,0,0,0,0,0,0,0,0,0,0,
0,0,0,0,0,0,0,0,0,0,0,0,0,0,0,0,
173,173,173,173,173,173,173,173,173,173,173,173,173,173,173,173,
173,173,173,173,173,173,173,173,173,173,173,173,173,173,173,173,
173,173,173,173,173,173,173,173,173,173,173,173,173,173,173,173,
173,173,173,173,173,173,173,173,173,173,173,173,173,173,173,173
</chunk>
   <chunk x="288" y="-80" width="16" height="16">
0,0,0,0,0,0,0,0,0,0,0,0,0,0,0,0,
0,0,0,0,0,0,0,0,0,0,0,0,0,0,0,0,
0,0,0,0,0,0,0,0,0,0,0,0,0,0,0,0,
0,0,0,0,0,0,0,0,0,0,0,0,0,0,0,0,
0,0,0,0,0,0,0,0,0,0,0,0,0,0,0,0,
0,0,0,0,0,0,0,0,0,0,0,0,0,0,0,0,
0,0,0,0,0,0,0,0,0,0,0,0,0,0,0,0,
0,0,0,0,0,0,0,0,0,0,0,0,0,0,0,0,
0,0,0,0,0,0,0,0,0,0,0,0,0,0,0,0,
0,0,0,0,0,0,0,0,0,0,0,0,0,0,0,0,
0,0,0,0,0,0,0,0,0,0,0,0,0,0,0,0,
0,0,0,0,0,0,0,0,0,0,0,0,0,0,0,0,
173,173,173,173,173,173,173,173,173,173,173,173,173,173,173,173,
173,173,173,173,173,173,173,173,173,173,173,173,173,173,173,173,
173,173,173,173,173,173,173,173,173,173,173,173,173,173,173,173,
173,173,173,173,173,173,173,173,173,173,173,173,173,173,173,173
</chunk>
   <chunk x="304" y="-80" width="16" height="16">
0,0,0,0,0,0,0,0,0,0,0,0,0,0,0,0,
0,0,0,0,0,0,0,0,0,0,0,0,0,0,0,0,
0,0,0,0,0,0,0,0,0,0,0,0,0,0,0,0,
0,0,0,0,0,0,0,0,0,0,0,0,0,0,0,0,
0,0,0,0,0,0,0,0,0,0,0,0,0,0,0,0,
0,0,0,0,0,0,0,0,0,0,0,0,0,0,0,0,
0,0,0,0,0,0,0,0,0,0,0,0,0,0,0,0,
0,0,0,0,0,0,0,0,0,0,0,0,0,0,0,0,
0,0,0,0,0,0,0,0,0,0,0,0,0,0,0,0,
0,0,0,0,0,0,0,0,0,0,0,0,0,0,0,0,
0,0,0,0,0,0,0,0,0,0,0,0,0,0,0,0,
0,0,0,0,0,0,0,0,0,0,0,0,0,0,0,0,
173,173,173,173,173,173,173,173,173,173,173,173,173,173,173,173,
173,173,173,173,173,173,173,173,173,173,173,173,173,173,173,173,
173,173,173,173,173,173,173,173,173,173,173,173,173,173,173,173,
173,173,173,173,173,173,173,173,173,173,173,173,173,173,173,173
</chunk>
   <chunk x="320" y="-80" width="16" height="16">
0,0,0,0,0,0,0,0,0,0,0,0,0,0,0,0,
0,0,0,0,0,0,0,0,0,0,0,0,0,0,0,0,
0,0,0,0,0,0,0,0,0,0,0,0,0,0,0,0,
0,0,0,0,0,0,0,0,0,0,0,0,0,0,0,0,
0,0,0,0,0,0,0,0,0,0,0,0,0,0,0,0,
0,0,0,0,0,0,0,0,0,0,0,0,0,0,0,0,
0,0,0,0,0,0,0,0,0,0,0,0,0,0,0,0,
0,0,0,0,0,0,0,0,0,0,0,0,0,0,0,0,
0,0,0,0,0,0,0,0,0,0,0,0,0,0,0,0,
0,0,0,0,0,0,0,0,0,0,0,0,0,0,0,0,
0,0,0,0,0,0,0,0,0,0,0,0,0,0,0,0,
0,0,0,0,0,0,0,0,0,0,0,0,0,0,0,0,
173,173,173,173,173,173,173,173,173,173,173,173,173,173,173,173,
173,173,173,173,173,173,173,173,173,173,173,173,173,173,173,173,
173,173,173,173,173,173,173,173,173,173,173,173,173,173,173,173,
173,173,173,173,173,173,173,173,173,173,173,173,173,173,173,173
</chunk>
   <chunk x="336" y="-80" width="16" height="16">
0,0,0,0,0,0,0,0,0,0,0,0,0,0,0,0,
0,0,0,0,0,0,0,0,0,0,0,0,0,0,0,0,
0,0,0,0,0,0,0,0,0,0,0,0,0,0,0,0,
0,0,0,0,0,0,0,0,0,0,0,0,0,0,0,0,
0,0,0,0,0,0,0,0,0,0,0,0,0,0,0,0,
0,0,0,0,0,0,0,0,0,0,0,0,0,0,0,0,
0,0,0,0,0,0,0,0,0,0,0,0,0,0,0,0,
0,0,0,0,0,0,0,0,0,0,0,0,0,0,0,0,
0,0,0,0,0,0,0,0,0,0,0,0,0,0,0,0,
0,0,0,0,0,0,0,0,0,0,0,0,0,0,0,0,
0,0,0,0,0,0,0,0,0,0,0,0,0,0,0,0,
0,0,0,0,0,0,0,0,0,0,0,0,0,0,0,0,
173,173,173,173,173,173,173,173,173,173,173,173,173,173,173,173,
173,173,173,173,173,173,173,173,173,173,173,173,173,173,173,173,
173,173,173,173,173,173,173,173,173,173,173,173,173,173,173,173,
173,173,173,173,173,173,173,173,173,173,173,173,173,173,173,173
</chunk>
   <chunk x="352" y="-80" width="16" height="16">
0,0,0,0,0,0,0,0,0,0,0,0,0,0,0,0,
0,0,0,0,0,0,0,0,0,0,0,0,0,0,0,0,
0,0,0,0,0,0,0,0,0,0,0,0,0,0,0,0,
0,0,0,0,0,0,0,0,0,0,0,0,0,0,0,0,
0,0,0,0,0,0,0,0,0,0,0,0,0,0,0,0,
0,0,0,0,0,0,0,0,0,0,0,0,0,0,0,0,
0,0,0,0,0,0,0,0,0,0,0,0,0,0,0,0,
0,0,0,0,0,0,0,0,0,0,0,0,0,0,0,0,
0,0,0,0,0,0,0,0,0,0,0,0,0,0,0,0,
0,0,0,0,0,0,0,0,0,0,0,0,0,0,0,0,
0,0,0,0,0,0,0,0,0,0,0,0,0,0,0,0,
0,0,0,0,0,0,0,0,0,0,0,0,0,0,0,0,
173,173,173,173,173,173,173,173,173,173,173,173,173,173,173,173,
173,173,173,173,173,173,173,173,173,173,173,173,173,173,173,173,
173,173,173,173,173,173,173,173,173,173,173,173,173,173,173,173,
173,173,173,173,173,173,173,173,173,173,173,173,173,173,173,173
</chunk>
   <chunk x="368" y="-80" width="16" height="16">
0,0,0,0,0,0,0,0,0,0,0,0,0,0,0,0,
0,0,0,0,0,0,0,0,0,0,0,0,0,0,0,0,
0,0,0,0,0,0,0,0,0,0,0,0,0,0,0,0,
0,0,0,0,0,0,0,0,0,0,0,0,0,0,0,0,
0,0,0,0,0,0,0,0,0,0,0,0,0,0,0,0,
0,0,0,0,0,0,0,0,0,0,0,0,0,0,0,0,
0,0,0,0,0,0,0,0,0,0,0,0,0,0,0,0,
0,0,0,0,0,0,0,0,0,0,0,0,0,0,0,0,
0,0,0,0,0,0,0,0,0,0,0,0,0,0,0,0,
0,0,0,0,0,0,0,0,0,0,0,0,0,0,0,0,
0,0,0,0,0,0,0,0,0,0,0,0,0,0,0,0,
0,0,0,0,0,0,0,0,0,0,0,0,0,0,0,0,
173,173,173,173,173,173,173,173,173,173,173,173,173,173,173,173,
173,173,173,173,173,173,173,173,173,173,173,173,173,173,173,173,
173,173,173,173,173,173,173,173,173,173,173,173,173,173,173,173,
173,173,173,173,173,173,173,173,173,173,173,173,173,173,173,173
</chunk>
   <chunk x="384" y="-80" width="16" height="16">
0,0,0,0,0,0,0,0,0,0,0,0,0,0,0,0,
0,0,0,0,0,0,0,0,0,0,0,0,0,0,0,0,
0,0,0,0,0,0,0,0,0,0,0,0,0,0,0,0,
0,0,0,0,0,0,0,0,0,0,0,0,0,0,0,0,
0,0,0,0,0,0,0,0,0,0,0,0,0,0,0,0,
0,0,0,0,0,0,0,0,0,0,0,0,0,0,0,0,
0,0,0,0,0,0,0,0,0,0,0,0,0,0,0,0,
0,0,0,0,0,0,0,0,0,0,0,0,0,0,0,0,
0,0,0,0,0,0,0,0,0,0,0,0,0,0,0,0,
0,0,0,0,0,0,0,0,0,0,0,0,0,0,0,0,
0,0,0,0,0,0,0,0,0,0,0,0,0,0,0,0,
0,0,0,0,0,0,0,0,0,0,0,0,0,0,0,0,
173,173,173,173,173,173,173,173,173,173,173,173,173,173,173,173,
173,173,173,173,173,173,173,173,173,173,173,173,173,173,173,173,
173,173,173,173,173,173,173,173,173,173,173,173,173,173,173,173,
173,173,173,173,173,173,173,173,173,173,173,173,173,173,173,173
</chunk>
   <chunk x="400" y="-80" width="16" height="16">
0,0,0,0,0,0,0,0,0,0,0,0,0,0,0,0,
0,0,0,0,0,0,0,0,0,0,0,0,0,0,0,0,
0,0,0,0,0,0,0,0,0,0,0,0,0,0,0,0,
0,0,0,0,0,0,0,0,0,0,0,0,0,0,0,0,
0,0,0,0,0,0,0,0,0,0,0,0,0,0,0,0,
0,0,0,0,0,0,0,0,0,0,0,0,0,0,0,0,
0,0,0,0,0,0,0,0,0,0,0,0,0,0,0,0,
0,0,0,0,0,0,0,0,0,0,0,0,0,0,0,0,
0,0,0,0,0,0,0,0,0,0,0,0,0,0,0,0,
0,0,0,0,0,0,0,0,0,0,0,0,0,0,0,0,
0,0,0,0,0,0,0,0,0,0,0,0,0,0,0,0,
0,0,0,0,0,0,0,0,0,0,0,0,0,0,0,0,
173,173,173,173,173,173,173,173,173,173,173,173,173,173,173,173,
173,173,173,173,173,173,173,173,173,173,173,173,173,173,173,173,
173,173,173,173,173,173,173,173,173,173,173,173,173,173,173,173,
173,173,173,173,173,173,173,173,173,173,173,173,173,173,173,173
</chunk>
   <chunk x="416" y="-80" width="16" height="16">
0,0,0,0,0,0,0,0,0,0,0,0,0,0,0,0,
0,0,0,0,0,0,0,0,0,0,0,0,0,0,0,0,
0,0,0,0,0,0,0,0,0,0,0,0,0,0,0,0,
0,0,0,0,0,0,0,0,0,0,0,0,0,0,0,0,
0,0,0,0,0,0,0,0,0,0,0,0,0,0,0,0,
0,0,0,0,0,0,0,0,0,0,0,0,0,0,0,0,
0,0,0,0,0,0,0,0,0,0,0,0,0,0,0,0,
0,0,0,0,0,0,0,0,0,0,0,0,0,0,0,0,
0,0,0,0,0,0,0,0,0,0,0,0,0,0,0,0,
0,0,0,0,0,0,0,0,0,0,0,0,0,0,0,0,
0,0,0,0,0,0,0,0,0,0,0,0,0,0,0,0,
0,0,0,0,0,0,0,0,0,0,0,0,0,0,0,0,
173,173,173,173,173,173,173,173,173,173,173,173,173,173,173,173,
173,173,173,173,173,173,173,173,173,173,173,173,173,173,173,173,
173,173,173,173,173,173,173,173,173,173,173,173,173,173,173,173,
173,173,173,173,173,173,173,173,173,173,173,173,173,173,173,173
</chunk>
   <chunk x="160" y="-64" width="16" height="16">
0,0,0,0,0,0,0,0,0,0,173,173,173,173,173,173,
0,0,0,0,0,0,0,0,0,0,173,173,173,173,173,173,
0,0,0,0,0,0,0,0,0,0,173,173,173,173,173,173,
0,0,0,0,0,0,0,0,0,0,173,173,173,173,173,173,
0,0,0,0,0,0,0,0,0,0,173,173,173,173,173,173,
0,0,0,0,0,0,0,0,0,0,173,173,173,173,173,173,
0,0,0,0,0,0,0,0,0,0,173,173,173,173,173,173,
0,0,0,0,0,0,0,0,0,0,173,173,173,173,173,173,
0,0,0,0,0,0,0,0,0,0,173,173,173,173,173,173,
0,0,0,0,0,0,0,0,0,0,173,173,173,173,173,173,
0,0,0,0,0,0,0,0,0,0,173,173,173,173,173,173,
0,0,0,0,0,0,0,0,0,0,173,173,173,173,173,173,
0,0,0,0,0,0,0,0,0,0,173,173,173,173,173,173,
0,0,0,0,0,0,0,0,0,0,173,173,173,173,173,173,
0,0,0,0,0,0,0,0,0,0,173,173,173,173,173,173,
0,0,0,0,0,0,0,0,0,0,173,173,173,173,173,173
</chunk>
   <chunk x="176" y="-64" width="16" height="16">
173,173,173,173,173,173,173,173,173,173,173,173,173,173,173,173,
173,173,173,173,173,173,173,173,173,173,173,173,173,173,173,173,
173,173,173,173,173,173,173,173,173,173,173,173,173,173,173,173,
173,173,173,173,173,173,173,173,173,173,173,173,173,173,173,173,
173,173,173,173,173,173,173,173,173,173,173,173,173,173,173,173,
173,173,173,173,173,173,173,173,173,173,173,173,173,173,173,173,
173,173,173,173,173,173,173,173,173,173,173,173,173,173,173,173,
173,173,173,173,173,173,173,173,173,173,173,173,173,173,173,173,
173,173,173,173,173,173,173,173,173,173,173,173,173,173,173,173,
173,173,173,173,173,173,173,173,173,173,173,173,173,173,173,173,
173,173,173,173,173,173,173,173,173,173,173,173,173,173,173,173,
173,173,173,173,173,173,173,173,173,173,173,173,173,173,173,173,
173,173,173,173,173,173,173,173,173,173,173,173,173,173,173,173,
173,173,173,173,173,173,173,173,173,173,173,173,173,173,173,173,
173,173,173,173,173,173,173,173,173,173,173,173,173,173,173,173,
173,173,173,173,173,173,173,173,173,173,173,173,173,173,173,173
</chunk>
   <chunk x="192" y="-64" width="16" height="16">
173,173,173,173,173,173,173,173,173,173,173,173,173,173,173,173,
173,173,173,173,173,173,173,173,173,173,173,173,173,173,173,173,
173,173,173,173,173,173,173,173,173,173,173,173,173,173,173,173,
173,173,173,173,173,173,173,173,173,173,173,173,173,173,173,173,
173,173,173,173,173,173,173,173,173,173,173,173,173,173,173,173,
173,173,173,173,173,173,173,173,173,173,173,173,173,173,173,173,
173,173,173,173,173,173,173,173,173,173,173,173,173,173,173,173,
173,173,173,173,173,173,173,173,173,173,173,173,173,173,173,173,
173,173,173,173,173,173,173,173,173,173,173,173,173,173,173,173,
173,173,173,173,173,173,173,173,173,173,173,173,173,173,173,173,
173,173,173,173,173,173,173,173,173,173,173,173,173,173,173,173,
173,173,173,173,173,173,173,173,173,173,173,173,173,173,173,173,
173,173,173,173,173,173,173,173,173,173,173,173,173,173,173,173,
173,173,173,173,173,173,173,173,173,173,173,173,173,173,173,173,
173,173,173,173,173,173,173,173,173,173,173,173,173,173,173,173,
173,173,173,173,173,173,173,173,173,173,173,173,173,173,173,173
</chunk>
   <chunk x="208" y="-64" width="16" height="16">
173,173,173,173,173,173,173,173,173,173,173,173,173,173,173,173,
173,173,173,173,173,173,173,173,173,173,173,173,173,173,173,173,
173,173,173,173,173,173,173,173,173,173,173,173,173,173,173,173,
173,173,173,173,173,173,173,173,173,173,173,173,173,173,173,173,
173,173,173,173,173,173,173,173,173,173,173,173,173,173,173,173,
173,173,173,173,173,173,173,173,173,173,173,173,173,173,173,173,
173,173,173,173,173,173,173,173,173,173,173,173,173,173,173,173,
173,173,173,173,173,173,173,173,173,173,173,173,173,173,173,173,
173,173,173,173,173,173,173,173,173,173,173,173,173,173,173,173,
173,173,173,173,173,173,173,173,173,173,173,173,173,173,173,173,
173,173,173,173,173,173,173,173,173,173,173,173,173,173,173,173,
173,173,173,173,173,173,173,173,173,173,173,173,173,173,173,173,
173,173,173,173,173,173,173,173,173,173,173,173,173,173,173,173,
173,173,173,173,173,173,173,173,173,173,173,173,173,173,173,173,
173,173,173,173,173,173,173,173,173,173,173,173,173,173,173,173,
173,173,173,173,173,173,173,173,173,173,173,173,173,173,173,173
</chunk>
   <chunk x="224" y="-64" width="16" height="16">
173,173,173,173,173,173,173,173,173,173,173,173,173,173,173,173,
173,173,173,173,173,173,173,173,173,173,173,173,173,173,173,173,
173,173,173,173,173,173,173,173,173,173,173,173,173,173,173,173,
173,173,173,173,173,173,173,173,173,173,173,173,173,173,173,173,
173,173,173,173,173,173,173,173,173,173,173,173,173,173,173,173,
173,173,173,173,173,173,173,173,173,173,173,173,173,173,173,173,
173,173,173,173,173,173,173,173,173,173,173,173,173,173,173,173,
173,173,173,173,173,173,173,173,173,173,173,173,173,173,173,173,
173,173,173,173,173,173,173,173,173,173,173,173,173,173,173,173,
173,173,173,173,173,173,173,173,173,173,173,173,173,173,173,173,
173,173,173,173,173,173,173,173,173,173,173,173,173,173,173,173,
173,173,173,173,173,173,173,173,173,173,173,173,173,173,173,173,
173,173,173,173,173,173,173,173,173,173,173,173,173,173,173,173,
173,173,173,173,173,173,173,173,173,173,173,173,173,173,173,173,
173,173,173,173,173,173,173,173,173,173,173,173,173,173,173,173,
173,173,173,173,173,173,173,173,173,173,173,173,173,173,173,173
</chunk>
   <chunk x="240" y="-64" width="16" height="16">
173,173,173,173,173,173,173,173,173,173,173,173,173,173,173,173,
173,173,173,173,173,173,173,173,173,173,173,173,173,173,173,173,
173,173,173,173,173,173,173,173,173,173,173,173,173,173,173,173,
173,173,173,173,173,173,173,173,173,173,173,173,173,173,173,173,
173,173,173,173,173,173,173,173,173,173,173,173,173,173,173,173,
173,173,173,173,173,173,173,173,173,173,173,173,173,173,173,173,
173,173,173,173,173,173,173,173,173,173,173,173,173,173,173,173,
173,173,173,173,173,173,173,173,173,173,173,173,173,173,173,173,
173,173,173,173,173,173,173,173,173,173,173,173,173,173,173,173,
173,173,173,173,173,173,173,173,173,173,173,173,173,173,173,173,
173,173,173,173,173,173,173,173,173,173,173,173,173,173,173,173,
173,173,173,173,173,173,173,173,173,173,173,173,173,173,173,173,
173,173,173,173,173,173,173,173,173,173,173,173,173,173,173,173,
173,173,173,173,173,173,173,173,173,173,173,173,173,173,173,173,
173,173,173,173,173,173,173,173,173,173,173,173,173,173,173,173,
173,173,173,173,173,173,173,173,173,173,173,173,173,173,173,173
</chunk>
   <chunk x="256" y="-64" width="16" height="16">
173,173,173,173,173,173,173,173,173,173,173,173,173,173,173,173,
173,173,173,173,173,173,173,173,173,173,173,173,173,173,173,173,
173,173,173,173,173,173,173,173,173,173,173,173,173,173,173,173,
173,173,173,173,173,173,173,173,173,173,173,173,173,173,173,173,
173,173,173,173,173,173,173,173,173,173,173,173,173,173,173,173,
173,173,173,173,173,173,173,173,173,173,173,173,173,173,173,173,
173,173,173,173,173,173,173,173,173,173,173,173,173,173,173,173,
173,173,173,173,173,173,173,173,173,173,173,173,173,173,173,173,
173,173,173,173,173,173,173,173,173,173,173,173,173,173,173,173,
173,173,173,173,173,173,173,173,173,173,173,173,173,173,173,173,
173,173,173,173,173,173,173,173,173,173,173,173,173,173,173,173,
173,173,173,173,173,173,173,173,173,173,173,173,173,173,173,173,
173,173,173,173,173,173,173,173,173,173,173,173,173,173,173,173,
173,173,173,173,173,173,173,173,173,173,173,173,173,173,173,173,
173,173,173,173,173,173,173,173,173,173,173,173,173,173,173,173,
173,173,173,173,173,173,173,173,173,173,173,173,173,173,173,173
</chunk>
   <chunk x="272" y="-64" width="16" height="16">
173,173,173,173,173,173,173,173,173,173,173,173,173,173,173,173,
173,173,173,173,173,173,173,173,173,173,173,173,173,173,173,173,
173,173,173,173,173,173,173,173,173,173,173,173,173,173,173,173,
173,173,173,173,173,173,173,173,173,173,173,173,173,173,173,173,
173,173,173,173,173,173,173,173,173,173,173,173,173,173,173,173,
173,173,173,173,173,173,173,173,173,173,173,173,173,173,173,173,
173,173,173,173,173,173,173,173,173,173,173,173,173,173,173,173,
173,173,173,173,173,173,173,173,173,173,173,173,173,173,173,173,
173,173,173,173,173,173,173,173,173,173,173,173,173,173,173,173,
173,173,173,173,173,173,173,173,173,173,173,173,173,173,173,173,
173,173,173,173,173,173,173,173,173,173,173,173,173,173,173,173,
173,173,173,173,173,173,173,173,173,173,173,173,173,173,173,173,
173,173,173,173,173,173,173,173,173,173,173,173,173,173,173,173,
173,173,173,173,173,173,173,173,173,173,173,173,173,173,173,173,
173,173,173,173,173,173,173,173,173,173,173,173,173,173,173,173,
173,173,173,173,173,173,173,173,173,173,173,173,173,173,173,173
</chunk>
   <chunk x="288" y="-64" width="16" height="16">
173,173,173,173,173,173,173,173,173,173,173,173,173,173,173,173,
173,173,173,173,173,173,173,173,173,173,173,173,173,173,173,173,
173,173,173,173,173,173,173,173,173,173,173,173,173,173,173,173,
173,173,173,173,173,173,173,173,173,173,173,173,173,173,173,173,
173,173,173,173,173,173,173,173,173,173,173,173,173,173,173,173,
173,173,173,173,173,173,173,173,173,173,173,173,173,173,173,173,
173,173,173,173,173,173,173,173,173,173,173,173,173,173,173,173,
173,173,173,173,173,173,173,173,173,173,173,173,173,173,173,173,
173,173,173,173,173,173,173,173,173,173,173,173,173,173,173,173,
173,173,173,173,173,173,173,173,173,173,173,173,173,173,173,173,
173,173,173,173,173,173,173,173,173,173,173,173,173,173,173,173,
173,173,173,173,173,173,173,173,173,173,173,173,173,173,173,173,
173,173,173,173,173,173,173,173,173,173,173,173,173,173,173,173,
173,173,173,173,173,173,173,173,173,173,173,173,173,173,173,173,
173,173,173,173,173,173,173,173,173,173,173,173,173,173,173,173,
173,173,173,173,173,173,173,173,173,173,173,173,173,173,173,173
</chunk>
   <chunk x="304" y="-64" width="16" height="16">
173,173,173,173,173,173,173,173,173,173,173,173,173,173,173,173,
173,173,173,173,173,173,173,173,173,173,173,173,173,173,173,173,
173,173,173,173,173,173,173,173,173,173,173,173,173,173,173,173,
173,173,173,173,173,173,173,173,173,173,173,173,173,173,173,173,
173,173,173,173,173,173,173,173,173,173,173,173,173,173,173,173,
173,173,173,173,173,173,173,173,173,173,173,173,173,173,173,173,
173,173,173,173,173,173,173,173,173,173,173,173,173,173,173,173,
173,173,173,173,173,173,173,173,173,173,173,173,173,173,173,173,
173,173,173,173,173,173,173,173,173,173,173,173,173,173,173,173,
173,173,173,173,173,173,173,173,173,173,173,173,173,173,173,173,
173,173,173,173,173,173,173,173,173,173,173,173,173,173,173,173,
173,173,173,173,173,173,173,173,173,173,173,173,173,173,173,173,
173,173,173,173,173,173,173,173,173,173,173,173,173,173,173,173,
173,173,173,173,173,173,173,173,173,173,173,173,173,173,173,173,
173,173,173,173,173,173,173,173,173,173,173,173,173,173,173,173,
173,173,173,173,173,173,173,173,173,173,173,173,173,173,173,173
</chunk>
   <chunk x="320" y="-64" width="16" height="16">
173,173,173,173,173,173,173,173,173,173,173,173,173,173,173,173,
173,173,173,173,173,173,173,173,173,173,173,173,173,173,173,173,
173,173,173,173,173,173,173,173,173,173,173,173,173,173,173,173,
173,173,173,173,173,173,173,173,173,173,173,173,173,173,173,173,
173,173,173,173,173,173,173,173,173,173,173,173,173,173,173,173,
173,173,173,173,173,173,173,173,173,173,173,173,173,173,173,173,
173,173,173,173,173,173,173,173,173,173,173,173,173,173,173,173,
173,173,173,173,173,173,173,173,173,173,173,173,173,173,173,173,
173,173,173,173,173,173,173,173,173,173,173,173,173,173,173,173,
173,173,173,173,173,173,173,173,173,173,173,173,173,173,173,173,
173,173,173,173,173,173,173,173,173,173,173,173,173,173,173,173,
173,173,173,173,173,173,173,173,173,173,173,173,173,173,173,173,
173,173,173,173,173,173,173,173,173,173,173,173,173,173,173,173,
173,173,173,173,173,173,173,173,173,173,173,173,173,173,173,173,
173,173,173,173,173,173,173,173,173,173,173,173,173,173,173,173,
173,173,173,173,173,173,173,173,173,173,173,173,173,173,173,173
</chunk>
   <chunk x="336" y="-64" width="16" height="16">
173,173,173,173,173,173,173,173,173,173,173,173,173,173,173,173,
173,173,173,173,173,173,173,173,173,173,173,173,173,173,173,173,
173,173,173,173,173,173,173,173,173,173,173,173,173,173,173,173,
173,173,173,173,173,173,173,173,173,173,173,173,173,173,173,173,
173,173,173,173,173,173,173,173,173,173,173,173,173,173,173,173,
173,173,173,173,173,173,173,173,173,173,173,173,173,173,173,173,
173,173,173,173,173,173,173,173,173,173,173,173,173,173,173,173,
173,173,173,173,173,173,173,173,173,173,173,173,173,173,173,173,
173,173,173,173,173,173,173,173,173,173,173,173,173,173,173,173,
173,173,173,173,173,173,173,173,173,173,173,173,173,173,173,173,
173,173,173,173,173,173,173,173,173,173,173,173,173,173,173,173,
173,173,173,173,173,173,173,173,173,173,173,173,173,173,173,173,
173,173,173,173,173,173,173,173,173,173,173,173,173,173,173,173,
173,173,173,173,173,173,173,173,173,173,173,173,173,173,173,173,
173,173,173,173,173,173,173,173,173,173,173,173,173,173,173,173,
173,173,173,173,173,173,173,173,173,173,173,173,173,173,173,173
</chunk>
   <chunk x="352" y="-64" width="16" height="16">
173,173,173,173,173,173,173,173,173,173,173,173,173,173,173,173,
173,173,173,173,173,173,173,173,173,173,173,173,173,173,173,173,
173,173,173,173,173,173,173,173,173,173,173,173,173,173,173,173,
173,173,173,173,173,173,173,173,173,173,173,173,173,173,173,173,
173,173,173,173,173,173,173,173,173,173,173,173,173,173,173,173,
173,173,173,173,173,173,173,173,173,173,173,173,173,173,173,173,
173,173,173,173,173,173,173,173,173,173,173,173,173,173,173,173,
173,173,173,173,173,173,173,173,173,173,173,173,173,173,173,173,
173,173,173,173,173,173,173,173,173,173,173,173,173,173,173,173,
173,173,173,173,173,173,173,173,173,173,173,173,173,173,173,173,
173,173,173,173,173,173,173,173,173,173,173,173,173,173,173,173,
173,173,173,173,173,173,173,173,173,173,173,173,173,173,173,173,
173,173,173,173,173,173,173,173,173,173,173,173,173,173,173,173,
173,173,173,173,173,173,173,173,173,173,173,173,173,173,173,173,
173,173,173,173,173,173,173,173,173,173,173,173,173,173,173,173,
173,173,173,173,173,173,173,173,173,173,173,173,173,173,173,173
</chunk>
   <chunk x="368" y="-64" width="16" height="16">
173,173,173,173,173,173,173,173,173,173,173,173,173,173,173,173,
173,173,173,173,173,173,173,173,173,173,173,173,173,173,173,173,
173,173,173,173,173,173,173,173,173,173,173,173,173,173,173,173,
173,173,173,173,173,173,173,173,173,173,173,173,173,173,173,173,
173,173,173,173,173,173,173,173,173,173,173,173,173,173,173,173,
173,173,173,173,173,173,173,173,173,173,173,173,173,173,173,173,
173,173,173,173,173,173,173,173,173,173,173,173,173,173,173,173,
173,173,173,173,173,173,173,173,173,173,173,173,173,173,173,173,
173,173,173,173,173,173,173,173,173,173,173,173,173,173,173,173,
173,173,173,173,173,173,173,173,173,173,173,173,173,173,173,173,
173,173,173,173,173,173,173,173,173,173,173,173,173,173,173,173,
173,173,173,173,173,173,173,173,173,173,173,173,173,173,173,173,
173,173,173,173,173,173,173,173,173,173,173,173,173,173,173,173,
173,173,173,173,173,173,173,173,173,173,173,173,173,173,173,173,
173,173,173,173,173,173,173,173,173,173,173,173,173,173,173,173,
173,173,173,173,173,173,173,173,173,173,173,173,173,173,173,173
</chunk>
   <chunk x="384" y="-64" width="16" height="16">
173,173,173,173,173,173,173,173,173,173,173,173,173,173,173,173,
173,173,173,173,173,173,173,173,173,173,173,173,173,173,173,173,
173,173,173,173,173,173,173,173,173,173,173,173,173,173,173,173,
173,173,173,173,173,173,173,173,173,173,173,173,173,173,173,173,
173,173,173,173,173,173,173,173,173,173,173,173,173,173,173,173,
173,173,173,173,173,173,173,173,173,173,173,173,173,173,173,173,
173,173,173,173,173,173,173,173,173,173,173,173,173,173,173,173,
173,173,173,173,173,173,173,173,173,173,173,173,173,173,173,173,
173,173,173,173,173,173,173,173,173,173,173,173,173,173,173,173,
173,173,173,173,173,173,173,173,173,173,173,173,173,173,173,173,
173,173,173,173,173,173,173,173,173,173,173,173,173,173,173,173,
173,173,173,173,173,173,173,173,173,173,173,173,173,173,173,173,
173,173,173,173,173,173,173,173,173,173,173,173,173,173,173,173,
173,173,173,173,173,173,173,173,173,173,173,173,173,173,173,173,
173,173,173,173,173,173,173,173,173,173,173,173,173,173,173,173,
173,173,173,173,173,173,173,173,173,173,173,173,173,173,173,173
</chunk>
   <chunk x="400" y="-64" width="16" height="16">
173,173,173,173,173,173,173,173,173,173,173,173,173,173,173,173,
173,173,173,173,173,173,173,173,173,173,173,173,173,173,173,173,
173,173,173,173,173,173,173,173,173,173,173,173,173,173,173,173,
173,173,173,173,173,173,173,173,173,173,173,173,173,173,173,173,
173,173,173,173,173,173,173,173,173,173,173,173,173,173,173,173,
173,173,173,173,173,173,173,173,173,173,173,173,173,173,173,173,
173,173,173,173,173,173,173,173,173,173,173,173,173,173,173,173,
173,173,173,173,173,173,173,173,173,173,173,173,173,173,173,173,
173,173,173,173,173,173,173,173,173,173,173,173,173,173,173,173,
173,173,173,173,173,173,173,173,173,173,173,173,173,173,173,173,
173,173,173,173,173,173,173,173,173,173,173,173,173,173,173,173,
173,173,173,173,173,173,173,173,173,173,173,173,173,173,173,173,
173,173,173,173,173,173,173,173,173,173,173,173,173,173,173,173,
173,173,173,173,173,173,173,173,173,173,173,173,173,173,173,173,
173,173,173,173,173,173,173,173,173,173,173,173,173,173,173,173,
173,173,173,173,173,173,173,173,173,173,173,173,173,173,173,173
</chunk>
   <chunk x="416" y="-64" width="16" height="16">
173,173,173,173,173,173,173,173,173,173,173,173,173,173,173,173,
173,173,173,173,173,173,173,173,173,173,173,173,173,173,173,173,
173,173,173,173,173,173,173,173,173,173,173,173,173,173,173,173,
173,173,173,173,173,173,173,173,173,173,173,173,173,173,173,173,
173,173,173,173,173,173,173,173,173,173,173,173,173,173,173,173,
173,173,173,173,173,173,173,173,173,173,173,173,173,173,173,173,
173,173,173,173,173,173,173,173,173,173,173,173,173,173,173,173,
173,173,173,173,173,173,173,173,173,173,173,173,173,173,173,173,
173,173,173,173,173,173,173,173,173,173,173,173,173,173,173,173,
173,173,173,173,173,173,173,173,173,173,173,173,173,173,173,173,
173,173,173,173,173,173,173,173,173,173,173,173,173,173,173,173,
173,173,173,173,173,173,173,173,173,173,173,173,173,173,173,173,
173,173,173,173,173,173,173,173,173,173,173,173,173,173,173,173,
173,173,173,173,173,173,173,173,173,173,173,173,173,173,173,173,
173,173,173,173,173,173,173,173,173,173,173,173,173,173,173,173,
173,173,173,173,173,173,173,173,173,173,173,173,173,173,173,173
</chunk>
   <chunk x="160" y="-48" width="16" height="16">
0,0,0,0,0,0,0,0,0,0,173,173,173,173,173,173,
0,0,0,0,0,0,0,0,0,0,173,173,173,173,173,173,
0,0,0,0,0,0,0,0,0,0,173,173,173,173,173,173,
0,0,0,0,0,0,0,0,0,0,173,173,173,173,173,173,
0,0,0,0,0,0,0,0,0,0,173,173,173,173,173,173,
0,0,0,0,0,0,0,0,0,0,173,173,173,173,173,173,
0,0,0,0,0,0,0,0,0,0,173,173,173,173,173,173,
0,0,0,0,0,0,0,0,0,0,173,173,173,173,173,173,
0,0,0,0,0,0,0,0,0,0,45,45,45,45,45,45,
0,0,0,0,0,0,0,0,0,0,45,45,45,45,45,45,
0,0,0,0,0,0,0,0,0,0,45,45,45,45,45,45,
0,0,0,0,0,0,0,0,0,0,45,45,45,45,45,45,
0,0,0,0,0,0,0,0,0,0,45,45,45,45,45,45,
0,0,0,0,0,0,0,0,0,0,45,45,45,45,45,45,
0,0,0,0,0,0,0,0,0,0,45,45,45,45,45,45,
0,0,0,0,0,0,0,0,0,0,45,45,45,45,45,45
</chunk>
   <chunk x="176" y="-48" width="16" height="16">
173,173,173,173,173,173,173,173,173,173,173,173,173,173,173,173,
173,173,173,173,173,173,173,173,173,173,173,173,173,173,173,173,
173,173,173,173,173,173,173,173,173,173,173,173,173,173,173,173,
173,173,173,173,173,173,173,173,173,173,173,173,173,173,173,173,
173,173,173,173,173,173,173,173,173,173,173,173,173,173,173,173,
173,173,173,173,173,173,173,173,173,173,173,173,173,173,173,173,
173,173,173,173,173,173,173,173,173,173,173,173,173,173,173,173,
173,173,173,173,173,173,173,173,173,173,173,173,173,173,173,173,
45,45,45,45,45,45,45,45,45,45,45,45,45,45,45,45,
45,45,45,45,45,45,45,45,45,45,45,45,45,45,45,45,
45,45,45,45,45,45,45,45,45,45,45,45,45,45,45,45,
45,45,45,45,45,45,45,45,45,45,45,45,45,45,45,45,
45,45,45,45,45,45,45,45,45,45,45,45,45,45,45,45,
45,45,45,45,45,45,45,45,45,45,45,45,45,45,45,45,
45,45,45,45,45,45,45,45,45,45,45,45,45,45,45,45,
45,45,45,45,45,45,45,45,45,45,45,45,45,45,45,45
</chunk>
   <chunk x="192" y="-48" width="16" height="16">
173,173,173,173,173,173,173,173,173,173,173,173,173,173,173,173,
173,173,173,173,173,173,173,173,173,173,173,173,173,173,173,173,
173,173,173,173,173,173,173,173,173,173,173,173,173,173,173,173,
173,173,173,173,173,173,173,173,173,173,173,173,173,173,173,173,
173,173,173,173,173,173,173,173,173,173,173,173,173,173,173,173,
173,173,173,173,173,173,173,173,173,173,173,173,173,173,173,173,
173,173,173,173,173,173,173,173,173,173,173,173,173,173,173,173,
173,173,173,173,173,173,173,173,173,173,173,173,173,173,173,173,
45,45,45,45,45,45,45,45,45,45,45,45,45,45,45,45,
45,45,45,45,45,45,45,45,45,45,45,45,45,45,45,45,
45,45,45,45,45,45,45,45,45,45,45,45,45,45,45,45,
45,45,45,45,45,45,45,45,45,45,45,45,45,45,45,45,
45,45,45,45,45,45,45,45,45,45,45,45,45,45,45,45,
45,45,45,45,45,45,45,45,45,45,45,45,45,45,45,45,
45,45,45,45,45,45,45,45,45,45,45,45,45,45,45,45,
45,45,45,45,45,45,45,45,45,45,45,45,45,45,45,45
</chunk>
   <chunk x="208" y="-48" width="16" height="16">
173,173,173,173,173,173,173,173,173,173,173,173,173,173,173,173,
173,173,173,173,173,173,173,173,173,173,173,173,173,173,173,173,
173,173,173,173,173,173,173,173,173,173,173,173,173,173,173,173,
173,173,173,173,173,173,173,173,173,173,173,173,173,173,173,173,
173,173,173,173,173,173,173,173,173,173,173,173,173,173,173,173,
173,173,173,173,173,173,173,173,173,173,173,173,173,173,173,173,
173,173,173,173,173,173,173,173,173,173,173,173,173,173,173,173,
173,173,173,173,173,173,173,173,173,173,173,173,173,173,173,173,
45,45,45,45,45,45,45,45,45,45,55,61,61,61,61,61,
45,45,45,45,45,45,45,45,45,45,47,0,0,0,0,0,
45,45,45,45,45,45,45,45,45,45,55,0,0,0,0,0,
45,45,45,45,45,45,45,45,45,45,47,0,0,0,0,0,
45,45,45,45,45,45,45,45,45,45,55,0,0,0,0,0,
45,45,45,45,45,45,45,45,45,45,47,0,0,0,0,0,
45,45,45,45,45,45,45,45,45,45,55,0,0,0,0,0,
45,45,45,45,45,45,45,45,45,45,47,0,0,0,0,0
</chunk>
   <chunk x="224" y="-48" width="16" height="16">
173,173,173,173,173,173,173,173,173,173,173,173,173,173,173,173,
173,173,173,173,173,173,173,173,173,173,173,173,173,173,173,173,
173,173,173,173,173,173,173,173,173,173,173,173,173,173,173,173,
173,173,173,173,173,173,173,173,173,173,173,173,173,173,173,173,
173,173,173,173,173,173,173,173,173,173,173,173,173,173,173,173,
173,173,173,173,173,173,173,173,173,173,173,173,173,173,173,173,
173,173,173,173,173,173,173,173,173,173,173,173,173,173,173,173,
173,173,173,173,173,173,173,173,173,173,173,173,173,173,173,173,
61,61,61,61,52,53,53,53,53,53,53,53,53,53,53,53,
0,0,0,0,44,53,53,53,53,53,53,53,53,53,53,53,
0,0,0,0,52,53,53,53,53,53,53,53,53,53,53,53,
0,0,0,0,44,53,53,53,53,53,53,53,53,53,53,53,
0,0,0,0,52,53,53,53,53,53,53,53,53,53,53,53,
0,0,0,0,44,53,53,53,53,53,53,53,53,53,53,53,
0,0,0,0,52,53,53,53,53,53,53,53,53,53,53,53,
0,0,0,0,44,53,53,53,53,53,53,53,53,53,53,53
</chunk>
   <chunk x="240" y="-48" width="16" height="16">
173,173,173,173,173,173,173,173,173,173,173,173,173,173,173,173,
173,173,173,173,173,173,173,173,173,173,173,173,173,173,173,173,
173,173,173,173,173,173,173,173,173,173,173,173,173,173,173,173,
173,173,173,173,173,173,173,173,173,173,173,173,173,173,173,173,
173,173,173,173,173,173,173,173,173,173,173,173,173,173,173,173,
173,173,173,173,173,173,173,173,173,173,173,173,173,173,173,173,
173,173,173,173,173,173,173,173,173,173,173,173,173,173,173,173,
173,173,173,173,173,173,173,173,173,173,173,173,173,173,173,173,
53,53,53,53,53,53,53,53,53,53,53,53,53,53,53,53,
53,53,53,53,53,53,53,53,53,53,53,53,53,53,53,53,
53,53,53,53,53,53,53,86,61,61,61,61,61,61,61,61,
53,53,53,53,53,53,53,47,0,0,0,0,0,0,0,0,
53,53,53,53,53,53,53,55,0,0,0,0,0,0,0,0,
53,53,53,53,53,53,53,47,0,0,0,0,0,0,0,0,
53,53,53,53,53,53,53,55,0,0,0,0,0,0,0,0,
53,53,53,53,53,53,53,47,0,0,0,0,0,0,0,0
</chunk>
   <chunk x="256" y="-48" width="16" height="16">
173,173,173,173,173,173,173,173,173,173,173,173,173,173,173,173,
173,173,173,173,173,173,173,173,173,173,173,173,173,173,173,173,
173,173,173,173,173,173,173,173,173,173,173,173,173,173,173,173,
173,173,173,173,173,173,173,173,173,173,173,173,173,173,173,173,
173,173,173,173,173,173,173,173,173,173,173,173,173,173,173,173,
173,173,173,173,173,173,173,173,173,173,173,173,173,173,173,173,
173,173,173,173,173,173,173,173,173,173,173,173,173,173,173,173,
173,173,173,173,173,173,173,173,173,173,173,173,173,173,173,173,
53,53,53,53,53,53,53,53,53,53,53,53,53,53,53,53,
53,53,53,53,53,53,53,53,53,53,53,53,53,53,53,53,
61,61,61,61,61,61,61,61,61,61,61,61,61,61,61,61,
0,0,0,0,0,0,0,0,0,0,0,0,0,0,0,0,
0,0,0,0,0,0,0,0,0,0,0,0,0,0,0,0,
0,0,0,0,0,0,0,0,0,0,0,0,0,0,0,0,
0,0,0,0,0,0,0,0,0,0,0,0,0,0,0,0,
0,0,0,0,0,0,0,0,0,0,0,0,0,0,0,0
</chunk>
   <chunk x="272" y="-48" width="16" height="16">
173,173,173,173,173,173,173,173,173,173,173,173,173,173,173,173,
173,173,173,173,173,173,173,173,173,173,173,173,173,173,173,173,
173,173,173,173,173,173,173,173,173,173,173,173,173,173,173,173,
173,173,173,173,173,173,173,173,173,173,173,173,173,173,173,173,
173,173,173,173,173,173,173,173,173,173,173,173,173,173,173,173,
173,173,173,173,173,173,173,173,173,173,173,173,173,173,173,173,
173,173,173,173,173,173,173,173,173,173,173,173,173,173,173,173,
173,173,173,173,173,173,173,173,173,173,173,173,173,173,173,173,
53,53,53,53,53,53,53,53,53,53,53,53,53,53,53,53,
53,53,53,53,53,53,53,53,53,53,53,53,53,53,53,53,
61,61,61,61,61,61,61,61,61,61,61,61,61,61,61,61,
0,0,0,0,0,0,0,0,0,0,0,0,0,0,0,0,
0,0,0,0,0,0,0,0,0,0,0,0,0,0,0,0,
0,0,0,0,0,0,0,0,0,0,0,0,0,0,0,0,
0,0,0,0,0,0,0,0,0,0,0,0,0,0,0,0,
0,0,0,0,0,0,0,0,0,0,0,0,0,0,0,0
</chunk>
   <chunk x="288" y="-48" width="16" height="16">
173,173,173,173,173,173,173,173,173,173,173,173,173,173,173,173,
173,173,173,173,173,173,173,173,173,173,173,173,173,173,173,173,
173,173,173,173,173,173,173,173,173,173,173,173,173,173,173,173,
173,173,173,173,173,173,173,173,173,173,173,173,173,173,173,173,
173,173,173,173,173,173,173,173,173,173,173,173,173,173,173,173,
173,173,173,173,173,173,173,173,173,173,173,173,173,173,173,173,
173,173,173,173,173,173,173,173,173,173,173,173,173,173,173,173,
173,173,173,173,173,173,173,173,173,173,173,173,173,173,173,173,
53,53,53,53,53,53,53,53,53,53,53,53,53,53,53,53,
53,53,53,53,53,53,53,53,53,53,53,53,53,53,53,53,
61,61,61,61,61,61,61,61,61,61,61,61,61,61,61,61,
0,0,0,0,0,0,0,0,0,0,0,0,0,0,0,0,
0,0,0,0,0,0,0,0,0,0,0,0,0,0,0,0,
0,0,0,0,0,0,0,0,0,0,0,0,0,0,0,0,
0,0,0,0,0,0,0,0,0,0,0,0,0,0,0,0,
0,0,0,0,0,0,0,0,0,0,0,0,0,0,0,0
</chunk>
   <chunk x="304" y="-48" width="16" height="16">
173,173,173,173,173,173,173,173,173,173,173,173,173,173,173,173,
173,173,173,173,173,173,173,173,173,173,173,173,173,173,173,173,
173,173,173,173,173,173,173,173,173,173,173,173,173,173,173,173,
173,173,173,173,173,173,173,173,173,173,173,173,173,173,173,173,
173,173,173,173,173,173,173,173,173,173,173,173,173,173,173,173,
173,173,173,173,173,173,173,173,173,173,173,173,173,173,173,173,
173,173,173,173,173,173,173,173,173,173,173,173,173,173,173,173,
173,173,173,173,173,173,173,173,173,173,173,173,173,173,173,173,
53,53,53,53,53,53,53,53,53,53,53,53,53,53,53,53,
53,53,53,53,53,53,53,53,53,53,53,53,53,53,53,53,
85,53,53,53,53,53,53,53,53,53,53,53,53,86,62,62,
44,53,53,53,53,53,53,53,53,53,53,53,86,87,0,0,
52,53,53,53,53,53,53,53,53,53,53,86,94,95,0,0,
44,53,53,53,53,53,53,53,53,53,53,47,0,0,0,0,
52,53,53,53,53,53,53,53,53,53,53,55,0,0,0,0,
44,53,53,53,53,53,53,53,53,53,53,47,0,0,0,0
</chunk>
   <chunk x="320" y="-48" width="16" height="16">
173,173,173,173,173,173,173,173,173,173,173,173,173,173,173,173,
173,173,173,173,173,173,173,173,173,173,173,173,173,173,173,173,
173,173,173,173,173,173,173,173,173,173,173,173,173,173,173,173,
173,173,173,173,173,173,173,173,173,173,173,173,173,173,173,173,
173,173,173,173,173,173,173,173,173,173,173,173,173,173,173,173,
173,173,173,173,173,173,173,173,173,173,173,173,173,173,173,173,
173,173,173,173,173,173,173,173,173,173,173,173,173,173,173,173,
173,173,173,173,173,173,173,173,173,173,173,173,173,173,173,173,
53,53,53,53,53,53,53,53,53,53,53,53,53,53,53,53,
53,53,53,53,53,53,53,53,53,53,53,53,53,53,53,53,
62,62,62,62,62,62,62,62,62,62,62,62,62,62,62,62,
0,0,0,0,0,0,0,0,0,0,0,0,0,0,0,0,
0,0,0,0,0,0,0,0,0,0,0,0,0,0,0,0,
0,0,0,0,0,0,0,0,0,0,0,0,0,0,0,0,
0,0,0,0,0,0,0,0,0,0,0,0,0,0,0,0,
0,0,0,0,0,0,0,0,0,0,0,0,0,0,0,0
</chunk>
   <chunk x="336" y="-48" width="16" height="16">
173,173,173,173,173,173,173,173,173,173,173,173,173,173,173,173,
173,173,173,173,173,173,173,173,173,173,173,173,173,173,173,173,
173,173,173,173,173,173,173,173,173,173,173,173,173,173,173,173,
173,173,173,173,173,173,173,173,173,173,173,173,173,173,173,173,
173,173,173,173,173,173,173,173,173,173,173,173,173,173,173,173,
173,173,173,173,173,173,173,173,173,173,173,173,173,173,173,173,
173,173,173,173,173,173,173,173,173,173,173,173,173,173,173,173,
173,173,173,173,173,173,173,173,173,173,173,173,173,173,173,173,
53,53,53,53,53,53,53,53,53,53,53,53,53,53,53,53,
53,53,53,53,53,53,53,53,53,53,53,53,53,53,53,53,
62,62,62,62,62,62,62,62,62,62,62,62,62,62,62,62,
0,0,0,0,0,0,0,0,0,0,0,0,0,0,0,0,
0,0,0,0,0,0,0,0,0,0,0,0,0,0,0,0,
0,0,0,0,0,0,0,0,0,0,0,0,0,0,0,0,
0,0,0,0,0,0,0,0,0,0,0,0,0,0,0,0,
0,0,0,0,0,0,0,0,0,0,0,0,0,0,0,0
</chunk>
   <chunk x="352" y="-48" width="16" height="16">
173,173,173,173,173,173,173,173,173,173,173,173,173,173,173,173,
173,173,173,173,173,173,173,173,173,173,173,173,173,173,173,173,
173,173,173,173,173,173,173,173,173,173,173,173,173,173,173,173,
173,173,173,173,173,173,173,173,173,173,173,173,173,173,173,173,
173,173,173,173,173,173,173,173,173,173,173,173,173,173,173,173,
173,173,173,173,173,173,173,173,173,173,173,173,173,173,173,173,
173,173,173,173,173,173,173,173,173,173,173,173,173,173,173,173,
173,173,173,173,173,173,173,173,173,173,173,173,173,173,173,173,
53,53,53,53,53,53,53,53,53,53,53,53,53,53,53,53,
53,53,53,53,53,53,53,53,53,53,53,53,53,53,53,53,
62,62,62,62,62,62,62,62,62,62,62,62,62,62,62,62,
0,0,0,0,0,0,0,0,0,0,0,0,0,0,0,0,
0,0,0,0,0,0,0,0,0,0,0,0,0,0,0,0,
0,0,0,0,0,0,0,0,0,0,0,0,0,0,0,0,
0,0,0,0,0,0,0,0,0,0,0,0,0,0,0,0,
0,0,0,0,0,0,0,0,0,0,0,0,0,0,0,0
</chunk>
   <chunk x="368" y="-48" width="16" height="16">
173,173,173,173,173,173,173,173,173,173,173,173,173,173,173,173,
173,173,173,173,173,173,173,173,173,173,173,173,173,173,173,173,
173,173,173,173,173,173,173,173,173,173,173,173,173,173,173,173,
173,173,173,173,173,173,173,173,173,173,173,173,173,173,173,173,
173,173,173,173,173,173,173,173,173,173,173,173,173,45,45,45,
173,173,173,173,173,173,173,173,173,173,173,173,173,45,45,45,
173,173,173,173,173,173,173,173,173,173,173,45,45,45,45,45,
173,173,173,173,173,173,173,173,173,173,173,45,45,45,45,45,
53,53,53,53,53,53,53,53,53,53,53,45,45,45,45,45,
53,53,53,53,53,53,86,62,62,62,62,62,63,45,45,45,
62,62,62,62,62,62,63,0,0,0,0,0,44,45,45,45,
0,0,0,0,0,0,0,0,0,0,0,0,44,45,45,45,
0,0,0,0,0,0,0,0,0,0,0,0,44,45,45,45,
0,0,0,0,0,0,0,0,0,0,0,0,44,45,45,45,
0,0,0,0,0,0,0,0,0,0,0,0,44,45,45,45,
0,0,0,0,0,0,0,0,0,0,0,0,44,45,45,45
</chunk>
   <chunk x="384" y="-48" width="16" height="16">
173,173,173,173,173,173,173,173,173,173,173,173,173,173,173,173,
173,173,173,173,173,173,173,173,173,173,173,173,173,173,173,173,
173,173,173,173,173,173,173,173,173,173,173,173,173,173,173,173,
173,173,173,173,173,173,173,173,173,173,173,173,173,173,173,173,
45,45,45,45,45,45,45,45,45,45,45,45,45,45,45,45,
45,45,45,45,45,45,45,45,45,45,45,45,45,45,45,45,
45,45,45,45,45,45,45,45,45,45,45,45,45,45,45,45,
45,45,45,45,45,45,45,45,45,45,45,45,45,45,45,45,
45,45,45,45,45,45,45,45,45,45,45,45,45,45,45,45,
45,45,45,45,45,45,45,45,45,45,45,45,45,45,45,45,
45,45,45,45,45,45,45,45,45,45,45,45,45,45,45,45,
45,45,45,45,45,45,45,45,45,45,45,45,45,45,45,45,
45,45,45,45,45,45,45,45,45,45,45,45,45,45,45,45,
45,45,45,45,45,45,45,45,45,45,45,45,45,45,45,45,
45,45,45,45,45,45,45,45,45,45,45,45,45,45,45,45,
45,45,45,45,45,45,45,45,45,45,45,45,45,45,45,45
</chunk>
   <chunk x="400" y="-48" width="16" height="16">
173,173,173,173,173,173,173,173,173,173,173,173,173,173,173,173,
173,173,173,173,173,173,173,173,173,173,173,173,173,173,173,173,
173,173,173,173,173,173,173,173,173,173,173,173,173,173,173,173,
173,173,173,173,173,173,173,173,173,173,173,173,173,173,173,173,
45,45,45,45,45,45,45,45,45,45,45,45,45,45,45,45,
45,45,45,45,45,45,45,45,45,45,45,45,45,45,45,45,
45,45,45,45,45,45,45,45,45,45,45,45,45,45,45,45,
45,45,45,45,45,45,45,45,45,45,45,45,45,45,45,45,
45,45,45,45,45,45,45,45,45,45,45,45,45,45,45,45,
45,45,45,45,45,45,45,45,45,45,45,45,45,45,45,45,
45,45,45,45,45,45,45,45,45,45,45,45,45,45,45,45,
45,45,45,45,45,45,45,45,45,45,45,45,45,45,45,45,
45,45,45,45,45,45,45,45,45,45,45,45,45,45,45,45,
45,45,45,45,45,45,45,45,45,45,45,45,45,45,45,45,
45,45,45,45,45,45,45,45,45,45,45,45,45,45,45,45,
45,45,45,45,45,45,45,45,45,45,45,45,45,45,45,45
</chunk>
   <chunk x="416" y="-48" width="16" height="16">
173,173,173,173,173,173,173,173,173,173,173,173,173,173,173,173,
173,173,173,173,173,173,173,173,173,173,173,173,173,173,173,173,
173,173,173,173,173,173,173,173,173,173,173,173,173,173,173,173,
173,173,173,173,173,173,173,173,173,173,173,173,173,173,173,173,
45,45,45,45,45,45,45,45,45,173,173,173,173,173,173,173,
45,45,45,45,45,45,45,45,45,173,173,173,173,173,173,173,
45,45,45,45,45,45,45,45,45,173,173,173,173,173,173,173,
45,45,45,45,45,45,45,45,45,173,173,173,173,173,173,173,
45,45,45,45,45,45,45,45,45,45,45,45,45,45,45,45,
45,45,45,45,45,45,45,45,45,45,45,45,45,45,45,45,
45,45,45,45,45,45,45,45,45,45,45,45,45,45,45,45,
45,45,45,45,45,45,45,45,45,45,45,45,45,45,45,45,
45,45,45,45,45,45,45,45,45,45,45,45,45,45,45,45,
45,45,45,45,45,45,45,45,45,45,45,45,45,45,45,45,
45,45,45,45,45,45,45,45,45,45,45,45,45,45,45,45,
45,45,45,45,45,45,45,45,45,45,45,45,45,45,45,45
</chunk>
   <chunk x="160" y="-32" width="16" height="16">
0,0,0,0,0,0,0,0,0,0,45,45,45,45,45,45,
0,0,0,0,0,0,0,0,0,0,45,45,45,45,45,45,
0,0,0,0,0,0,0,0,0,0,45,45,45,45,45,45,
0,0,0,0,0,0,0,0,0,0,45,45,45,45,45,45,
0,0,0,0,0,0,0,0,0,0,45,45,45,45,45,45,
0,0,0,0,0,0,0,0,0,0,45,45,45,45,45,45,
0,0,0,0,0,0,0,0,0,0,45,45,45,45,45,45,
0,0,0,0,0,0,0,0,0,0,45,45,45,45,45,45,
0,0,0,0,0,0,0,0,0,0,45,45,45,45,45,45,
0,0,0,0,0,0,0,0,0,0,45,45,45,45,45,45,
0,0,0,0,0,0,0,0,0,0,45,45,45,45,45,45,
0,0,0,0,0,0,0,0,0,0,45,45,45,45,45,45,
0,0,0,0,0,0,0,0,0,0,45,45,45,45,45,45,
0,0,0,0,0,0,0,0,0,0,45,45,45,45,45,45,
0,0,0,0,0,0,0,0,0,0,45,45,45,45,45,45,
0,0,0,0,0,0,0,0,0,0,45,45,45,45,45,45
</chunk>
   <chunk x="176" y="-32" width="16" height="16">
45,45,45,45,45,45,45,45,45,45,45,45,45,45,45,45,
45,45,45,45,45,45,45,45,45,45,45,45,45,45,45,45,
45,45,45,45,45,45,45,45,45,45,45,45,45,45,45,45,
45,45,45,45,45,45,45,45,45,45,45,45,45,45,45,45,
45,45,45,45,45,45,45,45,45,45,45,45,45,45,45,45,
45,45,45,45,45,45,45,45,45,45,45,45,45,45,45,45,
45,45,45,45,45,45,45,45,45,45,45,45,45,45,45,45,
45,45,45,45,45,45,45,45,45,45,45,45,45,45,45,45,
45,45,45,45,45,45,45,45,45,45,45,45,45,45,45,45,
45,45,45,45,45,45,45,45,45,45,45,45,45,45,45,45,
45,45,45,45,45,45,45,45,45,45,45,45,45,45,45,45,
45,45,45,45,45,45,45,45,45,45,45,45,45,45,45,45,
45,45,45,45,45,45,45,45,45,45,45,45,45,45,45,45,
45,45,45,45,45,45,45,45,45,45,45,45,45,45,45,45,
45,45,45,45,45,45,45,45,45,45,45,45,45,45,45,45,
45,45,45,45,45,45,45,45,45,45,45,45,45,45,45,45
</chunk>
   <chunk x="192" y="-32" width="16" height="16">
45,45,45,45,45,45,45,45,45,45,45,45,45,45,45,45,
45,45,45,45,45,45,45,45,45,45,45,45,45,45,45,45,
45,45,45,45,45,45,45,45,45,45,45,45,45,45,45,45,
45,45,45,45,45,45,45,45,45,45,45,45,45,45,45,45,
45,45,45,45,45,45,45,45,45,45,45,45,45,45,45,45,
45,45,45,45,45,45,45,45,45,45,45,45,45,45,45,45,
45,45,45,45,45,45,45,45,45,45,45,45,45,45,45,45,
45,45,45,45,45,45,45,45,45,45,45,45,45,45,45,45,
45,45,45,45,45,45,45,45,45,45,45,45,45,45,45,45,
45,45,45,45,45,45,45,45,45,45,45,45,45,45,45,45,
45,45,45,45,45,45,45,45,45,45,45,45,45,45,45,45,
45,45,45,45,45,45,45,45,45,45,45,45,45,45,45,45,
45,45,45,45,45,45,45,45,45,45,45,45,45,45,45,45,
45,45,45,45,45,45,45,45,45,45,45,45,45,45,45,45,
45,45,45,45,45,45,45,45,45,45,45,45,45,45,45,45,
45,45,45,45,45,45,45,45,45,45,45,45,45,45,45,45
</chunk>
   <chunk x="208" y="-32" width="16" height="16">
45,45,45,45,45,45,45,45,45,45,55,0,0,0,0,0,
45,45,45,45,45,45,45,45,45,45,47,0,0,0,0,0,
45,45,45,45,45,45,45,45,45,45,55,0,0,0,0,0,
45,45,45,45,45,45,45,45,45,45,47,0,0,0,0,0,
45,45,45,45,45,45,45,45,45,45,55,0,0,0,0,0,
45,45,45,45,45,45,45,45,45,45,47,0,0,0,0,0,
45,45,45,45,45,45,45,45,45,45,55,0,0,0,0,0,
45,45,45,45,45,45,45,45,45,45,47,0,0,0,0,0,
45,45,45,45,45,45,45,45,45,45,55,0,0,0,0,0,
45,45,45,45,45,45,45,45,45,45,47,0,0,0,0,0,
45,45,45,45,45,45,45,45,45,45,55,0,0,0,0,0,
45,45,45,45,45,45,45,45,45,45,47,0,0,0,0,0,
45,45,45,45,45,45,45,45,45,45,55,0,0,0,0,0,
45,45,45,45,45,45,45,45,45,45,47,0,0,0,0,0,
45,45,45,45,45,45,45,45,45,45,55,0,0,0,0,0,
45,45,45,45,45,45,45,45,45,45,47,0,0,0,0,0
</chunk>
   <chunk x="224" y="-32" width="16" height="16">
0,0,0,0,52,53,53,53,53,53,53,53,53,53,53,53,
0,0,0,0,44,53,53,53,53,53,53,53,53,53,53,53,
0,0,0,0,52,53,53,53,53,53,53,53,53,53,53,53,
0,0,0,0,44,53,53,53,53,53,53,53,53,53,53,53,
0,0,0,0,52,53,53,53,53,53,53,53,53,53,53,53,
0,0,0,0,44,53,53,53,53,53,53,53,53,53,53,53,
0,0,0,0,52,53,53,53,53,53,53,53,53,53,53,53,
0,0,0,0,84,85,53,53,53,53,53,53,53,53,53,53,
0,0,0,0,92,84,85,53,53,53,53,53,53,53,53,53,
0,0,0,0,0,92,93,61,61,61,61,61,61,61,61,61,
0,0,0,0,0,0,0,0,0,0,0,0,0,0,0,0,
0,0,0,0,0,0,0,0,0,0,0,0,0,0,0,0,
0,0,0,0,0,0,0,0,0,0,0,0,0,0,0,0,
0,0,0,0,0,0,0,0,0,0,0,0,0,0,0,0,
0,0,0,0,0,0,0,0,0,0,0,0,0,0,0,0,
0,0,0,0,0,0,0,0,0,0,0,0,0,0,0,0
</chunk>
   <chunk x="240" y="-32" width="16" height="16">
53,53,53,53,53,53,53,55,0,0,0,0,0,0,0,0,
53,53,53,53,53,53,53,47,0,0,0,0,0,0,0,0,
53,53,53,53,53,53,53,55,0,0,0,0,0,0,0,0,
53,53,53,53,53,53,53,47,0,0,0,0,0,0,0,0,
53,53,53,53,53,53,53,55,0,0,0,0,0,0,0,0,
53,53,53,53,53,53,53,47,0,0,0,0,0,0,0,0,
53,53,53,53,53,53,86,87,0,0,0,0,0,0,0,0,
53,53,53,53,53,86,94,95,0,0,0,0,0,0,0,0,
53,53,53,53,53,55,0,0,0,0,0,0,0,0,0,0,
61,61,61,61,61,63,0,0,0,0,0,0,0,0,0,0,
0,0,0,0,0,0,0,0,0,0,0,0,0,0,0,0,
0,0,0,0,0,0,0,0,0,0,0,0,0,0,0,0,
0,0,0,0,0,0,0,0,0,0,0,0,0,0,0,0,
0,0,0,0,0,0,0,0,0,0,0,0,0,0,0,0,
0,0,0,0,0,0,0,0,0,0,0,0,0,0,0,0,
0,0,0,0,0,0,0,0,0,0,0,0,0,0,0,0
</chunk>
   <chunk x="272" y="-32" width="16" height="16">
0,0,0,0,0,0,0,0,0,0,0,0,0,0,0,0,
0,0,0,0,0,0,0,0,0,0,0,0,0,0,0,0,
0,0,0,0,0,0,0,0,0,0,0,0,0,0,0,0,
0,0,0,0,0,0,0,0,0,0,0,0,0,0,0,0,
0,0,0,0,0,0,0,0,0,0,0,36,38,38,38,38,
0,0,0,0,0,0,0,0,0,0,0,84,85,53,53,53,
0,0,0,0,0,0,0,0,0,0,0,92,93,61,85,53,
0,0,0,0,0,0,0,0,0,0,0,0,0,0,84,85,
0,0,0,0,0,0,0,0,0,0,0,0,0,0,92,93,
0,0,0,0,0,0,0,0,0,0,0,0,0,0,0,0,
0,0,0,0,0,0,0,0,0,0,0,0,0,0,0,0,
0,0,0,0,0,0,0,0,0,0,0,0,0,0,0,0,
0,0,0,0,0,0,0,0,0,0,0,0,0,0,0,0,
0,0,0,0,0,0,0,0,0,0,0,0,0,0,0,0,
0,0,0,0,0,0,0,0,0,0,0,0,0,0,0,0,
0,0,0,0,0,0,0,0,0,0,0,0,0,0,0,0
</chunk>
   <chunk x="288" y="-32" width="16" height="16">
0,0,0,0,0,0,0,0,0,0,0,0,0,0,0,0,
0,0,0,0,0,0,0,0,0,0,0,0,0,0,0,0,
0,0,0,0,0,0,0,0,0,0,0,0,0,0,0,0,
0,0,0,0,0,0,0,0,0,0,0,0,0,0,0,0,
38,38,38,39,0,0,0,0,0,0,0,0,0,0,0,0,
53,53,53,47,0,0,0,0,0,0,0,0,0,0,0,0,
53,53,53,78,38,38,38,38,38,38,38,38,38,38,38,38,
53,53,53,53,53,53,53,53,53,53,53,53,53,53,53,53,
85,53,53,53,53,53,53,53,53,53,53,53,53,53,53,53,
52,53,53,53,53,53,53,53,53,53,53,53,53,53,53,53,
60,62,62,62,62,62,62,62,62,62,62,62,62,62,62,62,
0,0,0,0,0,0,0,0,0,0,0,0,0,0,0,0,
0,0,0,0,0,0,0,0,0,0,0,0,0,0,0,0,
0,0,0,0,0,0,0,0,0,0,0,0,0,0,0,0,
0,0,0,0,0,0,0,0,0,0,0,0,0,0,0,0,
0,0,0,0,0,0,0,0,0,0,0,0,0,0,0,0
</chunk>
   <chunk x="304" y="-32" width="16" height="16">
52,53,53,53,53,53,53,53,53,53,53,55,0,0,0,0,
44,53,53,53,53,53,53,53,53,53,53,47,0,0,0,0,
52,53,53,53,53,53,53,53,53,53,53,55,0,0,0,0,
44,53,53,53,53,53,53,53,53,53,53,47,0,0,0,0,
52,53,53,53,53,53,53,53,53,53,53,55,0,0,0,0,
44,53,53,53,53,53,53,53,53,53,53,47,0,0,0,0,
77,53,53,53,53,53,53,53,53,53,53,55,0,0,0,0,
53,53,53,53,53,53,53,53,53,53,53,47,0,0,0,0,
53,53,53,53,53,53,53,53,53,53,86,87,0,0,0,0,
53,53,53,53,53,53,53,53,53,86,87,95,0,0,0,0,
62,62,62,62,62,62,62,62,62,94,95,0,0,0,0,0,
0,0,0,0,0,0,0,0,0,0,0,0,0,0,0,0,
0,0,0,0,0,0,0,0,0,0,0,0,0,0,0,0,
0,0,0,0,0,0,0,0,0,0,0,0,0,0,0,0,
0,0,0,0,0,0,0,0,0,0,0,0,0,0,0,0,
0,0,0,0,0,0,0,0,0,0,0,0,0,0,0,0
</chunk>
   <chunk x="336" y="-32" width="16" height="16">
0,0,0,0,0,0,0,0,0,0,0,0,0,0,0,0,
0,0,0,0,36,37,37,37,37,37,37,37,37,37,37,37,
0,0,0,0,60,61,62,61,62,61,62,61,62,61,62,61,
0,0,0,0,0,0,0,0,0,0,0,0,0,0,0,0,
0,0,0,0,0,0,0,0,0,0,0,0,0,0,0,0,
0,0,0,0,0,0,0,0,0,0,0,0,0,0,0,0,
0,0,0,0,0,0,0,0,0,0,0,0,0,0,0,0,
0,0,0,0,0,0,0,0,0,0,0,0,0,0,0,0,
0,0,0,0,0,0,0,0,0,0,0,0,0,0,0,0,
0,0,0,0,0,0,0,0,0,0,0,0,0,0,0,0,
0,0,0,0,0,0,0,0,0,0,0,0,0,0,0,0,
0,0,0,0,0,0,0,0,0,0,0,0,0,0,0,0,
0,0,0,0,0,0,0,0,0,0,0,0,0,0,0,0,
0,0,0,0,0,0,0,0,0,0,0,0,0,0,0,0,
0,0,0,0,0,0,0,0,0,0,0,0,0,0,0,0,
0,0,0,0,0,0,0,0,0,0,0,0,0,0,0,0
</chunk>
   <chunk x="352" y="-32" width="16" height="16">
0,0,0,0,0,0,0,0,0,0,0,0,0,0,0,0,
37,37,37,37,37,37,37,37,37,37,37,37,39,0,0,0,
62,85,53,86,61,62,61,62,61,62,61,62,63,0,0,0,
0,44,53,47,0,0,0,0,0,0,0,0,0,0,0,0,
0,52,53,55,0,0,0,0,0,0,0,0,0,0,0,0,
0,44,53,47,0,0,0,0,0,0,0,0,0,0,0,0,
0,52,53,55,0,0,0,0,0,0,0,0,0,0,0,0,
0,44,53,47,0,0,0,0,0,0,0,0,0,0,0,0,
0,52,53,55,0,0,0,0,0,0,0,0,0,0,0,0,
0,44,53,47,0,0,0,0,0,0,0,0,0,0,0,0,
0,60,62,63,0,0,0,0,0,0,0,0,0,0,0,0,
0,0,0,0,0,0,0,0,0,0,0,0,0,0,0,0,
0,0,0,0,0,0,0,0,0,0,0,0,0,0,0,0,
0,0,0,0,0,0,0,0,0,0,0,0,0,0,0,0,
0,0,0,0,0,0,0,0,0,0,0,0,0,0,0,0,
0,0,0,0,0,0,0,0,0,0,0,0,0,0,0,0
</chunk>
   <chunk x="368" y="-32" width="16" height="16">
0,0,0,0,0,0,0,0,0,0,0,0,44,45,45,45,
0,0,0,0,0,0,0,0,0,0,0,0,44,45,45,45,
0,0,0,0,0,0,0,0,0,0,0,0,44,45,45,45,
0,0,0,0,0,0,0,0,0,0,0,0,44,45,45,45,
0,0,0,0,0,0,0,0,0,0,0,0,44,45,45,45,
0,0,0,0,0,0,0,0,0,0,0,0,44,45,45,45,
0,0,0,0,0,0,0,0,0,0,0,0,44,45,45,45,
0,0,0,0,0,0,0,0,0,0,0,0,44,45,45,45,
0,0,0,0,0,0,0,0,0,0,0,0,44,45,45,45,
0,0,0,0,0,0,0,0,0,0,0,0,44,45,45,45,
0,36,37,37,37,37,37,37,37,37,37,37,37,45,45,45,
0,44,45,45,45,45,45,45,45,45,45,45,45,45,45,45,
0,52,45,45,45,45,45,45,45,45,45,45,45,45,45,45,
0,44,45,45,45,45,45,45,45,45,45,45,45,45,45,45,
0,52,45,45,45,45,45,45,45,45,45,45,45,45,45,45,
0,44,45,45,45,45,45,45,45,45,45,45,45,45,45,45
</chunk>
   <chunk x="384" y="-32" width="16" height="16">
45,45,45,45,45,45,45,45,45,45,45,45,45,45,45,45,
45,45,45,45,45,45,45,45,45,45,45,45,45,45,45,45,
45,45,45,45,45,45,45,45,45,45,45,45,45,45,45,45,
45,45,45,45,45,45,45,45,45,45,45,45,45,45,45,45,
45,45,45,45,45,45,45,45,45,45,45,45,45,45,45,45,
45,45,45,45,45,45,45,45,45,45,45,45,45,45,45,45,
45,45,45,45,45,45,45,45,45,45,45,45,45,45,45,45,
45,45,45,45,45,45,45,45,45,45,45,45,45,45,45,45,
45,45,45,45,45,45,45,45,45,45,45,45,45,45,45,45,
45,45,45,45,45,45,45,45,45,45,45,45,45,45,45,45,
45,45,45,45,45,45,45,45,45,45,45,45,45,45,45,45,
45,45,45,45,45,45,45,45,45,45,45,45,45,45,45,45,
45,45,45,45,45,45,45,45,45,45,45,45,45,45,45,45,
45,45,45,45,45,45,45,45,45,45,45,45,45,45,45,45,
45,45,45,45,45,45,45,45,45,45,45,45,45,45,45,45,
45,45,45,45,45,45,45,45,45,45,45,45,45,45,45,45
</chunk>
   <chunk x="400" y="-32" width="16" height="16">
45,45,45,45,45,45,45,45,45,45,45,45,45,45,45,45,
45,45,45,45,45,45,45,45,45,45,45,45,45,45,45,45,
45,45,45,45,45,45,45,45,45,45,45,45,45,45,45,45,
45,45,45,45,45,45,45,45,45,45,45,45,45,45,45,45,
45,45,45,45,45,45,45,45,45,45,45,45,45,45,45,45,
45,45,45,45,45,45,45,45,45,45,45,45,45,45,45,45,
45,45,45,45,45,45,45,45,45,45,45,45,45,45,45,45,
45,45,45,45,45,45,45,45,45,45,45,45,45,45,45,45,
45,45,45,45,45,45,45,45,45,45,45,45,45,45,45,45,
45,45,45,45,45,45,45,45,45,45,45,45,45,45,45,45,
45,45,45,45,45,45,45,45,45,45,45,45,45,45,45,45,
45,45,45,45,45,45,45,45,45,45,45,45,45,45,45,45,
45,45,45,45,45,45,45,45,45,45,45,45,45,45,45,45,
45,45,45,45,45,45,45,45,45,45,45,45,45,45,45,45,
45,45,45,45,45,45,45,45,45,45,45,45,45,45,45,45,
45,45,45,45,45,45,45,45,45,45,45,45,45,45,45,45
</chunk>
   <chunk x="416" y="-32" width="16" height="16">
45,45,45,45,45,45,45,45,45,45,45,45,45,45,45,45,
45,45,45,45,45,45,45,45,45,45,45,45,45,45,45,45,
45,45,45,45,45,45,45,45,45,45,45,45,45,45,45,45,
45,45,45,45,45,45,45,45,45,45,45,45,45,45,45,45,
45,45,45,45,45,45,45,45,45,45,45,45,45,45,45,45,
45,45,45,45,45,45,45,45,45,45,45,45,45,45,45,45,
45,45,45,45,45,45,45,45,45,45,45,45,45,45,45,45,
45,45,45,45,45,45,45,45,45,45,45,45,45,45,45,45,
45,45,45,45,45,45,45,45,45,45,45,45,45,45,45,45,
45,45,45,45,45,45,45,45,45,45,45,45,45,45,45,45,
45,45,45,45,45,45,45,45,45,45,45,45,45,45,45,45,
45,45,45,45,45,45,45,45,45,45,45,45,45,45,45,45,
45,45,45,45,45,45,45,45,45,45,45,45,45,45,45,45,
45,45,45,45,45,45,45,45,45,45,45,45,45,45,45,45,
45,45,45,45,45,45,45,45,45,45,45,45,45,45,45,45,
45,45,45,45,45,45,45,45,45,45,45,45,45,45,45,45
</chunk>
   <chunk x="160" y="-16" width="16" height="16">
0,0,0,0,0,0,0,0,0,0,45,45,45,45,45,45,
0,0,0,0,0,0,0,0,0,0,45,45,45,45,45,45,
0,0,0,0,0,0,0,0,0,0,45,45,45,45,45,45,
0,0,0,0,0,0,0,0,0,0,45,45,45,45,45,45,
0,0,0,0,0,0,0,0,0,0,45,45,45,45,45,45,
0,0,0,0,0,0,0,0,0,0,45,45,45,45,45,45,
0,0,0,0,0,0,0,0,0,0,45,45,45,45,45,45,
0,0,0,0,0,0,0,0,0,0,45,45,45,45,45,45,
0,0,0,0,0,0,0,0,0,0,45,45,45,45,45,45,
0,0,0,0,0,0,0,0,0,0,45,45,45,45,45,45,
0,0,0,0,0,0,0,0,0,0,45,45,45,45,45,45,
0,0,0,0,0,0,0,0,0,0,45,45,45,45,45,45,
0,0,0,0,0,0,0,0,0,0,45,45,45,45,45,45,
0,0,0,0,0,0,0,0,0,0,45,45,45,45,45,45,
0,0,0,0,0,0,0,0,0,0,45,45,45,45,45,45,
0,0,0,0,0,0,0,0,0,0,45,45,45,45,45,45
</chunk>
   <chunk x="176" y="-16" width="16" height="16">
45,45,45,45,45,45,45,45,45,45,45,45,45,45,45,45,
45,45,45,45,45,45,45,45,45,45,45,45,45,45,45,45,
45,45,45,45,45,45,45,45,45,45,45,45,45,45,45,45,
45,45,45,45,45,45,45,45,45,45,45,45,45,45,45,45,
45,45,45,45,45,45,45,45,45,45,45,45,45,45,45,45,
45,45,45,45,45,45,45,45,45,45,45,45,45,45,45,45,
45,45,45,45,45,45,45,45,45,45,45,45,45,45,45,45,
45,45,45,45,45,45,45,45,45,45,45,45,45,45,45,45,
45,45,45,45,45,45,45,45,45,45,45,45,45,45,45,45,
45,45,45,45,45,45,45,45,45,45,45,45,45,45,45,45,
45,45,45,45,45,45,45,45,45,45,45,45,45,45,45,45,
45,45,45,45,45,45,45,45,45,45,45,45,45,45,45,45,
45,45,45,45,45,45,45,45,45,45,45,45,45,45,45,45,
45,45,45,45,45,45,45,45,45,45,45,45,45,45,45,45,
45,45,45,45,45,45,45,45,45,45,45,45,45,45,45,45,
45,45,45,45,45,45,45,45,45,45,45,45,45,45,45,45
</chunk>
   <chunk x="192" y="-16" width="16" height="16">
45,45,45,45,45,45,45,45,45,45,45,45,45,45,45,45,
45,45,45,45,45,45,45,45,45,45,45,45,45,45,45,45,
45,45,45,45,45,45,45,45,45,45,45,45,45,45,45,45,
45,45,45,45,45,45,45,45,45,45,45,45,45,45,45,45,
45,45,45,45,45,45,45,45,45,45,45,45,45,45,45,45,
45,45,45,45,45,45,45,45,45,45,45,45,45,45,45,45,
45,45,45,45,45,45,45,45,45,45,45,45,45,45,45,45,
45,45,45,45,45,45,45,45,45,45,45,45,45,45,45,45,
45,45,45,45,45,45,45,45,45,45,45,45,45,45,45,45,
45,45,45,45,45,45,45,45,45,45,45,45,45,45,45,45,
45,45,45,45,45,45,45,45,45,45,45,45,45,45,45,45,
45,45,45,45,45,45,45,45,45,45,45,45,45,45,45,45,
45,45,45,45,45,45,45,45,45,45,45,45,45,45,45,45,
45,45,45,45,45,45,45,45,45,45,45,45,45,45,45,45,
45,45,45,45,45,45,45,45,45,45,45,45,45,45,45,45,
45,45,45,45,45,45,45,45,45,45,45,45,45,45,45,45
</chunk>
   <chunk x="208" y="-16" width="16" height="16">
45,45,45,45,45,45,45,45,45,45,55,0,0,0,0,0,
45,45,45,45,45,45,45,45,45,45,47,0,0,0,0,0,
45,45,45,45,45,45,45,45,45,45,55,0,0,0,0,0,
45,45,45,45,45,45,45,45,45,45,47,0,0,0,0,0,
45,45,45,45,45,45,45,45,45,45,55,0,0,0,0,0,
45,45,45,45,45,45,45,45,45,45,47,0,0,0,0,0,
45,45,45,45,45,45,45,45,45,45,55,0,0,0,0,0,
45,45,45,45,45,45,45,45,45,45,47,0,0,0,0,0,
45,45,45,45,45,45,45,45,45,45,78,37,37,37,37,37,
45,45,45,45,45,45,45,45,45,45,45,45,45,45,45,45,
45,45,45,45,45,45,45,45,45,45,45,45,45,45,45,45,
45,45,45,45,45,45,45,45,45,45,45,45,45,45,45,45,
45,45,45,45,45,45,45,45,45,45,45,45,45,45,45,45,
45,45,45,45,45,45,45,45,45,45,45,45,45,45,45,45,
45,45,45,45,45,45,45,45,45,45,45,45,45,45,45,45,
45,45,45,45,45,45,45,45,45,45,45,45,45,45,45,45
</chunk>
   <chunk x="224" y="-16" width="16" height="16">
0,0,0,0,0,0,0,0,0,0,0,0,0,0,0,0,
0,0,0,0,0,0,0,0,0,0,0,0,0,0,0,0,
0,0,0,0,0,0,0,0,0,0,0,0,0,0,0,0,
0,0,0,0,0,0,0,0,0,0,0,0,0,0,0,0,
0,0,0,0,0,0,0,0,0,0,0,0,0,0,0,0,
0,0,0,0,0,0,0,0,0,0,0,0,0,0,0,0,
0,0,0,0,0,0,0,0,0,0,0,0,0,0,0,0,
0,0,0,0,0,0,0,0,0,0,0,0,0,0,0,0,
37,37,37,37,37,37,37,37,37,37,37,37,37,37,37,39,
45,45,45,45,45,45,45,45,45,45,45,45,45,45,45,47,
45,45,45,45,45,45,45,45,45,45,45,45,45,45,45,55,
45,45,45,45,45,45,45,45,45,45,45,45,45,45,45,47,
45,45,45,45,45,45,45,45,45,45,45,45,45,45,45,55,
45,45,45,45,45,45,45,45,45,45,45,45,45,45,45,47,
45,45,45,45,45,45,45,45,45,45,45,45,45,45,45,55,
45,45,45,45,45,45,45,45,45,45,45,45,45,45,45,47
</chunk>
   <chunk x="304" y="-16" width="16" height="16">
0,0,0,0,0,0,0,0,0,0,0,0,0,0,0,0,
0,0,0,0,0,0,0,0,0,0,0,0,0,0,0,0,
0,0,0,0,0,0,0,0,0,0,0,0,0,0,0,0,
0,0,0,0,0,0,0,0,0,0,0,0,0,0,0,0,
0,0,0,0,0,0,0,0,0,0,0,0,0,0,0,0,
0,0,0,0,0,0,0,0,0,0,0,0,0,0,0,0,
0,0,0,0,0,0,0,0,0,0,0,0,0,0,0,0,
0,0,0,0,0,0,0,0,0,0,0,0,0,0,0,0,
0,0,0,0,0,0,0,0,0,0,0,0,0,0,0,0,
0,0,0,0,0,0,0,0,0,0,0,0,0,0,0,0,
0,0,0,0,0,0,0,0,0,0,0,0,0,0,0,0,
0,0,0,0,0,0,0,0,0,0,0,0,0,0,0,0,
0,0,0,0,0,0,0,0,0,0,0,0,0,0,0,0,
0,0,0,0,0,0,0,0,0,0,0,0,0,0,0,0,
0,0,0,0,0,0,0,0,0,0,0,0,0,0,36,37,
0,0,0,0,0,0,0,0,0,0,0,0,0,0,44,53
</chunk>
   <chunk x="320" y="-16" width="16" height="16">
0,0,0,0,0,0,0,0,0,0,0,0,0,0,0,0,
0,0,0,0,0,0,0,0,0,0,0,0,0,0,0,0,
0,0,0,0,0,0,0,0,0,0,0,0,0,0,0,0,
0,0,0,0,0,0,0,0,0,0,0,0,0,0,0,0,
0,0,0,0,0,0,0,0,0,0,0,0,0,0,0,0,
0,0,0,0,0,0,0,0,0,0,0,0,0,0,0,0,
0,0,0,0,0,0,0,0,0,0,0,0,0,0,0,0,
0,0,0,0,0,0,0,0,0,0,0,0,0,0,0,0,
0,0,0,0,0,0,0,0,0,0,0,0,0,0,0,0,
0,0,0,0,0,0,0,0,0,0,0,0,0,0,0,0,
0,0,0,0,0,0,0,0,0,0,0,0,0,0,0,0,
0,0,0,0,0,0,0,0,0,0,0,0,0,0,0,0,
0,0,0,0,0,0,0,0,0,0,0,0,0,0,0,0,
0,0,0,0,0,0,0,0,0,0,0,0,0,0,0,0,
37,37,37,37,37,37,37,37,37,37,37,37,37,37,37,37,
53,53,53,53,53,53,53,53,53,53,53,53,53,53,53,53
</chunk>
   <chunk x="336" y="-16" width="16" height="16">
0,0,0,0,0,0,0,0,0,0,0,0,0,0,0,0,
0,0,0,0,0,0,0,0,0,0,0,0,0,0,0,0,
0,0,0,0,0,0,0,0,0,0,0,0,0,0,0,0,
0,0,0,0,0,0,0,0,0,0,0,0,0,0,0,0,
0,0,0,0,0,0,0,0,0,0,0,0,0,0,0,0,
0,0,0,0,0,0,0,0,0,0,0,0,0,0,0,0,
0,0,0,0,0,0,0,0,0,0,0,0,0,0,0,0,
0,0,0,0,0,0,0,0,0,0,0,0,0,0,0,0,
0,0,0,0,0,0,0,0,0,0,0,0,0,0,0,0,
0,0,0,0,0,0,0,0,0,0,0,0,0,0,0,0,
0,0,0,0,0,0,0,0,0,0,0,0,0,0,0,0,
0,0,0,0,0,0,0,0,0,0,0,0,0,0,0,0,
0,0,0,0,0,0,0,0,0,0,0,0,0,0,0,0,
0,0,0,0,0,0,0,0,0,0,0,0,0,0,0,0,
37,37,37,37,37,37,37,37,37,37,37,37,37,37,37,39,
53,53,53,53,53,53,53,53,53,53,53,53,53,53,53,47
</chunk>
   <chunk x="368" y="-16" width="16" height="16">
0,52,45,45,45,45,45,45,45,45,45,45,45,45,45,45,
0,44,45,45,45,45,45,45,45,45,45,45,45,45,45,45,
0,52,45,45,45,45,45,45,45,45,45,45,45,45,45,45,
0,44,45,45,45,45,45,45,45,45,45,45,45,45,45,45,
0,52,45,45,45,45,45,45,45,45,45,45,45,45,45,45,
0,44,45,45,45,45,45,45,45,45,45,45,45,45,45,45,
0,52,45,45,45,45,45,45,45,45,45,45,45,45,45,45,
0,44,45,45,45,45,45,45,45,45,45,45,45,45,45,45,
0,52,45,45,45,45,45,45,45,45,45,45,45,45,45,45,
0,44,45,45,45,45,45,45,45,45,45,45,45,45,45,45,
0,52,45,45,45,45,45,45,45,45,45,45,45,45,45,45,
0,44,45,45,45,45,45,45,45,45,45,45,45,45,45,45,
0,52,45,45,45,45,45,45,45,45,45,45,45,45,45,45,
0,44,45,45,45,45,45,45,45,45,45,45,45,45,45,45,
0,52,45,45,45,45,45,45,45,45,45,45,45,45,45,45,
0,44,45,45,45,45,45,45,45,45,45,45,45,45,45,45
</chunk>
   <chunk x="384" y="-16" width="16" height="16">
45,45,45,45,45,45,45,45,45,45,45,45,45,45,45,45,
45,45,45,45,45,45,45,45,45,45,45,45,45,45,45,45,
45,45,45,45,45,45,45,45,45,45,45,45,45,45,45,45,
45,45,45,45,45,45,45,45,45,45,45,45,45,45,45,45,
45,45,45,45,45,45,45,45,45,45,45,45,45,45,45,45,
45,45,45,45,45,45,45,45,45,45,45,45,45,45,45,45,
45,45,45,45,45,45,45,45,45,45,45,45,45,45,45,45,
45,45,45,45,45,45,45,45,45,45,45,45,45,45,45,45,
45,45,45,45,45,45,45,45,45,45,45,45,45,45,45,45,
45,45,45,45,45,45,45,45,45,45,45,45,45,45,45,45,
45,45,45,45,45,45,45,45,45,45,45,45,45,45,45,45,
45,45,45,45,45,45,45,45,45,45,45,45,45,45,45,45,
45,45,45,45,45,45,45,45,45,45,45,45,45,45,45,45,
45,45,45,45,45,45,45,45,45,45,45,45,45,45,45,45,
45,45,45,45,45,45,45,45,45,45,45,45,45,45,45,45,
45,45,45,45,45,45,45,45,45,45,45,45,45,45,45,45
</chunk>
   <chunk x="400" y="-16" width="16" height="16">
45,45,45,45,45,45,45,45,45,45,45,45,45,45,45,45,
45,45,45,45,45,45,45,45,45,45,45,45,45,45,45,45,
45,45,45,45,45,45,45,45,45,45,45,45,45,45,45,45,
45,45,45,45,45,45,45,45,45,45,45,45,45,45,45,45,
45,45,45,45,45,45,45,45,45,45,45,45,45,45,45,45,
45,45,45,45,45,45,45,45,45,45,45,45,45,45,45,45,
45,45,45,45,45,45,45,45,45,45,45,45,45,45,45,45,
45,45,45,45,45,45,45,45,45,45,45,45,45,45,45,45,
45,45,45,45,45,45,45,45,45,45,45,45,45,45,45,45,
45,45,45,45,45,45,45,45,45,45,45,45,45,45,45,45,
45,45,45,45,45,45,45,45,45,45,45,45,45,45,45,45,
45,45,45,45,45,45,45,45,45,45,45,45,45,45,45,45,
45,45,45,45,45,45,45,45,45,45,45,45,45,45,45,45,
45,45,45,45,45,45,45,45,45,45,45,45,45,45,45,45,
45,45,45,45,45,45,45,45,45,45,45,45,45,45,45,45,
45,45,45,45,45,45,45,45,45,45,45,45,45,45,45,45
</chunk>
   <chunk x="416" y="-16" width="16" height="16">
45,45,45,45,45,45,45,45,45,45,45,45,45,45,45,45,
45,45,45,45,45,45,45,45,45,45,45,45,45,45,45,45,
45,45,45,45,45,45,45,45,45,45,45,45,45,45,45,45,
45,45,45,45,45,45,45,45,45,45,45,45,45,45,45,45,
45,45,45,45,45,45,45,45,45,45,45,45,45,45,45,45,
45,45,45,45,45,45,45,45,45,45,45,45,45,45,45,45,
45,45,45,45,45,45,45,45,45,45,45,45,45,45,45,45,
45,45,45,45,45,45,45,45,45,45,45,45,45,45,45,45,
45,45,45,45,45,45,45,45,45,45,45,45,45,45,45,45,
45,45,45,45,45,45,45,45,45,45,45,45,45,45,45,45,
45,45,45,45,45,45,45,45,45,45,45,45,45,45,45,45,
45,45,45,45,45,45,45,45,45,45,45,45,45,45,45,45,
45,45,45,45,45,45,45,45,45,45,45,45,45,45,45,45,
45,45,45,45,45,45,45,45,45,45,45,45,45,45,45,45,
45,45,45,45,45,45,45,45,45,45,45,45,45,45,45,45,
45,45,45,45,45,45,45,45,45,45,45,45,45,45,45,45
</chunk>
   <chunk x="160" y="0" width="16" height="16">
0,0,0,0,0,0,0,0,0,0,45,45,45,45,45,45,
0,0,0,0,0,0,0,0,0,0,45,45,45,45,45,45,
0,0,0,0,0,0,0,0,0,0,45,45,45,45,45,45,
0,0,0,0,0,0,0,0,0,0,45,45,45,45,45,45,
0,0,0,0,0,0,0,0,0,0,45,45,45,45,45,45,
0,0,0,0,0,0,0,0,0,0,45,45,45,45,45,45,
0,0,0,0,0,0,0,0,0,0,45,45,45,45,45,45,
0,0,0,0,0,0,0,0,0,0,45,45,45,45,45,45,
0,0,0,0,0,0,0,0,0,0,45,45,45,45,45,45,
0,0,0,0,0,0,0,0,0,0,45,45,45,45,45,45,
0,0,0,0,0,0,0,0,0,0,45,45,45,45,45,45,
0,0,0,0,0,0,0,0,0,0,45,45,45,45,45,45,
0,0,0,0,0,0,0,0,0,0,45,45,45,45,45,45,
0,0,0,0,0,0,0,0,0,0,45,45,45,45,45,45,
0,0,0,0,0,0,0,0,0,0,45,45,45,45,45,45,
0,0,0,0,0,0,0,0,0,0,45,45,45,45,45,45
</chunk>
   <chunk x="176" y="0" width="16" height="16">
45,45,45,45,45,45,45,45,45,45,45,45,45,45,45,45,
45,45,45,45,45,45,45,45,45,45,45,45,45,45,45,45,
45,45,45,45,45,45,45,45,45,45,45,45,45,45,45,45,
45,45,45,45,45,45,45,45,45,45,45,45,45,45,45,45,
45,45,45,45,45,45,45,45,45,45,45,45,45,45,45,45,
45,45,45,45,45,45,45,45,45,45,45,45,45,45,45,45,
45,45,45,45,45,45,45,45,45,45,45,45,45,45,45,45,
45,45,45,45,45,45,45,45,45,45,45,45,45,45,45,45,
45,45,45,45,45,45,45,45,45,45,45,45,45,45,45,45,
45,45,45,45,45,45,45,45,45,45,45,45,45,45,45,45,
45,45,45,45,45,45,45,45,45,45,45,45,45,45,45,45,
45,45,45,45,45,45,45,45,45,45,45,45,45,45,45,45,
45,45,45,45,45,45,45,45,45,45,45,45,45,45,45,45,
45,45,45,45,45,45,45,45,45,45,45,45,45,45,45,45,
45,45,45,45,45,45,45,45,45,45,45,45,45,45,45,45,
45,45,45,45,45,45,45,45,45,45,45,45,45,45,45,45
</chunk>
   <chunk x="192" y="0" width="16" height="16">
45,45,45,45,45,45,45,45,45,45,45,45,45,45,45,45,
45,45,45,45,45,45,45,45,45,45,45,45,45,45,45,45,
45,45,45,45,45,45,45,45,45,45,45,45,45,45,45,45,
45,45,45,45,45,45,45,45,45,45,45,45,45,45,45,45,
45,45,45,45,45,45,45,45,45,45,45,45,45,45,45,45,
45,45,45,45,45,45,45,45,45,45,45,45,45,45,45,45,
45,45,45,45,45,45,45,45,45,45,45,45,45,45,45,45,
45,45,45,45,45,45,45,45,45,45,45,45,45,45,45,45,
45,45,45,45,45,45,45,45,45,45,45,45,45,45,45,45,
45,45,45,45,45,45,45,45,45,45,45,45,45,45,45,45,
45,45,45,45,45,45,45,45,45,45,45,45,45,45,45,45,
45,45,45,45,45,45,45,45,45,45,45,45,45,45,45,45,
45,45,45,45,45,45,45,45,45,45,45,45,45,45,45,45,
45,45,45,45,45,45,45,45,45,45,45,45,45,45,45,45,
45,45,45,45,45,45,45,45,45,45,45,45,45,45,45,45,
45,45,45,45,45,45,45,45,45,45,45,45,45,45,45,45
</chunk>
   <chunk x="208" y="0" width="16" height="16">
45,45,45,45,45,45,45,45,45,45,45,45,45,45,45,45,
45,45,45,45,45,45,45,45,45,45,45,45,45,45,45,45,
45,45,45,45,45,45,45,45,45,45,45,45,45,45,45,45,
45,45,45,45,45,45,45,45,45,45,45,45,45,45,45,45,
45,45,45,45,45,45,45,45,45,45,45,45,45,45,45,45,
45,45,45,45,45,45,45,45,45,45,45,45,45,45,45,45,
45,45,45,45,45,45,45,45,45,45,45,45,45,45,45,45,
45,45,45,45,45,45,45,45,45,45,45,45,45,45,45,45,
45,45,45,45,45,45,45,45,45,45,45,45,45,45,45,45,
45,45,45,45,45,45,45,45,45,45,45,45,45,45,45,45,
45,45,45,45,45,45,45,45,45,45,45,45,45,45,45,45,
45,45,45,45,45,45,45,45,45,45,45,45,45,45,45,45,
45,45,45,45,45,45,45,45,45,45,45,45,45,45,45,45,
45,45,45,45,45,45,45,45,45,45,45,45,45,45,45,45,
45,45,45,45,45,45,45,45,45,45,45,45,45,45,45,45,
45,45,45,45,45,45,45,45,45,45,45,45,45,45,45,45
</chunk>
   <chunk x="224" y="0" width="16" height="16">
45,45,45,45,45,45,45,45,45,45,45,45,45,45,45,55,
45,45,45,45,45,45,45,45,45,45,45,45,45,45,45,47,
45,45,45,45,45,45,45,45,45,45,45,45,45,45,45,55,
45,45,45,45,45,45,45,45,45,45,45,45,45,45,45,47,
45,45,45,45,45,45,45,45,45,45,45,45,45,45,45,45,
45,45,45,45,45,45,45,45,45,45,45,45,45,45,45,45,
45,45,45,45,45,45,45,45,45,45,45,45,45,45,45,45,
45,45,45,45,45,45,45,45,45,45,45,45,45,45,45,45,
45,45,45,45,45,45,45,45,45,45,45,45,45,45,45,45,
45,45,45,45,45,45,45,45,45,45,45,45,45,45,45,45,
45,45,45,45,45,45,45,45,45,45,45,45,45,45,45,45,
45,45,45,45,45,45,45,45,45,45,45,45,45,45,45,45,
45,45,45,45,45,45,45,45,45,45,45,45,45,45,45,45,
45,45,45,45,45,45,45,45,45,45,45,45,45,45,45,45,
45,45,45,45,45,45,45,45,45,45,45,45,45,45,45,45,
45,45,45,45,45,45,45,45,45,45,45,45,45,45,45,45
</chunk>
   <chunk x="240" y="0" width="16" height="16">
0,0,0,0,0,0,0,0,0,0,0,0,0,0,0,0,
0,0,0,0,0,0,0,0,0,0,0,0,0,0,0,0,
0,0,0,0,0,0,0,0,0,0,0,0,0,0,0,0,
0,0,0,0,0,0,0,0,0,0,0,0,0,0,0,0,
37,37,37,37,37,37,37,37,37,37,37,37,39,0,0,0,
45,45,45,45,45,45,45,45,45,45,86,62,87,0,0,0,
45,45,45,45,45,45,45,45,45,86,87,0,95,0,0,0,
45,45,86,62,62,62,62,62,62,94,95,0,0,0,0,0,
45,45,47,0,0,0,0,0,0,0,0,0,0,0,0,0,
45,45,55,0,0,0,0,0,0,0,0,0,0,0,0,0,
45,45,47,0,0,0,0,0,0,0,0,0,0,0,0,0,
45,45,55,0,0,0,0,0,0,0,0,0,0,0,0,0,
45,45,47,0,0,0,0,0,0,0,0,0,0,0,0,0,
45,45,55,0,0,0,0,0,0,0,0,0,0,0,0,0,
45,86,87,0,0,0,0,0,0,0,0,0,0,0,0,0,
86,87,95,0,0,0,0,0,0,0,0,0,0,0,0,0
</chunk>
   <chunk x="304" y="0" width="16" height="16">
0,0,0,0,0,0,0,0,0,0,0,0,0,0,52,53,
0,0,0,0,0,0,0,0,0,0,0,0,0,0,44,53,
0,0,0,0,0,0,0,0,0,0,0,0,0,0,52,53,
0,0,0,0,0,0,0,0,0,0,0,0,0,0,44,53,
0,0,0,0,0,0,0,0,0,0,0,0,0,0,52,53,
0,0,0,0,0,0,0,0,0,0,0,0,0,0,44,53,
0,0,0,0,0,0,0,0,0,0,0,0,0,0,52,53,
0,0,0,0,0,0,0,0,0,0,0,0,0,0,44,53,
0,0,0,0,0,0,0,0,0,0,0,0,0,0,52,53,
0,0,0,0,0,0,0,0,0,0,0,0,0,0,44,53,
0,0,0,0,0,0,0,0,0,0,0,0,0,0,44,53,
0,0,0,0,0,0,0,0,0,0,0,0,0,0,52,53,
0,0,0,0,0,0,0,0,0,0,0,0,0,0,44,53,
0,0,0,0,0,0,0,0,0,0,0,0,0,0,52,53,
0,0,0,0,0,0,0,0,0,0,0,0,0,0,44,53,
0,0,0,0,0,0,0,0,0,0,0,0,0,0,52,53
</chunk>
   <chunk x="320" y="0" width="16" height="16">
53,53,53,53,53,53,53,53,53,53,53,53,53,53,53,53,
53,53,53,53,53,53,53,53,53,53,53,53,53,53,53,53,
53,53,53,53,53,53,53,53,53,53,53,53,53,53,53,53,
53,53,53,53,53,53,53,53,53,53,53,53,53,53,53,53,
53,53,53,53,53,53,53,53,53,53,53,53,53,53,53,53,
53,53,53,53,53,53,53,53,53,53,53,53,53,53,53,53,
53,53,53,53,53,53,53,53,53,53,53,53,53,53,53,53,
53,53,53,53,53,53,53,53,53,53,53,53,53,53,53,53,
53,53,53,53,53,53,53,53,53,53,53,53,53,53,53,53,
53,53,53,53,53,53,53,53,53,53,53,53,53,53,53,53,
53,53,53,53,53,53,53,53,53,53,53,53,53,53,53,53,
53,53,53,53,53,53,53,53,53,53,53,53,53,53,53,53,
53,53,53,53,53,53,53,53,53,53,53,53,53,53,53,53,
53,53,53,53,53,53,53,53,53,53,53,53,53,53,53,53,
53,53,53,53,53,53,53,53,53,53,53,53,53,53,53,53,
53,53,53,53,53,53,53,53,53,53,53,53,53,53,53,53
</chunk>
   <chunk x="336" y="0" width="16" height="16">
53,53,53,53,53,53,53,53,53,53,53,53,53,53,53,55,
53,53,53,53,53,53,53,53,53,53,53,53,53,53,53,47,
53,53,53,53,53,53,53,53,53,53,53,53,53,53,53,55,
53,53,53,53,53,53,53,53,53,53,53,53,53,53,53,47,
53,53,53,53,53,53,53,53,53,53,53,53,53,53,53,55,
53,53,53,53,53,53,53,53,53,53,53,53,53,53,53,47,
53,53,53,53,53,53,53,53,53,53,53,53,53,53,53,55,
53,53,53,53,53,53,53,53,53,53,53,53,53,53,53,47,
53,53,53,53,53,53,53,53,53,53,53,53,53,53,53,55,
53,53,53,53,53,53,53,53,53,53,53,53,53,53,53,47,
53,53,53,53,53,53,53,53,53,53,53,53,53,53,53,55,
53,53,53,53,53,53,53,53,53,53,53,53,53,53,53,47,
53,53,53,53,53,53,53,53,53,53,53,53,53,53,53,55,
53,53,53,53,53,53,53,53,53,53,53,53,53,53,53,47,
53,53,53,53,53,53,53,53,53,53,53,53,53,53,53,55,
53,53,53,53,53,53,53,53,53,53,53,53,53,53,86,94
</chunk>
   <chunk x="368" y="0" width="16" height="16">
0,52,45,45,45,45,45,45,45,45,45,45,45,45,45,45,
0,44,45,45,45,45,45,45,45,45,45,45,45,45,45,45,
0,52,45,45,45,45,45,45,45,45,45,45,45,45,45,45,
0,44,45,45,45,45,45,45,45,45,45,45,45,45,45,45,
0,52,45,45,45,45,45,45,45,45,45,45,45,45,45,45,
0,44,45,45,45,45,45,45,45,45,45,45,45,45,45,45,
0,52,45,45,45,45,45,45,45,45,45,45,45,45,45,45,
0,44,45,45,45,45,45,45,45,45,45,45,45,45,45,45,
0,52,45,45,45,45,45,45,45,45,45,45,45,45,45,45,
0,44,45,45,45,45,45,45,45,45,45,45,45,45,45,45,
0,52,45,45,45,45,45,45,45,45,45,45,45,45,45,45,
0,44,45,45,45,45,45,45,45,45,45,45,45,45,45,45,
0,52,45,45,45,45,45,45,45,45,45,45,45,45,45,45,
0,44,45,45,45,45,45,45,45,45,45,45,45,45,45,45,
0,52,45,45,45,45,45,45,45,45,45,45,45,45,45,45,
0,44,45,45,45,45,45,45,45,45,45,45,45,45,45,45
</chunk>
   <chunk x="384" y="0" width="16" height="16">
45,45,45,45,45,45,45,45,45,45,45,45,45,45,45,45,
45,45,45,45,45,45,45,45,45,45,45,45,45,45,45,45,
45,45,45,45,45,45,45,45,45,45,45,45,45,45,45,45,
45,45,45,45,45,45,45,45,45,45,45,45,45,45,45,45,
45,45,45,45,45,45,45,45,45,45,45,45,45,45,45,45,
45,45,45,45,45,45,45,45,45,45,45,45,45,45,45,45,
45,45,45,45,45,45,45,45,45,45,45,45,45,45,45,45,
45,45,45,45,45,45,45,45,45,45,45,45,45,45,45,45,
45,45,45,45,45,45,45,45,45,45,45,45,45,45,45,45,
45,45,45,45,45,45,45,45,45,45,45,45,45,45,45,45,
45,45,45,45,45,45,45,45,45,45,45,45,45,45,45,45,
45,45,45,45,45,45,45,45,45,45,45,45,45,45,45,45,
45,45,45,45,45,45,45,45,45,45,45,45,45,45,45,45,
45,45,45,45,45,45,45,45,45,45,45,45,45,45,45,45,
45,45,45,45,45,45,45,45,45,45,45,45,45,45,45,45,
45,45,45,45,45,45,45,45,45,45,45,45,45,45,45,45
</chunk>
   <chunk x="400" y="0" width="16" height="16">
45,45,45,45,45,45,45,45,45,45,45,45,45,45,45,45,
45,45,45,45,45,45,45,45,45,45,45,45,45,45,45,45,
45,45,45,45,45,45,45,45,45,45,45,45,45,45,45,45,
45,45,45,45,45,45,45,45,45,45,45,45,45,45,45,45,
45,45,45,45,45,45,45,45,45,45,45,45,45,45,45,45,
45,45,45,45,45,45,45,45,45,45,45,45,45,45,45,45,
45,45,45,45,45,45,45,45,45,45,45,45,45,45,45,45,
45,45,45,45,45,45,45,45,45,45,45,45,45,45,45,45,
45,45,45,45,45,45,45,45,45,45,45,45,45,45,45,45,
45,45,45,45,45,45,45,45,45,45,45,45,45,45,45,45,
45,45,45,45,45,45,45,45,45,45,45,45,45,45,45,45,
45,45,45,45,45,45,45,45,45,45,45,45,45,45,45,45,
45,45,45,45,45,45,45,45,45,45,45,45,45,45,45,45,
45,45,45,45,45,45,45,45,45,45,45,45,45,45,45,45,
45,45,45,45,45,45,45,45,45,45,45,45,45,45,45,45,
45,45,45,45,45,45,45,45,45,45,45,45,45,45,45,45
</chunk>
   <chunk x="416" y="0" width="16" height="16">
45,45,45,45,45,45,45,45,45,45,45,45,45,45,45,45,
45,45,45,45,45,45,45,45,45,45,45,45,45,45,45,45,
45,45,45,45,45,45,45,45,45,45,45,45,45,45,45,45,
45,45,45,45,45,45,45,45,45,45,45,45,45,45,45,45,
45,45,45,45,45,45,45,45,45,45,45,45,45,45,45,45,
45,45,45,45,45,45,45,45,45,45,45,45,45,45,45,45,
45,45,45,45,45,45,45,45,45,45,45,45,45,45,45,45,
45,45,45,45,45,45,45,45,45,45,45,45,45,45,45,45,
45,45,45,45,45,45,45,45,45,45,45,45,45,45,45,45,
45,45,45,45,45,45,45,45,45,45,45,45,45,45,45,45,
45,45,45,45,45,45,45,45,45,45,45,45,45,45,45,45,
45,45,45,45,45,45,45,45,45,45,45,45,45,45,45,45,
45,45,45,45,45,45,45,45,45,45,45,45,45,45,45,45,
45,45,45,45,45,45,45,45,45,45,45,45,45,45,45,45,
45,45,45,45,45,45,45,45,45,45,45,45,45,45,45,45,
45,45,45,45,45,45,45,45,45,45,45,45,45,45,45,45
</chunk>
   <chunk x="160" y="16" width="16" height="16">
0,0,0,0,0,0,0,0,0,0,45,45,45,45,45,45,
0,0,0,0,0,0,0,0,0,0,45,45,45,45,45,45,
0,0,0,0,0,0,0,0,0,0,45,45,45,45,45,45,
0,0,0,0,0,0,0,0,0,0,45,45,45,45,45,45,
0,0,0,0,0,0,0,0,0,0,45,45,45,45,45,45,
0,0,0,0,0,0,0,0,0,0,45,45,45,45,45,45,
0,0,0,0,0,0,0,0,0,0,45,45,45,45,45,45,
0,0,0,0,0,0,0,0,0,0,45,45,45,45,45,45,
0,0,0,0,0,0,0,0,0,0,45,45,45,45,45,45,
0,0,0,0,0,0,0,0,0,0,45,45,45,45,45,45,
0,0,0,0,0,0,0,0,0,0,45,45,45,45,45,45,
0,0,0,0,0,0,0,0,0,0,45,45,45,45,45,45,
0,0,0,0,0,0,0,0,0,0,45,45,45,45,45,45,
0,0,0,0,0,0,0,0,0,0,45,45,45,45,45,45,
0,0,0,0,0,0,0,0,0,0,45,45,45,45,45,45,
0,0,0,0,0,0,0,0,0,0,45,45,45,45,45,45
</chunk>
   <chunk x="176" y="16" width="16" height="16">
45,45,45,45,45,45,45,45,45,45,45,45,45,45,45,45,
45,45,45,45,45,45,45,45,45,45,45,45,45,45,45,45,
45,45,45,45,45,45,45,45,45,45,45,45,45,45,45,45,
45,45,45,45,45,45,45,45,45,45,45,45,45,45,45,45,
45,45,45,45,45,45,45,45,45,45,45,45,45,45,45,45,
45,45,45,45,45,45,45,45,45,45,45,45,45,45,45,45,
45,45,45,45,45,45,45,45,45,45,45,45,45,45,45,45,
45,45,45,45,45,45,45,45,45,45,45,45,45,45,45,45,
45,45,45,45,45,45,45,45,45,45,45,45,45,45,45,45,
45,45,45,45,45,45,45,45,45,45,45,45,45,45,45,45,
45,45,45,45,45,45,45,45,45,45,45,45,45,45,45,45,
45,45,45,45,45,45,45,45,45,45,45,45,45,45,45,45,
45,45,45,45,45,45,45,45,45,45,45,45,45,45,45,45,
45,45,45,45,45,45,45,45,45,45,45,45,45,45,45,45,
45,45,45,45,45,45,45,45,45,45,45,45,45,45,45,45,
45,45,45,45,45,45,45,86,61,61,61,61,61,61,61,61
</chunk>
   <chunk x="192" y="16" width="16" height="16">
45,45,45,45,45,45,45,45,45,45,45,45,45,45,45,45,
45,45,45,45,45,45,45,45,45,45,45,45,45,45,45,45,
45,45,45,45,45,45,45,45,45,45,45,45,45,45,45,45,
45,45,45,45,45,45,45,45,45,45,45,45,45,45,45,45,
45,45,45,45,45,45,45,45,45,45,45,45,45,45,45,45,
45,45,45,45,45,45,45,45,45,45,45,45,45,45,45,45,
45,45,45,45,45,45,45,45,45,45,45,45,45,45,45,45,
45,45,45,45,45,45,45,45,45,45,45,45,45,45,45,45,
45,45,45,45,45,45,45,45,45,45,45,45,45,45,45,45,
45,45,45,45,45,45,45,45,45,45,45,45,45,45,45,45,
45,45,45,45,45,45,45,45,45,45,45,45,45,45,45,45,
45,45,45,45,45,45,45,45,45,45,45,45,45,45,45,45,
45,45,45,45,45,45,45,45,45,45,45,45,45,45,45,45,
45,45,45,45,45,45,45,45,45,45,45,45,45,45,45,45,
45,45,45,45,45,45,45,45,45,45,45,45,45,45,45,45,
61,61,61,85,45,45,45,45,45,45,45,45,45,45,45,45
</chunk>
   <chunk x="208" y="16" width="16" height="16">
45,45,45,45,45,45,45,45,45,45,45,45,45,45,45,45,
45,45,45,45,45,45,45,45,45,45,45,45,45,45,45,45,
45,45,45,45,45,45,45,45,45,45,45,45,45,45,45,45,
45,45,45,45,45,45,45,45,45,45,45,45,45,45,45,45,
45,45,45,45,45,45,45,45,45,45,45,45,45,45,45,45,
45,45,45,45,45,45,45,45,45,45,45,45,45,45,45,45,
45,45,45,45,45,45,45,45,45,45,45,45,45,45,86,61,
45,45,45,45,45,45,45,45,45,45,45,45,45,45,47,0,
45,45,45,45,45,45,45,45,45,45,45,45,45,45,55,0,
45,45,45,45,45,45,45,45,45,45,45,45,45,45,47,0,
45,45,45,45,45,45,45,45,45,45,45,45,45,45,55,0,
45,45,45,45,45,45,45,45,45,45,45,45,45,45,47,0,
45,45,45,45,45,45,45,45,45,45,45,45,45,45,55,0,
45,45,45,45,45,45,45,45,45,45,45,45,45,45,47,0,
45,45,45,45,45,45,45,45,45,45,45,45,45,45,78,37,
45,45,45,45,45,45,45,45,45,45,45,45,45,45,45,45
</chunk>
   <chunk x="224" y="16" width="16" height="16">
45,45,45,45,45,45,45,45,45,45,45,45,45,45,45,86,
45,45,45,45,45,45,45,45,45,45,45,45,45,45,45,47,
45,45,45,45,45,45,45,45,45,45,45,45,45,45,45,55,
45,45,45,45,45,45,45,45,45,45,45,45,45,45,45,47,
45,45,45,45,45,45,45,45,45,45,45,45,45,45,45,55,
45,45,45,45,45,45,45,45,45,45,45,45,45,45,45,47,
61,61,61,61,61,61,61,61,61,61,61,61,61,61,61,63,
0,0,0,0,0,0,0,0,0,0,0,0,0,0,0,0,
0,0,0,0,0,0,0,0,0,0,0,0,0,0,0,0,
0,0,0,0,0,0,0,0,0,0,0,0,0,0,0,0,
0,0,0,0,0,0,0,0,0,0,0,0,0,0,0,0,
0,0,0,0,0,0,0,0,0,0,0,0,0,0,0,0,
0,0,0,0,0,0,0,0,0,0,0,0,0,0,0,0,
0,0,0,0,0,0,0,0,0,0,0,0,0,0,0,0,
37,37,37,37,37,37,37,37,37,37,37,37,37,37,37,37,
45,45,45,45,45,45,45,45,45,45,45,45,45,45,45,45
</chunk>
   <chunk x="240" y="16" width="16" height="16">
94,95,0,0,0,0,0,0,0,0,0,0,0,0,0,0,
0,0,0,0,0,0,0,0,0,0,0,0,0,0,0,0,
0,0,0,0,0,0,0,0,0,0,0,0,0,0,0,0,
0,0,0,0,0,0,0,0,0,0,0,0,0,0,0,0,
0,0,0,0,0,0,0,0,0,0,0,0,0,0,0,0,
0,0,0,0,0,0,0,0,0,0,0,0,0,0,0,0,
0,0,0,0,0,0,0,0,0,0,0,0,0,0,0,0,
0,0,0,0,0,0,0,0,0,0,0,0,0,0,0,0,
0,0,0,0,0,0,0,0,0,0,0,0,0,0,0,0,
0,0,0,0,0,0,0,0,0,0,0,0,0,0,0,0,
0,0,0,0,0,0,0,0,0,0,0,0,0,0,0,0,
0,0,0,0,0,0,0,0,0,0,0,0,0,0,0,0,
0,0,0,0,0,0,0,0,0,0,0,0,0,0,0,0,
0,0,0,0,0,0,0,0,0,0,0,0,0,0,0,0,
37,37,37,37,37,37,39,0,0,0,0,0,0,0,0,0,
45,45,45,45,45,86,87,0,0,0,0,0,0,0,0,0
</chunk>
   <chunk x="304" y="16" width="16" height="16">
0,0,0,0,0,0,0,0,0,0,0,0,0,0,44,53,
0,0,0,0,0,0,0,0,0,0,0,0,0,0,52,53,
0,0,0,0,0,0,0,0,0,0,0,0,0,0,44,53,
0,0,0,0,0,0,0,0,0,0,0,0,0,0,52,53,
0,0,0,0,0,0,0,0,0,0,0,0,0,0,44,53,
0,0,0,0,0,0,0,0,0,0,0,0,0,0,52,53,
0,0,0,0,0,0,0,0,0,0,0,0,0,0,44,53,
0,0,0,0,0,0,0,0,0,0,0,0,0,0,52,53,
0,0,0,0,0,0,0,0,0,0,0,0,0,0,44,53,
0,0,0,0,0,0,0,0,0,0,0,0,0,0,52,53,
0,0,0,0,0,0,0,0,0,0,0,0,0,0,44,53,
0,0,0,0,0,0,0,0,0,0,0,0,0,0,52,53,
0,0,0,0,0,0,0,0,0,0,0,0,0,0,44,53,
0,0,0,0,0,0,0,0,0,0,0,0,0,0,52,53,
0,0,0,0,0,0,0,0,0,0,0,0,0,0,44,53,
0,0,0,0,0,0,0,0,0,0,0,0,0,0,52,53
</chunk>
   <chunk x="320" y="16" width="16" height="16">
53,53,53,53,53,53,53,53,53,53,53,53,53,53,53,53,
53,53,53,53,53,53,53,53,53,53,53,53,53,53,53,53,
53,53,53,53,53,53,53,53,53,53,53,53,53,86,62,62,
53,53,53,53,53,53,53,53,53,53,53,53,86,94,0,0,
53,53,53,53,53,53,53,53,53,53,53,86,94,0,0,0,
53,53,53,53,53,53,53,53,53,53,53,47,0,0,0,0,
53,53,53,53,53,53,53,53,53,53,53,55,0,0,0,0,
53,53,53,53,53,53,53,53,53,53,53,47,0,0,0,0,
53,53,53,53,53,53,53,53,53,53,53,55,0,0,0,0,
53,53,53,53,53,53,53,53,53,53,53,47,0,0,0,0,
53,53,53,53,53,53,53,53,53,53,53,55,0,0,0,0,
53,53,53,53,53,53,53,53,53,53,53,47,0,0,0,0,
53,53,53,53,53,53,53,53,53,53,53,55,0,0,0,0,
53,53,53,53,53,53,53,53,53,53,53,47,0,0,0,0,
53,53,53,53,53,53,53,53,53,53,53,55,0,0,0,0,
53,53,53,53,53,53,53,53,53,53,53,47,0,0,0,0
</chunk>
   <chunk x="336" y="16" width="16" height="16">
53,53,53,53,53,53,53,53,53,53,53,53,53,86,87,0,
53,53,53,53,53,53,53,53,53,53,53,53,86,94,95,0,
62,62,62,62,62,62,62,62,62,62,62,62,94,0,0,0,
0,0,0,0,0,0,0,0,0,0,0,0,0,0,0,0,
0,0,0,0,0,0,0,0,0,0,0,0,0,0,0,0,
0,0,0,0,0,0,0,0,0,0,0,0,0,0,0,0,
0,0,0,0,0,0,0,0,0,0,0,0,0,0,0,0,
0,0,0,0,0,0,0,0,0,0,0,0,0,0,0,0,
0,0,0,0,0,0,0,0,0,0,0,0,0,0,0,0,
0,0,0,0,0,0,0,0,0,0,0,0,0,0,0,0,
0,0,0,0,0,0,0,0,0,0,0,0,0,0,0,0,
0,0,0,0,0,0,0,0,0,0,0,0,0,0,0,0,
0,0,0,0,0,0,0,0,0,0,0,0,0,0,0,0,
0,0,0,0,0,0,0,0,0,0,0,0,0,0,0,0,
0,0,0,0,0,0,0,0,0,0,0,0,0,0,0,0,
0,0,0,0,0,0,0,0,0,0,0,0,0,0,0,0
</chunk>
   <chunk x="352" y="16" width="16" height="16">
0,0,0,0,0,0,0,0,0,0,0,0,0,0,0,0,
0,0,0,0,0,0,0,0,0,0,0,0,0,0,0,0,
0,0,0,0,0,0,0,0,0,0,0,0,0,0,0,0,
0,0,0,0,0,0,0,0,0,0,0,0,0,0,0,0,
0,0,0,0,0,0,0,0,0,0,0,0,0,0,0,0,
0,0,0,0,0,0,0,0,0,0,0,0,0,0,0,0,
0,0,0,0,0,0,0,0,0,0,0,0,0,0,0,0,
0,0,0,0,0,0,0,0,0,0,0,0,0,0,0,0,
0,0,0,0,0,0,0,0,0,0,0,0,0,0,0,0,
0,0,0,0,0,0,0,0,0,0,0,0,0,0,0,0,
0,0,0,0,0,0,0,0,0,0,0,0,0,0,0,0,
0,0,0,0,36,37,37,37,37,37,37,37,37,37,37,37,
0,0,0,0,44,45,45,45,45,45,45,45,45,45,45,45,
0,0,0,0,44,45,45,45,45,45,45,45,45,45,45,45,
0,0,0,0,44,45,45,45,45,45,45,45,45,45,45,45,
0,0,0,0,44,45,45,45,45,45,45,45,45,45,45,45
</chunk>
   <chunk x="368" y="16" width="16" height="16">
0,52,45,45,45,45,45,45,45,45,45,45,45,45,45,45,
0,44,45,45,45,45,45,45,45,45,45,45,45,45,45,45,
0,52,45,45,45,45,45,45,45,45,45,45,45,45,45,45,
0,44,45,45,45,45,45,45,45,45,45,45,45,45,45,45,
0,52,45,45,45,45,45,45,45,45,45,45,45,45,45,45,
0,44,45,45,45,45,45,45,45,45,45,45,45,45,45,45,
0,52,45,45,45,45,45,45,45,45,45,45,45,45,45,45,
0,44,45,45,45,45,45,45,45,45,45,45,45,45,45,45,
0,52,45,45,45,45,45,45,45,45,45,45,45,45,45,45,
0,44,45,45,45,45,45,45,45,45,45,45,45,45,45,45,
0,52,45,45,45,45,45,45,45,45,45,45,45,45,45,45,
37,77,45,45,45,45,45,45,45,45,45,45,45,45,45,45,
45,45,45,45,45,45,45,45,45,45,45,45,45,45,45,45,
45,45,45,45,45,45,45,45,45,45,45,45,45,45,45,45,
45,45,45,45,45,45,45,45,45,45,45,45,45,45,45,45,
45,45,45,45,45,45,45,45,45,45,45,45,45,45,45,45
</chunk>
   <chunk x="384" y="16" width="16" height="16">
45,45,45,45,45,45,45,45,45,45,45,45,45,45,45,45,
45,45,45,45,45,45,45,45,45,45,45,45,45,45,45,45,
45,45,45,45,45,45,45,45,45,45,45,45,45,45,45,45,
45,45,45,45,45,45,45,45,45,45,45,45,45,45,45,45,
45,45,45,45,45,45,45,45,45,45,45,45,45,45,45,45,
45,45,45,45,45,45,45,45,45,45,45,45,45,45,45,45,
45,45,45,45,45,45,45,45,45,45,45,45,45,45,45,45,
45,45,45,45,45,45,45,45,45,45,45,45,45,45,45,45,
45,45,45,45,45,45,45,45,45,45,45,45,45,45,45,45,
45,45,45,45,45,45,45,45,45,45,45,45,45,45,45,45,
45,45,45,45,45,45,45,45,45,45,45,45,45,45,45,45,
45,45,45,45,45,45,45,45,45,45,45,45,45,45,45,45,
45,45,45,45,45,45,45,45,45,45,45,45,45,45,45,45,
45,45,45,45,45,45,45,45,45,45,45,45,45,45,45,45,
45,45,45,45,45,45,45,45,45,45,45,45,45,45,45,45,
45,45,45,45,45,45,45,45,45,45,45,45,45,45,45,45
</chunk>
   <chunk x="400" y="16" width="16" height="16">
45,45,45,45,45,45,45,45,45,45,45,45,45,45,45,45,
45,45,45,45,45,45,45,45,45,45,45,45,45,45,45,45,
45,45,45,45,45,45,45,45,45,45,45,45,45,45,45,45,
45,45,45,45,45,45,45,45,45,45,45,45,45,45,45,45,
45,45,45,45,45,45,45,45,45,45,45,45,45,45,45,45,
45,45,45,45,45,45,45,45,45,45,45,45,45,45,45,45,
45,45,45,45,45,45,45,45,45,45,45,45,45,45,45,45,
45,45,45,45,45,45,45,45,45,45,45,45,45,45,45,45,
45,45,45,45,45,45,45,45,45,45,45,45,45,45,45,45,
45,45,45,45,45,45,45,45,45,45,45,45,45,45,45,45,
45,45,45,45,45,45,45,45,45,45,45,45,45,45,45,45,
45,45,45,45,45,45,45,45,45,45,45,45,45,45,45,45,
45,45,45,45,45,45,45,45,45,45,45,45,45,45,45,45,
45,45,45,45,45,45,45,45,45,45,45,45,45,45,45,45,
45,45,45,45,45,45,45,45,45,45,45,45,45,45,45,45,
45,45,45,45,45,45,45,45,45,45,45,45,45,45,45,45
</chunk>
   <chunk x="416" y="16" width="16" height="16">
45,45,45,45,45,45,45,45,45,45,45,45,45,45,45,45,
45,45,45,45,45,45,45,45,45,45,45,45,45,45,45,45,
45,45,45,45,45,45,45,45,45,45,45,45,45,45,45,45,
45,45,45,45,45,45,45,45,45,45,45,45,45,45,45,45,
45,45,45,45,45,45,45,45,45,45,45,45,45,45,45,45,
45,45,45,45,45,45,45,45,45,45,45,45,45,45,45,45,
45,45,45,45,45,45,45,45,45,45,45,45,45,45,45,45,
45,45,45,45,45,45,45,45,45,45,45,45,45,45,45,45,
45,45,45,117,117,117,117,117,117,117,117,117,117,117,117,117,
45,45,45,117,117,117,117,117,117,117,117,117,117,117,117,117,
45,45,45,117,117,117,117,117,117,117,117,117,117,117,117,117,
45,45,45,117,117,117,117,117,117,117,117,117,117,117,117,117,
45,45,45,117,117,117,117,117,117,117,117,117,117,117,117,117,
45,45,45,117,117,117,117,117,117,117,117,117,117,117,117,117,
45,45,45,117,117,117,117,117,117,117,117,117,117,117,117,117,
45,45,45,117,117,117,117,117,117,117,117,117,117,117,117,117
</chunk>
   <chunk x="432" y="16" width="16" height="16">
0,0,0,0,0,0,0,0,0,0,0,0,0,0,0,0,
0,0,0,0,0,0,0,0,0,0,0,0,0,0,0,0,
0,0,0,0,0,0,0,0,0,0,0,0,0,0,0,0,
0,0,0,0,0,0,0,0,0,0,0,0,0,0,0,0,
0,0,0,0,0,0,0,0,0,0,0,0,0,0,0,0,
0,0,0,0,0,0,0,0,0,0,0,0,0,0,0,0,
0,0,0,0,0,0,0,0,0,0,0,0,0,0,0,0,
0,0,0,0,0,0,0,0,0,0,0,0,0,0,0,0,
117,117,117,117,117,117,117,117,117,117,117,117,117,117,117,117,
117,117,117,117,117,117,117,117,117,117,117,117,117,117,117,117,
117,117,117,117,117,117,117,117,117,117,117,117,117,117,117,117,
117,117,117,117,117,117,117,117,117,117,117,117,117,117,117,117,
117,117,117,117,117,117,117,117,117,117,117,117,117,117,117,117,
117,117,117,117,117,117,117,117,117,117,117,117,117,117,117,117,
117,117,117,117,117,117,117,117,117,117,117,117,117,117,117,117,
117,117,117,117,117,117,117,117,117,117,117,117,117,117,117,117
</chunk>
   <chunk x="448" y="16" width="16" height="16">
0,0,0,0,0,0,0,0,0,0,0,0,0,0,0,0,
0,0,0,0,0,0,0,0,0,0,0,0,0,0,0,0,
0,0,0,0,0,0,0,0,0,0,0,0,0,0,0,0,
0,0,0,0,0,0,0,0,0,0,0,0,0,0,0,0,
0,0,0,0,0,0,0,0,0,0,0,0,0,0,0,0,
0,0,0,0,0,0,0,0,0,0,0,0,0,0,0,0,
0,0,0,0,0,0,0,0,0,0,0,0,0,0,0,0,
0,0,0,0,0,0,0,0,0,0,0,0,0,0,0,0,
117,117,117,117,117,117,117,117,117,117,117,117,117,117,117,117,
117,117,117,117,117,117,117,117,117,117,117,117,117,117,117,117,
117,117,117,117,117,117,117,117,117,117,117,117,117,117,117,117,
117,117,117,117,117,117,117,117,117,117,117,117,117,117,117,117,
117,117,117,117,117,117,117,117,117,117,117,117,117,117,117,117,
117,117,117,117,117,117,117,117,117,117,117,117,117,117,117,117,
117,117,117,117,117,117,117,117,117,117,117,117,117,117,117,117,
117,117,117,117,117,117,117,117,117,117,117,117,117,117,117,117
</chunk>
   <chunk x="464" y="16" width="16" height="16">
0,0,0,0,0,0,0,0,0,0,0,0,0,0,0,0,
0,0,0,0,0,0,0,0,0,0,0,0,0,0,0,0,
0,0,0,0,0,0,0,0,0,0,0,0,0,0,0,0,
0,0,0,0,0,0,0,0,0,0,0,0,0,0,0,0,
0,0,0,0,0,0,0,0,0,0,0,0,0,0,0,0,
0,0,0,0,0,0,0,0,0,0,0,0,0,0,0,0,
0,0,0,0,0,0,0,0,0,0,0,0,0,0,0,0,
0,0,0,0,0,0,0,0,0,0,0,0,0,0,0,0,
117,117,117,117,117,117,117,117,117,117,117,117,117,117,117,117,
117,117,117,117,117,117,117,117,117,117,117,117,117,117,117,117,
117,117,117,117,117,117,117,117,117,117,117,117,117,117,117,117,
117,117,117,117,117,117,117,117,117,117,117,117,117,117,117,117,
117,117,117,117,117,117,117,117,117,117,117,117,117,117,117,117,
117,117,117,117,117,117,117,117,117,117,117,117,117,117,117,117,
117,117,117,117,117,117,117,117,117,117,117,117,117,117,117,117,
117,117,117,117,117,117,117,117,117,117,117,117,117,117,117,117
</chunk>
   <chunk x="480" y="16" width="16" height="16">
0,0,0,0,0,0,0,0,0,0,0,0,0,0,0,0,
0,0,0,0,0,0,0,0,0,0,0,0,0,0,0,0,
0,0,0,0,0,0,0,0,0,0,0,0,0,0,0,0,
0,0,0,0,0,0,0,0,0,0,0,0,0,0,0,0,
0,0,0,0,0,0,0,0,0,0,0,0,0,0,0,0,
0,0,0,0,0,0,0,0,0,0,0,0,0,0,0,0,
0,0,0,0,0,0,0,0,0,0,0,0,0,0,0,0,
0,0,0,0,0,0,0,0,0,0,0,0,0,0,0,0,
117,117,117,117,117,117,117,117,117,117,117,117,117,117,117,117,
117,117,117,117,117,117,117,117,117,117,117,117,117,117,117,117,
117,117,117,117,117,117,117,117,117,117,117,117,117,117,117,117,
117,117,117,117,117,117,117,117,117,117,117,117,117,117,117,117,
117,117,117,117,117,117,117,117,117,117,117,117,117,117,117,117,
117,117,117,117,117,117,117,117,117,117,117,117,117,117,117,117,
117,117,117,117,117,117,117,117,117,117,117,117,117,117,117,117,
117,117,117,117,117,117,117,117,117,117,117,117,117,117,117,117
</chunk>
   <chunk x="496" y="16" width="16" height="16">
0,0,0,0,0,0,0,0,0,0,0,0,0,0,0,0,
0,0,0,0,0,0,0,0,0,0,0,0,0,0,0,0,
0,0,0,0,0,0,0,0,0,0,0,0,0,0,0,0,
0,0,0,0,0,0,0,0,0,0,0,0,0,0,0,0,
0,0,0,0,0,0,0,0,0,0,0,0,0,0,0,0,
0,0,0,0,0,0,0,0,0,0,0,0,0,0,0,0,
0,0,0,0,0,0,0,0,0,0,0,0,0,0,0,0,
0,0,0,0,0,0,0,0,0,0,0,0,0,0,0,0,
117,117,117,117,117,117,117,117,117,117,117,117,117,117,117,117,
117,117,117,117,117,117,117,117,117,117,117,117,117,117,117,117,
117,117,117,117,117,117,117,117,117,117,117,117,117,117,117,117,
117,117,117,117,117,117,117,117,117,117,117,117,117,117,117,117,
117,117,117,117,117,117,117,117,117,117,117,117,117,117,117,117,
117,117,117,117,117,117,117,117,117,117,117,117,117,117,117,117,
117,117,117,117,117,117,117,117,117,117,117,117,117,117,117,117,
117,117,117,117,117,117,117,117,117,117,117,117,117,117,117,117
</chunk>
   <chunk x="512" y="16" width="16" height="16">
0,0,0,0,0,0,0,0,0,0,0,0,0,0,0,0,
0,0,0,0,0,0,0,0,0,0,0,0,0,0,0,0,
0,0,0,0,0,0,0,0,0,0,0,0,0,0,0,0,
0,0,0,0,0,0,0,0,0,0,0,0,0,0,0,0,
0,0,0,0,0,0,0,0,0,0,0,0,0,0,0,0,
0,0,0,0,0,0,0,0,0,0,0,0,0,0,0,0,
0,0,0,0,0,0,0,0,0,0,0,0,0,0,0,0,
0,0,0,0,0,0,0,0,0,0,0,0,0,0,0,0,
117,117,117,117,117,117,117,117,117,117,117,117,117,117,117,117,
117,117,117,117,117,117,117,117,117,117,117,117,117,117,117,117,
117,117,117,117,117,117,117,117,117,117,117,117,117,117,117,117,
117,117,117,117,117,117,117,117,117,117,117,117,117,117,117,117,
117,117,117,117,117,117,117,117,117,117,117,117,117,117,117,117,
117,117,117,117,117,117,117,117,117,117,117,117,117,117,117,117,
117,117,117,117,117,117,117,117,117,117,117,117,117,117,117,117,
117,117,117,117,117,117,117,117,117,117,117,117,117,117,117,117
</chunk>
   <chunk x="528" y="16" width="16" height="16">
0,0,0,0,0,0,0,0,0,0,0,0,0,0,0,0,
0,0,0,0,0,0,0,0,0,0,0,0,0,0,0,0,
0,0,0,0,0,0,0,0,0,0,0,0,0,0,0,0,
0,0,0,0,0,0,0,0,0,0,0,0,0,0,0,0,
0,0,0,0,0,0,0,0,0,0,0,0,0,0,0,0,
0,0,0,0,0,0,0,0,0,0,0,0,0,0,0,0,
0,0,0,0,0,0,0,0,0,0,0,0,0,0,0,0,
0,0,0,0,0,0,0,0,0,0,0,0,0,0,0,0,
117,117,117,117,117,117,117,117,117,117,117,117,117,117,117,117,
117,117,117,117,117,117,117,117,117,117,117,117,117,117,117,117,
117,117,117,117,117,117,117,117,117,117,117,117,117,117,117,117,
117,117,117,117,117,117,117,117,117,117,117,117,117,117,117,117,
117,117,117,117,117,117,117,117,117,117,117,117,117,117,117,117,
117,117,117,117,117,117,117,117,117,117,117,117,117,117,117,117,
117,117,117,117,117,117,117,117,117,117,117,117,117,117,117,117,
117,117,117,117,117,117,117,117,117,117,117,117,117,117,117,117
</chunk>
   <chunk x="544" y="16" width="16" height="16">
0,0,0,0,0,0,0,0,0,0,0,0,0,0,0,0,
0,0,0,0,0,0,0,0,0,0,0,0,0,0,0,0,
0,0,0,0,0,0,0,0,0,0,0,0,0,0,0,0,
0,0,0,0,0,0,0,0,0,0,0,0,0,0,0,0,
0,0,0,0,0,0,0,0,0,0,0,0,0,0,0,0,
0,0,0,0,0,0,0,0,0,0,0,0,0,0,0,0,
0,0,0,0,0,0,0,0,0,0,0,0,0,0,0,0,
0,0,0,0,0,0,0,0,0,0,0,0,0,0,0,0,
117,117,117,117,117,117,117,117,117,117,117,117,117,117,117,117,
117,117,117,117,117,117,117,117,117,117,117,117,117,117,117,117,
117,117,117,117,117,117,117,117,117,117,117,117,117,117,117,117,
117,117,117,117,117,117,117,117,117,117,117,117,117,117,117,117,
117,117,117,117,117,117,117,117,117,117,117,117,117,117,117,117,
117,117,117,117,117,117,117,117,117,117,117,117,117,117,117,117,
117,117,117,117,117,117,117,117,117,117,117,117,117,117,117,117,
117,117,117,117,117,117,117,117,117,117,117,117,117,117,117,117
</chunk>
   <chunk x="560" y="16" width="16" height="16">
0,0,0,0,0,0,0,0,0,0,0,0,0,0,0,0,
0,0,0,0,0,0,0,0,0,0,0,0,0,0,0,0,
0,0,0,0,0,0,0,0,0,0,0,0,0,0,0,0,
0,0,0,0,0,0,0,0,0,0,0,0,0,0,0,0,
0,0,0,0,0,0,0,0,0,0,0,0,0,0,0,0,
0,0,0,0,0,0,0,0,0,0,0,0,0,0,0,0,
0,0,0,0,0,0,0,0,0,0,0,0,0,0,0,0,
0,0,0,0,0,0,0,0,0,0,0,0,0,0,0,0,
118,118,118,118,118,118,118,118,118,118,118,118,118,118,118,118,
118,118,118,118,118,118,118,118,118,118,118,118,118,118,118,118,
118,118,118,118,118,118,118,118,118,118,118,118,118,118,118,118,
118,118,118,118,118,118,118,118,118,118,118,118,118,118,118,118,
118,118,118,118,118,118,118,118,118,118,118,118,118,118,118,118,
118,118,118,118,118,118,118,118,118,118,118,118,118,118,118,118,
118,118,118,118,118,118,118,118,118,118,118,118,118,118,118,118,
118,118,118,118,118,118,118,118,118,118,118,118,118,118,118,118
</chunk>
   <chunk x="576" y="16" width="16" height="16">
0,0,0,0,0,0,0,0,0,0,0,0,0,0,0,0,
0,0,0,0,0,0,0,0,0,0,0,0,0,0,0,0,
0,0,0,0,0,0,0,0,0,0,0,0,0,0,0,0,
0,0,0,0,0,0,0,0,0,0,0,0,0,0,0,0,
0,0,0,0,0,0,0,0,0,0,0,0,0,0,0,0,
0,0,0,0,0,0,0,0,0,0,0,0,0,0,0,0,
0,0,0,0,0,0,0,0,0,0,0,0,0,0,0,0,
0,0,0,0,0,0,0,0,0,0,0,0,0,0,0,0,
118,118,118,118,118,118,118,118,118,118,118,118,118,118,118,118,
118,118,118,118,118,118,118,118,118,118,118,118,118,118,118,118,
118,118,118,118,118,118,118,118,118,118,118,118,118,118,118,118,
118,118,118,118,118,118,118,118,118,118,118,118,118,118,118,118,
118,118,118,118,118,118,118,118,118,118,118,118,118,118,118,118,
118,118,118,118,118,118,118,118,118,118,118,118,118,118,118,118,
118,118,118,118,118,118,118,118,118,118,118,118,118,118,118,118,
118,118,118,118,118,118,118,118,118,118,118,118,118,118,118,118
</chunk>
   <chunk x="592" y="16" width="16" height="16">
0,0,0,0,0,0,0,0,0,0,0,0,0,0,0,0,
0,0,0,0,0,0,0,0,0,0,0,0,0,0,0,0,
0,0,0,0,0,0,0,0,0,0,0,0,0,0,0,0,
0,0,0,0,0,0,0,0,0,0,0,0,0,0,0,0,
0,0,0,0,0,0,0,0,0,0,0,0,0,0,0,0,
0,0,0,0,0,0,0,0,0,0,0,0,0,0,0,0,
0,0,0,0,0,0,0,0,0,0,0,0,0,0,0,0,
0,0,0,0,0,0,0,0,0,0,0,0,0,0,0,0,
118,118,118,118,118,118,118,109,109,109,109,109,109,109,109,109,
118,118,118,118,118,118,118,118,118,118,118,118,118,118,118,118,
118,118,118,118,118,118,118,118,118,118,118,118,118,118,118,118,
118,118,118,118,118,118,118,118,118,118,118,118,118,118,118,118,
118,118,118,118,118,118,118,118,118,118,118,118,118,118,118,118,
118,118,118,118,118,118,118,118,118,118,118,118,118,118,118,118,
118,118,118,118,118,118,118,118,118,118,118,118,118,118,118,118,
118,118,118,118,118,118,118,118,118,118,118,118,118,118,118,118
</chunk>
   <chunk x="608" y="16" width="16" height="16">
0,0,0,0,0,0,0,0,0,0,0,0,0,0,0,0,
0,0,0,0,0,0,0,0,0,0,0,0,0,0,0,0,
0,0,0,0,0,0,0,0,0,0,0,0,0,0,0,0,
0,0,0,0,0,0,0,0,0,0,0,0,0,0,0,0,
0,0,0,0,0,0,0,0,0,0,0,0,0,0,0,0,
0,0,0,0,0,0,0,0,0,0,0,0,0,0,0,0,
0,0,0,0,0,0,0,0,0,0,0,0,0,0,0,0,
0,0,0,0,0,0,0,0,0,0,0,0,0,0,0,0,
109,109,109,109,109,109,109,109,109,109,109,109,109,109,109,109,
118,118,118,118,118,118,118,118,118,118,118,118,118,118,118,118,
118,118,118,118,118,118,118,118,118,118,118,118,118,118,118,118,
118,118,118,118,118,118,118,118,118,118,118,118,118,118,118,118,
118,118,118,118,118,118,118,118,118,118,118,118,118,118,118,118,
118,118,118,118,118,118,118,118,118,118,118,118,118,118,118,118,
118,118,118,118,118,118,118,118,118,118,118,118,118,118,118,118,
118,118,118,118,118,118,118,118,118,118,118,118,118,118,118,118
</chunk>
   <chunk x="624" y="16" width="16" height="16">
0,0,0,0,0,0,0,0,0,0,0,0,0,0,0,0,
0,0,0,0,0,0,0,0,0,0,0,0,0,0,0,0,
0,0,0,0,0,0,0,0,0,0,0,0,0,0,0,0,
0,0,0,0,0,0,0,0,0,0,0,0,0,0,0,0,
0,0,0,0,0,0,0,0,0,0,0,0,0,0,0,0,
0,0,0,0,0,0,0,0,0,0,0,0,0,0,0,0,
0,0,0,0,0,0,0,0,0,0,0,0,0,0,0,0,
0,0,0,0,0,0,0,0,0,0,0,0,0,0,0,0,
109,109,109,109,109,109,109,109,109,109,109,109,109,109,109,109,
118,118,118,118,118,118,118,118,118,118,118,118,118,118,118,118,
118,118,118,118,118,118,118,118,118,118,118,118,118,118,118,118,
118,118,118,118,118,118,118,118,118,118,118,118,118,118,118,118,
118,118,118,118,118,118,118,118,118,118,118,118,118,118,118,118,
118,118,118,118,118,118,118,118,118,118,118,118,118,118,118,118,
118,118,118,118,118,118,118,118,118,118,118,118,118,118,118,118,
118,118,118,118,118,118,118,118,118,118,118,118,118,118,118,118
</chunk>
   <chunk x="640" y="16" width="16" height="16">
0,0,0,0,0,0,0,0,0,0,0,0,0,0,0,0,
0,0,0,0,0,0,0,0,0,0,0,0,0,0,0,0,
0,0,0,0,0,0,0,0,0,0,0,0,0,0,0,0,
0,0,0,0,0,0,0,0,0,0,0,0,0,0,0,0,
0,0,0,0,0,0,0,0,0,0,0,0,0,0,0,0,
0,0,0,0,0,0,0,0,0,0,0,0,0,0,0,0,
0,0,0,0,0,0,0,0,0,0,0,0,0,0,0,0,
0,0,0,0,0,0,0,0,0,0,0,0,0,0,0,0,
109,109,109,109,109,109,109,109,109,109,109,109,109,109,109,109,
118,118,109,109,109,109,109,109,109,109,109,109,109,109,109,109,
118,118,109,109,109,109,109,109,109,109,109,109,109,109,109,109,
118,118,109,109,109,109,109,109,109,109,109,109,109,109,109,109,
118,118,109,109,109,109,109,109,109,109,109,109,109,109,109,109,
118,118,109,109,109,109,109,109,109,109,109,109,109,109,109,109,
118,118,109,109,109,109,109,109,109,109,109,109,109,109,109,109,
118,118,109,109,109,125,125,125,125,125,125,125,125,125,125,125
</chunk>
   <chunk x="656" y="16" width="16" height="16">
0,0,0,0,0,0,0,0,0,0,0,0,0,0,0,0,
0,0,0,0,0,0,0,0,0,0,0,0,0,0,0,0,
0,0,0,0,0,0,0,0,0,0,0,0,0,0,0,0,
0,0,0,0,0,0,0,0,0,0,0,0,0,0,0,0,
0,0,0,0,0,0,0,0,0,0,0,0,0,0,0,0,
0,0,0,0,0,0,0,0,0,0,0,0,0,0,0,0,
0,0,0,0,0,0,0,0,0,0,0,0,0,0,0,0,
0,0,0,0,0,0,0,0,0,0,0,0,0,0,0,0,
109,109,109,109,109,109,109,109,109,109,109,109,109,109,109,109,
109,109,109,109,109,109,109,109,109,109,109,109,109,109,109,109,
109,109,109,109,109,109,109,109,109,109,109,109,109,109,109,109,
109,109,109,109,109,109,109,109,109,109,109,109,109,109,109,109,
109,109,109,109,109,109,109,109,109,109,109,109,109,109,109,109,
109,109,109,109,109,109,109,109,109,109,109,109,109,109,109,109,
109,109,109,109,109,109,109,109,109,109,109,109,109,109,109,109,
125,125,125,125,125,125,125,125,125,125,125,125,125,125,125,125
</chunk>
   <chunk x="672" y="16" width="16" height="16">
0,0,0,0,0,0,0,0,0,0,0,0,0,0,0,0,
0,0,0,0,0,0,0,0,0,0,0,0,0,0,0,0,
0,0,0,0,0,0,0,0,0,0,0,0,0,0,0,0,
0,0,0,0,0,0,0,0,0,0,0,0,0,0,0,0,
0,0,0,0,0,0,0,0,0,0,0,0,0,0,0,0,
0,0,0,0,0,0,0,0,0,0,0,0,0,0,0,0,
0,0,0,0,0,0,0,0,0,0,0,0,0,0,0,0,
0,0,0,0,0,0,0,0,0,0,0,0,0,0,0,0,
109,109,109,109,109,109,109,109,109,109,109,109,109,109,109,109,
109,109,109,109,109,109,109,109,109,109,109,109,109,109,109,109,
109,109,109,109,109,109,109,109,109,109,109,109,109,109,109,109,
109,109,109,109,109,109,109,109,109,109,109,109,109,109,109,109,
109,109,109,109,109,109,109,109,109,109,109,109,109,109,109,109,
109,109,109,109,109,109,109,109,109,109,109,109,109,109,109,109,
109,109,109,109,109,109,109,109,109,109,109,109,109,109,109,109,
125,125,125,125,125,125,125,125,125,125,109,109,109,109,109,109
</chunk>
   <chunk x="688" y="16" width="16" height="16">
0,0,0,0,0,0,0,0,0,0,0,0,0,0,0,0,
0,0,0,0,0,0,0,0,0,0,0,0,0,0,0,0,
0,0,0,0,0,0,0,0,0,0,0,0,0,0,0,0,
0,0,0,0,0,0,0,0,0,0,0,0,0,0,0,0,
0,0,0,0,0,0,0,0,0,0,0,0,0,0,0,0,
0,0,0,0,0,0,0,0,0,0,0,0,0,0,0,0,
0,0,0,0,0,0,0,0,0,0,0,0,0,0,0,0,
0,0,0,0,0,0,0,0,0,0,0,0,0,0,0,0,
109,109,109,109,109,109,109,109,109,109,109,0,0,0,0,0,
109,109,109,109,109,109,109,109,109,109,109,0,0,0,0,0,
109,109,109,109,109,109,109,109,109,109,109,0,0,0,0,0,
109,109,109,109,109,109,109,109,109,109,109,0,0,0,0,0,
109,109,109,109,109,109,109,109,109,109,109,0,0,0,0,0,
109,109,109,109,109,109,109,109,109,109,109,0,0,0,0,0,
109,109,109,109,109,109,109,109,109,109,109,0,0,0,0,0,
109,109,109,109,109,109,109,109,109,109,109,0,0,0,0,0
</chunk>
   <chunk x="160" y="32" width="16" height="16">
0,0,0,0,0,0,0,0,0,0,45,45,45,45,45,45,
0,0,0,0,0,0,0,0,0,0,45,45,45,45,45,45,
0,0,0,0,0,0,0,0,0,0,45,45,45,45,45,45,
0,0,0,0,0,0,0,0,0,0,45,45,45,45,45,45,
0,0,0,0,0,0,0,0,0,0,45,45,45,45,45,45,
0,0,0,0,0,0,0,0,0,0,45,45,45,45,45,45,
0,0,0,0,0,0,0,0,0,0,45,45,45,45,45,45,
0,0,0,0,0,0,0,0,0,0,45,45,45,45,45,86,
0,0,0,0,0,0,0,0,0,0,45,45,45,45,45,47,
0,0,0,0,0,0,0,0,0,0,45,45,45,45,45,55,
0,0,0,0,0,0,0,0,0,0,45,45,45,45,45,47,
0,0,0,0,0,0,0,0,0,0,45,45,45,45,45,55,
0,0,0,0,0,0,0,0,0,0,45,45,45,45,45,47,
0,0,0,0,0,0,0,0,0,0,45,45,45,45,45,55,
0,0,0,0,0,0,0,0,0,0,61,61,61,61,61,63,
0,0,0,0,0,0,0,0,0,0,0,0,0,0,0,0
</chunk>
   <chunk x="176" y="32" width="16" height="16">
45,45,45,45,45,45,45,47,0,0,0,0,0,0,0,0,
45,45,45,45,45,45,45,55,0,0,0,0,0,0,0,0,
45,45,45,45,45,45,86,63,0,0,0,0,0,0,0,0,
45,45,45,45,45,45,47,0,0,0,0,0,0,0,0,0,
45,45,45,45,45,45,55,0,0,0,0,0,0,0,0,0,
45,86,61,61,61,61,63,0,0,0,0,0,0,0,0,0,
86,87,0,0,0,0,0,0,0,0,0,0,0,0,0,0,
94,95,0,0,0,0,0,0,0,0,0,0,0,0,0,0,
0,0,0,0,0,0,0,0,0,0,0,0,0,0,0,0,
0,0,0,0,0,0,0,0,0,0,0,0,0,0,0,0,
0,0,0,0,0,0,0,0,0,0,0,36,37,37,37,37,
0,0,0,0,0,0,0,0,0,0,0,84,85,45,45,45,
0,0,0,0,0,0,0,0,0,0,0,92,93,61,61,61,
0,0,0,0,0,0,0,0,0,0,0,0,0,0,0,0,
0,0,0,0,0,0,0,0,0,0,0,0,0,0,0,0,
0,0,0,0,0,0,0,0,0,0,0,0,0,0,0,0
</chunk>
   <chunk x="192" y="32" width="16" height="16">
0,0,0,44,45,45,45,45,45,45,45,45,45,45,45,45,
0,0,0,52,45,45,45,45,45,45,45,45,45,45,45,45,
0,0,0,44,45,45,45,45,45,45,45,45,45,45,45,45,
0,0,0,52,45,45,45,45,45,45,45,45,45,45,45,45,
0,0,0,44,45,45,45,45,45,45,45,45,45,45,45,45,
0,0,0,52,45,45,45,45,45,45,45,45,45,45,45,45,
0,0,0,44,45,45,45,45,45,45,45,45,45,45,45,45,
0,0,0,52,45,45,45,45,45,45,45,45,45,45,45,45,
0,0,0,44,45,45,45,45,45,45,45,45,45,45,45,45,
0,0,0,52,45,45,45,45,45,45,45,45,45,45,45,45,
37,37,37,77,45,45,45,45,45,45,45,45,45,45,45,45,
45,45,45,45,45,45,45,45,45,45,45,45,45,45,45,45,
61,61,61,61,61,61,61,61,61,61,61,61,61,61,61,61,
0,0,0,0,0,0,0,0,0,0,0,0,0,0,0,0,
0,0,0,0,0,0,0,0,0,0,0,0,0,0,0,0,
0,0,0,0,0,0,0,0,0,0,0,0,0,0,0,0
</chunk>
   <chunk x="208" y="32" width="16" height="16">
45,45,45,45,45,45,45,45,45,45,45,45,45,45,45,45,
45,45,45,45,45,45,45,45,45,45,45,45,45,45,45,45,
45,45,45,45,45,45,45,45,86,61,61,61,61,61,61,61,
45,45,45,45,45,45,45,86,87,0,0,0,0,0,0,0,
45,45,45,45,45,45,86,87,95,0,0,0,0,0,0,0,
45,45,45,45,45,86,94,95,0,0,0,0,0,0,0,0,
45,45,45,45,45,47,0,0,0,0,0,0,0,0,0,0,
45,45,45,45,45,55,0,0,0,0,0,0,0,0,0,0,
45,45,45,45,45,47,0,0,0,0,0,0,0,0,0,0,
45,45,45,45,45,55,0,0,0,0,0,0,0,0,0,0,
45,45,45,45,86,87,0,0,0,0,0,0,0,0,0,0,
45,45,45,86,87,95,0,0,0,0,0,0,0,0,0,0,
61,61,61,94,95,0,0,0,0,0,0,0,0,0,0,0,
0,0,0,0,0,0,0,0,0,0,0,0,0,0,0,0,
0,0,0,0,0,0,0,0,0,0,0,0,0,0,0,0,
0,0,0,0,0,0,0,0,0,0,0,0,0,0,0,0
</chunk>
   <chunk x="224" y="32" width="16" height="16">
45,45,45,45,45,45,45,45,45,45,45,45,45,45,45,45,
45,45,45,45,45,45,45,45,45,45,45,45,45,45,45,86,
61,61,61,61,61,61,61,61,61,61,61,61,61,61,61,94,
0,0,0,0,0,0,0,0,0,0,0,0,0,0,0,0,
0,0,0,0,0,0,0,0,0,0,0,0,0,0,0,0,
0,0,0,0,0,0,0,0,0,0,0,0,0,0,0,0,
0,0,0,0,0,0,0,0,0,0,0,0,0,0,0,0,
0,0,0,0,0,0,0,0,0,0,0,0,0,0,0,0,
0,0,0,0,0,0,0,0,0,0,0,0,0,0,0,0,
0,0,0,0,0,0,0,0,0,0,0,0,0,0,0,0,
0,0,0,0,0,0,0,0,0,0,0,0,0,0,0,0,
0,0,0,0,0,0,0,0,0,0,0,0,0,0,0,0,
0,0,0,0,0,0,0,0,0,0,0,0,0,0,0,0,
0,0,0,0,0,0,0,0,0,0,0,0,0,0,0,0,
0,0,0,0,0,0,0,0,0,0,0,0,0,0,0,0,
0,0,0,0,0,0,0,0,0,0,0,0,0,0,0,0
</chunk>
   <chunk x="240" y="32" width="16" height="16">
86,62,62,62,62,94,95,0,0,0,0,0,0,0,0,0,
87,0,0,0,0,0,0,0,0,0,0,0,0,0,0,0,
95,0,0,0,0,0,0,0,0,0,0,0,0,0,0,0,
0,0,0,0,0,0,0,0,0,0,0,0,0,0,0,0,
0,0,0,0,0,0,0,0,0,0,0,0,0,0,0,0,
0,0,0,0,0,0,0,0,0,0,0,0,0,0,0,0,
0,0,0,0,0,0,0,0,0,0,0,0,0,0,0,0,
0,0,0,0,0,0,0,0,0,0,0,0,0,0,0,0,
0,0,0,0,0,0,0,0,0,0,0,0,0,0,0,0,
0,0,0,0,0,0,0,0,0,0,0,0,0,0,0,0,
0,0,0,0,0,0,0,0,0,0,0,0,0,0,0,0,
0,0,0,0,0,0,0,0,0,0,0,0,0,0,0,0,
0,0,0,0,0,0,0,0,0,0,0,0,0,0,0,0,
0,0,0,0,0,0,0,0,0,0,0,0,0,0,0,0,
0,0,0,0,0,0,0,0,0,0,0,0,0,0,0,0,
0,0,0,0,0,0,0,0,0,0,0,0,0,0,0,0
</chunk>
   <chunk x="272" y="32" width="16" height="16">
0,0,0,0,0,0,0,0,0,0,0,0,0,0,0,0,
0,0,0,0,0,0,0,0,0,0,0,0,0,0,0,0,
0,0,0,0,0,0,0,0,0,0,0,0,0,0,0,0,
0,0,0,0,0,0,0,0,36,37,37,37,37,37,37,37,
0,0,0,0,0,0,0,0,60,61,85,45,45,45,45,45,
0,0,0,0,0,0,0,0,0,92,93,85,45,45,45,45,
0,0,0,0,0,0,0,0,0,0,0,44,45,45,45,45,
0,0,0,0,0,0,0,0,0,0,0,52,45,45,45,45,
0,0,0,0,0,0,0,0,0,0,0,44,45,45,45,45,
0,0,0,0,0,0,0,0,0,0,0,52,45,45,45,45,
0,0,0,0,0,0,0,0,0,0,0,44,45,45,45,45,
0,0,0,0,0,0,0,0,0,0,0,52,45,45,45,45,
0,0,0,0,0,0,0,0,0,0,0,44,45,45,45,45,
0,0,0,0,0,0,0,0,0,0,0,52,45,45,45,45,
0,0,0,0,0,0,0,0,0,0,0,44,45,45,45,45,
0,0,0,0,0,0,0,0,0,0,0,52,45,45,45,45
</chunk>
   <chunk x="288" y="32" width="16" height="16">
0,0,0,0,0,0,0,0,0,0,0,0,0,0,0,0,
0,0,0,0,0,0,0,0,0,0,0,0,0,0,0,0,
0,0,0,0,0,0,0,0,0,0,0,0,0,0,0,0,
37,37,37,37,37,37,39,0,0,0,0,0,0,0,0,0,
45,45,45,45,45,45,47,0,0,0,0,0,0,0,0,0,
45,45,45,45,45,45,55,0,0,0,0,0,0,0,0,0,
45,45,45,45,45,45,47,0,0,0,0,0,0,0,0,0,
45,45,45,45,45,45,55,0,0,0,0,0,0,0,0,0,
45,45,45,45,45,45,47,0,0,0,0,0,0,0,0,0,
45,45,45,45,45,45,55,0,0,0,0,0,0,0,0,0,
45,45,45,45,45,45,47,0,0,0,0,0,0,0,0,0,
45,45,45,45,45,45,55,0,0,0,0,0,0,0,0,0,
45,45,45,45,45,45,47,0,0,0,0,0,0,0,0,0,
45,45,45,45,45,45,55,0,0,0,0,0,0,0,0,0,
45,45,45,45,45,45,47,0,0,0,0,0,0,0,0,0,
45,45,45,45,45,45,55,0,0,0,0,0,0,0,0,0
</chunk>
   <chunk x="304" y="32" width="16" height="16">
0,0,0,0,0,0,0,0,0,0,0,0,0,0,44,53,
0,0,0,0,0,0,0,0,0,0,0,0,0,0,52,53,
0,0,0,0,0,0,0,0,0,0,0,0,0,0,44,53,
0,0,0,0,0,0,0,0,0,0,0,0,0,0,52,53,
0,0,0,0,0,0,0,0,0,0,0,0,0,0,44,53,
0,0,0,0,0,0,0,0,0,0,0,0,0,0,52,53,
0,0,0,0,0,0,0,0,0,0,0,0,0,0,44,53,
0,0,0,0,0,0,0,0,0,0,0,0,0,0,52,53,
0,0,0,0,0,0,0,0,0,0,0,0,0,0,44,53,
0,0,0,0,0,0,0,0,0,0,0,0,0,0,52,53,
0,0,0,0,0,0,0,0,0,0,0,0,0,0,44,53,
0,0,0,0,0,0,0,0,0,0,0,0,0,0,52,53,
0,0,0,0,0,0,0,0,0,0,0,0,0,0,44,53,
0,0,0,0,0,0,0,0,0,0,0,0,0,0,52,53,
0,0,0,0,0,0,0,0,0,0,0,0,0,0,44,53,
0,0,0,0,0,0,0,0,0,0,0,0,0,0,52,53
</chunk>
   <chunk x="320" y="32" width="16" height="16">
53,86,61,61,61,61,61,61,61,61,61,63,0,0,0,0,
53,47,0,0,0,0,0,0,0,0,0,0,0,0,0,0,
53,55,0,0,0,0,0,0,0,0,0,0,0,0,0,0,
53,47,0,0,0,0,0,0,0,0,0,0,0,0,0,0,
53,55,0,0,0,0,0,0,0,0,0,0,0,0,0,0,
53,47,0,0,0,0,0,0,0,0,0,0,0,0,0,0,
53,55,0,0,0,0,0,0,0,0,0,0,0,0,0,0,
53,47,0,0,0,0,0,0,0,0,0,0,0,0,0,0,
53,78,38,38,38,38,38,38,38,38,38,39,0,0,0,0,
53,53,53,53,53,53,53,53,53,53,53,47,0,0,0,0,
53,53,53,53,53,53,53,53,53,53,53,55,0,0,0,0,
53,53,53,53,53,53,53,53,53,53,53,47,0,0,0,0,
53,53,53,53,53,53,53,53,53,53,53,55,0,0,0,0,
53,53,53,53,53,53,53,53,53,53,53,47,0,0,0,0,
53,53,53,53,53,53,53,53,53,53,53,55,0,0,0,0,
53,53,53,53,53,53,53,53,53,53,53,47,0,0,0,0
</chunk>
   <chunk x="352" y="32" width="16" height="16">
0,0,0,0,44,45,45,45,45,45,45,45,45,45,45,45,
0,0,0,0,52,45,45,45,45,45,45,45,45,45,45,45,
0,0,0,0,84,85,45,45,45,45,45,45,45,45,45,45,
0,0,0,0,92,93,85,45,45,45,45,45,45,45,45,45,
0,0,0,0,0,0,52,45,45,45,45,45,45,45,45,45,
0,0,0,0,0,0,84,85,45,45,45,45,45,45,45,45,
0,0,0,0,0,0,92,93,61,61,61,61,61,61,61,44,
0,0,0,0,0,0,0,0,0,0,0,0,0,0,0,44,
0,0,0,0,0,0,0,0,0,0,0,0,0,0,0,44,
0,0,0,0,0,0,0,0,0,0,0,0,0,0,0,44,
0,0,0,0,0,0,0,0,0,0,0,0,0,0,0,0,
0,0,0,0,0,0,0,0,0,0,0,0,0,0,0,0,
0,0,0,0,0,0,0,0,0,0,0,0,0,0,0,0,
0,0,0,0,0,0,0,0,0,0,0,0,0,0,0,0,
0,0,0,0,0,0,0,0,0,0,0,0,0,0,0,0,
0,0,0,0,0,0,0,0,0,0,0,0,0,0,0,0
</chunk>
   <chunk x="368" y="32" width="16" height="16">
45,45,45,45,45,45,45,45,45,45,45,45,45,45,45,45,
45,45,45,45,45,45,45,45,45,45,45,45,45,45,45,45,
45,45,45,45,45,45,45,45,45,45,45,45,45,45,45,45,
45,45,45,45,45,45,45,45,45,45,45,45,45,45,45,45,
173,173,173,173,173,173,173,173,173,173,173,173,173,173,173,173,
173,173,173,173,173,173,173,173,173,173,173,173,173,173,173,173,
173,173,173,173,173,173,173,173,173,173,173,173,173,173,173,173,
53,53,53,53,53,53,53,53,53,53,53,61,61,61,61,61,
53,53,53,53,53,86,62,62,62,62,62,63,0,0,0,0,
62,62,62,62,62,63,0,0,0,0,0,0,0,0,0,0,
0,0,0,0,0,0,0,0,0,0,0,0,0,0,0,0,
0,0,0,0,0,0,0,0,0,0,0,0,0,0,0,0,
0,0,0,0,0,0,0,0,0,0,0,0,0,0,0,0,
0,0,0,0,0,0,0,0,0,0,0,0,0,0,0,0,
0,0,0,0,0,0,0,0,0,0,0,0,0,0,0,0,
0,0,0,0,0,0,0,0,0,0,0,0,0,0,0,0
</chunk>
   <chunk x="384" y="32" width="16" height="16">
45,45,45,45,45,45,45,45,45,45,45,45,45,45,45,45,
45,45,45,45,45,45,45,45,45,45,45,45,45,45,45,45,
45,45,45,45,45,45,45,45,45,45,45,45,45,45,45,45,
45,45,45,45,45,45,45,45,45,45,45,45,45,45,45,45,
173,173,173,173,173,173,173,173,173,173,173,173,173,173,173,173,
173,173,173,173,173,173,173,173,173,173,173,173,173,173,173,173,
173,173,173,173,173,173,173,173,173,173,173,173,173,173,173,173,
61,61,61,61,61,61,61,61,61,61,61,61,61,61,61,61,
0,0,0,0,0,0,0,0,0,0,0,0,0,0,0,0,
0,0,0,0,0,0,0,0,0,0,0,0,0,0,0,0,
0,0,0,0,0,0,0,0,0,0,0,0,0,0,0,0,
0,0,0,0,0,0,0,0,0,0,0,0,0,0,0,0,
0,0,0,0,0,0,0,0,0,0,0,0,0,0,0,0,
0,0,0,0,0,0,0,0,0,0,0,0,0,0,0,0,
0,0,0,0,0,0,0,0,0,0,0,0,0,0,0,0,
0,0,0,0,0,0,0,0,0,0,0,0,0,0,0,0
</chunk>
   <chunk x="400" y="32" width="16" height="16">
45,45,45,45,45,45,45,45,45,45,45,45,45,45,45,45,
45,45,45,45,45,45,45,45,45,45,45,45,45,45,45,45,
45,45,45,45,45,45,45,45,45,45,45,45,45,45,45,45,
45,45,45,45,45,45,45,45,45,45,45,45,45,45,45,45,
173,173,173,173,173,173,173,173,173,173,173,173,173,173,173,173,
173,173,173,173,173,173,173,173,173,173,173,173,173,173,173,173,
173,173,173,173,173,173,173,173,173,173,173,173,173,45,173,173,
61,61,61,61,61,61,61,61,61,61,61,61,61,45,45,45,
0,0,0,0,0,0,0,0,0,0,0,0,0,60,45,45,
0,0,0,0,0,0,0,0,0,0,0,0,0,0,44,45,
0,0,0,0,0,0,0,0,0,0,0,0,0,0,52,45,
0,0,0,0,0,0,0,0,0,0,0,0,0,0,44,45,
0,0,0,0,0,0,0,0,0,0,0,0,0,0,52,45,
0,0,0,0,0,0,0,0,0,0,0,0,0,0,44,45,
0,0,0,0,0,0,0,0,0,0,0,0,0,0,52,45,
0,0,0,0,0,0,0,0,0,0,0,0,0,0,148,125
</chunk>
   <chunk x="416" y="32" width="16" height="16">
45,45,45,117,117,117,117,117,117,117,117,117,117,117,117,117,
45,45,45,117,117,117,117,117,117,117,117,117,117,117,117,117,
45,45,45,117,117,117,117,117,117,117,117,117,117,117,117,117,
45,45,45,117,117,117,117,117,117,117,117,117,117,117,117,117,
173,45,45,117,117,117,117,117,117,117,117,117,117,117,117,117,
173,45,45,117,117,117,117,117,117,117,117,117,117,117,117,117,
173,45,45,117,117,117,117,117,117,117,117,117,117,117,117,117,
45,45,45,117,117,117,117,117,117,117,117,117,117,117,117,117,
45,45,45,117,117,117,117,117,117,117,117,117,117,117,117,117,
45,45,45,117,117,117,117,117,117,117,117,117,117,117,117,117,
45,45,45,117,117,117,117,117,117,117,117,117,117,117,117,117,
45,45,45,117,117,117,117,117,117,117,117,117,117,117,117,117,
45,45,45,117,117,117,117,117,117,117,117,117,117,117,117,117,
45,45,45,117,117,117,117,117,117,117,117,117,117,117,117,117,
45,45,45,117,117,117,117,117,117,117,117,117,117,117,117,117,
125,125,125,125,125,125,125,125,125,125,125,125,125,125,125,125
</chunk>
   <chunk x="432" y="32" width="16" height="16">
117,117,117,117,117,117,117,117,117,117,117,117,117,117,117,117,
117,117,117,117,117,117,117,117,117,117,117,117,117,117,117,117,
117,117,117,117,117,117,117,117,117,117,117,117,117,117,117,117,
117,117,117,117,117,117,117,117,117,117,117,117,117,117,117,117,
117,117,117,117,117,117,117,117,117,117,117,117,117,117,117,117,
117,117,117,117,117,117,117,117,117,117,117,117,117,117,117,117,
117,117,117,117,117,117,117,117,117,117,117,117,117,117,117,117,
117,117,117,117,117,117,117,117,117,117,117,117,117,117,117,117,
117,117,117,117,117,117,117,117,117,117,117,117,117,117,117,117,
117,117,117,117,117,117,117,117,117,117,117,117,117,117,117,117,
117,117,117,117,117,117,117,117,117,117,117,117,117,117,117,117,
117,117,117,117,117,117,117,117,117,117,117,117,117,117,117,117,
117,117,117,117,117,117,117,117,117,117,117,117,117,117,117,117,
117,117,117,117,117,117,117,117,117,117,117,117,117,117,117,117,
117,117,117,117,117,117,117,117,117,117,117,117,117,117,117,117,
125,125,125,125,125,125,125,125,125,125,125,125,125,125,125,125
</chunk>
   <chunk x="448" y="32" width="16" height="16">
117,117,117,117,117,117,117,117,117,117,117,117,117,117,117,117,
117,117,117,117,117,117,117,117,117,117,117,117,117,117,117,117,
117,117,117,117,117,117,117,117,117,117,117,117,117,117,117,117,
117,117,117,117,117,117,117,117,117,117,117,117,117,117,117,117,
117,117,117,117,117,117,117,117,117,117,117,117,117,117,117,117,
117,117,117,117,117,117,117,117,117,117,117,117,117,117,117,117,
117,117,117,117,117,117,117,117,117,117,117,117,117,117,117,117,
117,117,117,117,117,117,117,117,117,117,117,117,117,117,117,117,
117,117,117,117,117,117,117,117,117,117,117,117,117,117,117,117,
117,117,117,117,117,117,117,117,117,117,117,117,117,117,117,117,
117,117,117,117,117,117,117,117,117,117,117,117,117,117,117,117,
117,117,117,117,117,117,117,117,117,117,117,117,117,117,117,117,
117,117,117,117,117,117,117,117,117,117,117,117,117,117,117,117,
117,117,117,117,117,117,117,117,117,117,117,117,117,117,117,117,
117,117,117,117,117,117,117,117,117,117,117,117,117,117,117,117,
125,125,125,125,125,125,125,125,125,125,125,125,125,125,125,125
</chunk>
   <chunk x="464" y="32" width="16" height="16">
117,117,117,117,117,117,117,117,117,117,117,117,117,117,117,117,
117,117,117,117,117,117,117,117,117,117,117,117,117,117,117,117,
117,117,117,117,117,117,117,117,117,117,117,117,117,117,117,117,
117,117,117,117,117,117,117,117,117,117,117,117,117,117,117,117,
117,117,117,117,117,117,117,117,117,117,117,117,117,117,117,117,
117,117,117,117,117,117,117,117,117,117,117,117,117,117,117,117,
117,117,117,117,117,117,117,117,117,117,117,117,117,117,117,117,
117,117,117,117,117,117,117,117,117,117,117,117,117,117,117,117,
117,117,117,117,117,117,117,117,117,117,117,117,117,117,117,117,
117,117,117,117,117,117,117,117,117,117,117,117,117,117,117,117,
117,117,117,117,117,117,117,117,117,117,117,117,117,117,117,117,
117,117,117,117,117,117,117,117,117,117,117,117,117,117,117,117,
117,117,117,117,117,117,117,117,117,117,117,117,117,117,117,117,
117,117,117,117,117,117,117,117,117,117,117,117,117,117,117,117,
117,117,117,117,117,117,117,117,117,117,117,117,117,117,117,117,
125,125,125,125,125,125,125,125,125,125,125,125,125,109,117,117
</chunk>
   <chunk x="480" y="32" width="16" height="16">
117,117,117,117,117,117,117,117,117,117,117,117,117,117,117,117,
117,117,117,117,117,117,117,117,117,117,117,117,117,117,117,117,
117,117,117,117,117,117,117,117,117,117,117,117,117,117,117,117,
117,117,117,117,117,117,117,117,117,117,117,117,117,117,117,117,
117,117,117,117,117,117,117,117,117,117,117,117,117,117,117,117,
117,117,117,117,117,117,117,117,117,117,117,117,117,117,117,117,
117,117,117,117,117,117,117,117,117,117,117,117,117,117,117,117,
117,117,117,117,117,117,117,117,117,117,117,117,117,117,117,117,
117,117,117,117,117,117,117,117,117,117,117,117,117,117,117,117,
117,117,117,117,117,117,117,117,117,117,117,117,117,117,117,117,
117,117,117,117,117,117,117,117,117,117,117,117,117,117,117,117,
117,117,117,117,117,117,117,117,117,117,117,117,117,117,117,117,
117,117,117,117,117,117,117,117,117,117,117,117,117,117,117,117,
117,117,117,117,117,117,117,117,117,117,117,117,117,117,117,117,
117,117,117,117,117,117,117,117,117,117,117,117,117,117,117,117,
117,117,117,117,117,117,117,117,117,117,117,117,117,117,117,117
</chunk>
   <chunk x="496" y="32" width="16" height="16">
117,117,117,117,117,117,117,117,117,117,117,117,117,117,117,117,
117,117,117,117,117,117,117,117,117,117,117,117,117,117,117,117,
117,117,117,117,117,117,117,117,117,117,117,117,117,117,117,117,
117,117,117,117,117,117,117,117,117,117,117,117,117,117,117,117,
117,117,117,117,117,117,117,117,117,117,117,117,117,117,117,117,
117,117,117,117,117,117,117,117,117,117,117,117,117,117,117,117,
117,117,117,117,117,117,117,117,117,117,117,117,117,117,117,117,
117,117,117,117,117,117,117,117,117,117,117,117,117,117,117,117,
117,117,117,117,117,117,117,117,117,117,117,117,117,117,117,117,
117,117,117,117,117,117,117,117,117,117,117,117,117,117,117,117,
117,117,117,117,117,117,117,117,117,117,117,117,117,117,117,117,
117,117,117,117,117,117,117,117,117,117,117,117,117,117,117,117,
117,117,117,117,117,117,117,117,117,117,117,117,117,117,117,117,
117,117,117,117,117,117,117,117,117,117,117,117,117,117,117,117,
117,117,117,117,117,117,117,117,117,117,117,117,117,117,117,117,
117,117,117,117,117,117,117,117,117,117,117,117,117,117,117,117
</chunk>
   <chunk x="512" y="32" width="16" height="16">
117,117,117,117,117,117,117,117,117,117,117,117,117,117,117,117,
117,117,117,117,117,117,117,117,117,117,117,117,117,117,117,117,
117,117,117,117,117,117,117,117,117,117,117,117,117,117,117,117,
117,117,117,117,117,117,117,117,117,117,117,117,117,117,117,117,
117,117,117,117,117,117,117,117,117,117,117,117,117,117,117,117,
117,117,117,117,117,117,117,117,117,117,117,117,117,117,117,117,
117,117,117,117,117,117,117,117,117,117,117,117,117,117,117,117,
117,117,117,117,117,117,117,117,117,117,117,117,117,117,117,117,
117,117,117,117,117,117,117,117,117,117,117,117,117,117,117,117,
117,117,117,117,117,117,117,117,117,117,117,117,117,117,117,117,
117,117,117,117,117,117,117,117,117,117,117,117,117,117,117,117,
117,117,117,117,117,117,117,117,117,117,117,117,117,117,117,117,
117,117,117,117,117,117,117,117,117,117,117,117,117,117,117,117,
117,117,117,117,117,117,117,117,117,117,117,117,117,117,117,117,
117,117,117,117,117,117,117,117,117,117,117,117,117,117,117,117,
117,117,117,117,117,117,117,117,117,117,117,117,117,117,117,117
</chunk>
   <chunk x="528" y="32" width="16" height="16">
117,117,117,117,117,117,117,117,117,117,117,117,117,117,117,117,
117,117,117,117,117,117,117,117,117,117,117,117,117,117,117,117,
117,117,117,117,117,117,117,117,117,117,117,117,117,117,117,117,
117,117,117,117,117,117,117,117,117,117,117,117,117,117,117,117,
117,117,117,117,117,117,117,117,117,117,117,117,117,150,126,126,
117,117,117,117,117,117,117,117,117,117,117,117,117,111,0,0,
117,117,117,117,117,117,117,117,117,117,117,117,117,119,0,0,
117,117,117,117,117,117,117,117,117,117,117,117,117,111,0,0,
117,117,117,117,117,117,117,117,117,117,117,117,117,119,0,0,
117,117,117,117,117,117,117,117,117,117,117,117,117,111,0,0,
117,117,117,117,117,117,117,117,117,117,117,117,117,119,0,0,
117,117,117,117,117,117,117,117,117,117,117,117,117,111,0,0,
117,117,117,117,117,117,117,117,117,117,117,117,117,119,0,0,
117,117,117,117,117,117,117,117,117,117,117,117,117,111,0,0,
117,117,117,117,117,117,117,117,117,117,117,117,117,119,0,0,
117,117,117,117,117,117,117,117,117,117,117,117,117,111,0,0
</chunk>
   <chunk x="544" y="32" width="16" height="16">
117,117,117,117,117,117,117,117,117,117,117,117,117,117,117,117,
117,117,117,117,117,117,117,117,117,117,117,117,117,117,117,117,
117,117,117,117,117,117,117,117,117,117,117,117,117,117,117,117,
117,117,117,117,117,117,117,117,117,117,117,117,117,117,117,117,
126,126,126,126,126,126,126,126,126,126,126,126,126,126,149,117,
0,0,0,0,0,0,0,0,0,0,0,0,0,0,108,117,
0,0,0,0,0,0,0,0,0,0,0,0,0,0,116,117,
0,0,0,0,0,0,0,0,0,0,0,0,0,0,108,117,
0,0,0,0,0,0,0,0,0,0,0,0,0,0,116,117,
0,0,0,0,0,0,0,0,0,0,0,0,0,0,108,117,
0,0,0,0,0,0,0,0,0,0,0,0,0,0,116,117,
0,0,0,0,0,0,0,0,0,0,0,0,0,0,108,117,
0,0,0,0,0,0,0,0,0,0,0,0,0,0,116,117,
0,0,0,0,0,0,0,0,0,0,0,0,0,0,108,117,
0,0,0,0,0,0,0,0,0,0,0,0,0,0,116,117,
0,0,0,0,0,0,0,0,0,0,0,0,0,0,108,117
</chunk>
   <chunk x="560" y="32" width="16" height="16">
118,118,118,118,118,118,118,118,118,118,118,118,118,118,118,118,
118,118,118,118,118,118,118,118,118,118,118,118,118,118,118,118,
118,118,118,118,118,118,118,118,118,118,118,118,118,118,118,118,
118,118,118,118,118,118,118,118,118,118,118,118,118,118,118,118,
118,118,118,118,118,118,118,118,118,118,118,118,118,118,118,118,
118,118,118,118,118,118,118,118,118,118,118,118,118,118,118,118,
118,118,118,118,118,118,118,118,118,118,118,118,118,118,118,118,
118,118,118,118,118,118,118,118,118,118,118,118,118,118,118,118,
118,118,118,118,118,118,118,118,118,118,118,118,118,118,118,118,
118,118,118,118,118,118,118,118,118,118,118,118,118,118,118,118,
118,118,118,118,118,118,118,118,118,118,118,118,118,118,118,118,
118,118,118,118,118,118,118,118,118,118,118,118,118,118,118,118,
118,118,118,118,118,118,118,118,118,118,118,118,118,118,118,118,
118,118,118,118,118,118,118,118,118,118,118,118,118,118,118,118,
118,118,118,118,118,118,118,118,118,118,118,118,118,118,118,118,
118,118,118,118,118,118,118,118,118,118,118,118,118,118,118,118
</chunk>
   <chunk x="576" y="32" width="16" height="16">
118,118,118,118,118,118,118,118,118,118,118,118,118,118,118,118,
118,118,118,118,118,118,118,118,118,118,118,118,118,118,118,118,
118,118,118,118,118,118,118,118,118,118,118,118,118,118,118,118,
118,118,118,118,118,118,118,118,118,118,118,118,118,118,118,118,
118,118,118,118,118,118,118,118,118,118,118,118,118,118,118,118,
118,118,118,118,118,118,118,118,118,118,118,118,118,118,118,118,
118,118,118,118,118,118,118,118,118,118,118,118,118,118,118,118,
118,118,118,118,118,118,118,118,118,118,118,118,118,118,118,118,
118,118,118,118,118,118,118,118,118,118,118,118,118,118,118,118,
118,118,118,118,118,118,118,118,118,118,118,118,118,118,118,118,
118,118,118,118,118,118,118,118,118,118,118,118,118,118,118,118,
118,118,118,118,118,118,118,118,118,118,118,118,118,118,118,118,
118,118,118,118,118,118,118,118,118,118,118,118,118,118,118,118,
118,118,118,118,118,118,118,118,118,118,118,118,118,118,118,118,
118,118,118,118,118,118,118,118,118,118,118,118,118,118,118,118,
118,118,118,118,118,118,118,118,118,118,118,118,118,118,118,118
</chunk>
   <chunk x="592" y="32" width="16" height="16">
118,118,118,118,118,118,118,118,118,118,118,118,118,118,118,118,
118,118,118,118,118,118,118,118,118,118,118,118,118,118,118,118,
118,118,118,118,118,118,118,118,118,118,118,118,118,118,118,118,
118,118,118,118,118,118,118,118,118,118,118,118,118,118,118,118,
118,118,118,118,118,118,118,118,118,118,118,118,118,118,118,118,
118,118,118,118,118,118,118,118,118,118,118,118,118,118,118,118,
118,118,118,118,118,118,118,118,118,118,118,118,118,118,118,118,
118,118,118,118,118,118,118,118,118,118,118,118,118,118,118,118,
118,118,118,118,118,118,118,118,118,118,118,118,118,118,118,118,
118,118,118,118,118,118,118,118,118,118,118,118,118,118,118,118,
118,118,118,118,118,118,118,118,118,118,118,118,118,118,118,118,
118,118,118,118,118,118,118,118,118,118,118,118,118,118,118,118,
118,118,118,118,118,118,118,118,118,118,118,118,118,118,118,118,
118,118,118,118,118,118,118,118,118,118,118,118,118,118,118,118,
118,118,118,118,118,118,118,118,118,118,118,118,118,118,118,118,
118,118,118,118,118,118,118,118,118,118,118,118,118,118,118,118
</chunk>
   <chunk x="608" y="32" width="16" height="16">
118,118,118,118,118,118,118,118,118,118,118,118,118,118,118,118,
118,118,118,118,118,118,118,118,118,118,118,118,118,118,118,118,
118,118,118,118,118,118,118,118,118,118,118,118,118,118,118,118,
118,118,118,118,118,118,118,118,118,118,118,118,118,118,118,118,
118,118,118,118,118,118,118,118,118,118,118,118,118,118,118,118,
118,118,118,118,118,118,118,118,118,118,118,118,118,118,118,118,
118,118,118,118,118,118,118,118,118,118,118,118,118,118,118,118,
118,118,118,118,118,118,118,118,118,118,118,118,118,118,118,118,
118,118,118,118,118,118,118,118,118,118,118,118,118,118,118,118,
118,118,118,118,118,118,118,118,118,118,118,118,118,118,118,118,
118,118,118,118,118,118,118,118,118,118,118,118,118,118,118,118,
118,118,118,118,118,118,118,118,118,118,118,118,118,118,118,118,
118,118,118,118,118,118,118,118,118,118,118,118,118,118,118,118,
118,118,118,118,118,118,118,118,118,118,118,118,118,118,118,118,
118,118,118,118,118,118,118,118,118,118,118,118,118,118,118,118,
118,118,118,118,118,118,118,118,118,118,118,118,118,118,118,118
</chunk>
   <chunk x="624" y="32" width="16" height="16">
118,118,118,118,118,118,118,118,118,118,118,118,118,118,118,118,
118,118,118,118,118,118,118,118,118,118,118,118,118,118,118,118,
118,118,118,118,118,118,118,118,118,118,118,118,118,118,118,118,
118,118,118,118,118,118,118,118,118,118,118,118,118,118,118,118,
118,118,118,118,118,118,118,118,118,118,118,118,118,118,118,118,
118,118,118,118,118,118,118,118,118,118,118,118,118,118,118,118,
118,118,118,118,118,118,118,118,118,118,118,118,118,118,118,118,
118,118,118,118,118,118,118,118,118,118,118,118,118,118,118,118,
118,118,118,118,118,118,118,118,118,118,118,118,118,118,118,118,
118,118,118,118,118,118,118,118,118,118,118,118,118,118,118,118,
118,118,118,118,118,118,118,118,118,118,118,118,118,118,118,118,
118,118,118,118,118,118,118,118,118,118,118,118,118,118,118,118,
118,118,118,118,118,118,118,118,118,118,118,118,118,118,118,118,
118,118,118,118,118,118,118,118,118,118,118,118,118,118,118,118,
118,118,118,118,118,118,118,118,118,118,118,118,118,118,118,118,
118,118,118,118,118,118,118,118,118,118,118,118,118,118,118,118
</chunk>
   <chunk x="640" y="32" width="16" height="16">
118,118,109,109,111,0,0,0,0,0,0,0,0,0,0,0,
118,118,109,109,119,0,0,0,0,0,0,0,0,0,0,0,
118,118,109,109,111,0,0,0,0,0,0,0,0,0,0,0,
118,118,109,109,119,0,0,0,0,0,0,0,0,0,0,0,
118,118,109,109,111,0,0,0,0,0,0,0,0,0,0,0,
118,118,109,109,119,0,0,0,0,0,0,0,0,0,0,0,
118,118,109,109,111,0,0,0,0,0,0,0,0,0,0,0,
118,118,109,109,119,0,0,0,0,0,0,0,0,0,0,0,
118,118,109,109,111,0,0,0,0,0,0,0,0,0,0,0,
118,118,109,109,119,0,0,0,0,0,0,0,0,0,0,0,
118,118,109,109,111,0,0,0,0,0,0,0,0,0,0,0,
118,118,109,109,119,0,0,0,0,0,0,0,0,0,0,0,
118,118,109,109,111,0,0,0,0,0,0,0,0,0,0,0,
118,118,109,109,119,0,0,0,0,0,0,0,0,0,0,0,
118,118,109,109,111,0,0,0,0,0,0,0,0,0,0,0,
118,118,109,109,119,0,0,0,0,0,0,0,0,0,0,0
</chunk>
   <chunk x="672" y="32" width="16" height="16">
0,0,0,0,0,0,0,0,0,0,108,109,109,109,109,109,
0,0,0,0,0,0,0,0,0,0,116,109,109,109,109,109,
0,0,0,0,0,0,0,0,0,0,108,109,109,109,109,109,
0,0,0,0,0,0,0,0,0,0,116,109,109,109,109,109,
0,0,0,0,0,0,0,0,0,0,108,109,109,109,109,109,
0,0,0,0,0,0,0,0,0,0,116,109,109,109,109,109,
0,0,0,0,0,0,0,0,0,0,108,109,109,109,109,109,
0,0,0,0,0,0,0,0,0,0,116,109,109,109,109,109,
0,0,0,0,0,0,0,0,0,0,108,109,109,109,109,109,
0,0,0,0,0,0,0,0,0,0,116,109,109,109,109,109,
0,0,0,0,0,0,0,0,0,0,108,109,109,109,109,109,
0,0,0,0,0,0,0,0,0,0,116,109,109,109,109,109,
0,0,0,0,0,0,0,0,0,0,108,109,109,109,109,109,
0,0,0,0,0,0,0,0,0,0,116,109,109,109,109,109,
0,0,0,0,0,0,0,0,0,0,108,109,109,109,109,109,
0,0,0,0,0,0,0,0,0,0,116,109,109,109,109,109
</chunk>
   <chunk x="688" y="32" width="16" height="16">
109,109,109,109,109,109,109,109,109,109,109,0,0,0,0,0,
109,109,109,109,109,109,109,109,109,109,109,0,0,0,0,0,
109,109,109,109,109,109,109,109,109,109,109,0,0,0,0,0,
109,109,109,109,109,109,109,109,109,109,109,0,0,0,0,0,
109,109,109,109,109,109,109,109,109,109,109,0,0,0,0,0,
109,109,109,109,109,109,109,109,109,109,109,0,0,0,0,0,
109,109,109,109,109,109,109,109,109,109,109,0,0,0,0,0,
109,109,109,109,109,109,109,109,109,109,109,0,0,0,0,0,
109,109,109,109,109,109,109,109,109,109,109,0,0,0,0,0,
109,109,109,109,109,109,109,109,109,109,109,0,0,0,0,0,
109,109,109,109,109,109,109,109,109,109,109,0,0,0,0,0,
109,109,109,109,109,109,109,109,109,109,109,0,0,0,0,0,
109,109,109,109,109,109,109,109,109,109,109,0,0,0,0,0,
109,109,109,109,109,109,109,109,109,109,109,0,0,0,0,0,
109,109,109,109,109,109,109,109,109,109,109,0,0,0,0,0,
109,109,109,109,109,109,109,109,109,109,109,0,0,0,0,0
</chunk>
   <chunk x="160" y="48" width="16" height="16">
0,0,0,0,0,0,0,0,0,0,0,0,0,0,0,0,
0,0,0,0,0,0,0,0,0,0,0,0,0,0,0,0,
0,0,0,0,0,0,0,0,0,0,0,0,0,0,0,0,
0,0,0,0,0,0,0,0,0,0,0,0,0,0,0,0,
0,0,0,0,0,0,0,0,0,0,0,0,0,0,0,0,
0,0,0,0,0,0,0,0,0,0,0,0,0,0,0,0,
0,0,0,0,0,0,0,0,0,0,37,37,37,37,37,37,
0,0,0,0,0,0,0,0,0,0,45,45,45,45,45,45,
0,0,0,0,0,0,0,0,0,0,45,45,45,45,45,45,
0,0,0,0,0,0,0,0,0,0,45,45,45,45,45,45,
0,0,0,0,0,0,0,0,0,0,45,45,45,45,45,45,
0,0,0,0,0,0,0,0,0,0,45,45,45,45,45,45,
0,0,0,0,0,0,0,0,0,0,45,45,45,45,45,45,
0,0,0,0,0,0,0,0,0,0,45,45,45,45,45,45,
0,0,0,0,0,0,0,0,0,0,45,45,45,45,45,45,
0,0,0,0,0,0,0,0,0,0,45,45,45,45,45,45
</chunk>
   <chunk x="176" y="48" width="16" height="16">
0,0,0,0,0,0,0,0,0,0,0,0,0,0,0,0,
0,0,0,0,0,0,0,0,0,0,0,0,0,0,0,0,
0,0,0,0,0,0,0,0,0,0,0,0,0,0,0,0,
0,0,0,0,0,0,0,0,0,0,0,0,0,0,0,0,
0,0,0,0,0,0,0,0,0,0,0,0,0,0,0,0,
0,0,0,0,0,0,0,0,0,0,0,0,0,0,0,0,
37,37,37,37,37,37,37,37,37,37,37,37,37,37,37,37,
45,45,45,45,45,45,45,45,45,45,45,45,45,45,45,45,
45,45,45,45,45,45,45,45,45,45,45,45,45,45,45,45,
45,45,45,45,45,45,45,45,45,45,45,45,45,45,45,45,
45,45,45,45,45,45,45,45,45,45,45,45,45,45,45,45,
45,45,45,45,45,45,45,45,45,45,45,45,45,45,45,45,
45,45,45,45,45,45,45,45,45,45,45,45,45,45,45,45,
45,45,45,45,45,45,45,45,45,45,45,45,45,45,45,45,
45,45,45,45,45,45,45,45,45,45,45,45,45,45,45,45,
45,45,45,45,45,45,45,45,45,45,45,45,45,45,45,45
</chunk>
   <chunk x="192" y="48" width="16" height="16">
0,0,0,0,0,0,0,0,0,0,0,0,0,0,0,0,
0,0,0,0,0,0,0,0,0,0,0,0,0,0,0,0,
0,0,0,0,0,0,0,0,0,0,0,0,0,0,0,0,
0,0,0,0,0,0,0,0,0,0,0,0,0,0,0,0,
0,0,0,0,0,0,0,0,0,0,0,0,0,0,0,0,
0,0,0,0,0,0,0,0,0,0,0,0,0,0,0,0,
37,37,37,37,37,37,37,37,37,37,37,37,37,37,37,37,
45,45,45,45,45,45,45,45,45,45,45,45,45,45,45,45,
45,45,45,45,45,45,45,45,45,45,45,45,45,45,45,45,
45,45,45,45,45,45,45,45,45,45,45,45,45,45,45,45,
45,45,45,45,45,45,45,45,45,45,45,45,45,45,45,45,
45,45,45,45,45,45,45,45,45,45,45,45,45,45,45,45,
45,45,45,45,45,45,45,45,45,45,45,45,45,45,45,45,
45,45,45,45,45,45,45,45,45,45,45,45,45,45,45,45,
45,45,45,45,45,45,45,45,45,45,45,45,45,45,45,45,
45,45,45,45,45,45,45,45,45,45,45,45,45,45,45,45
</chunk>
   <chunk x="208" y="48" width="16" height="16">
0,0,0,0,0,0,0,0,0,0,0,0,0,0,0,0,
0,0,0,0,0,0,0,0,0,0,0,0,0,0,0,0,
0,0,0,0,0,0,0,0,0,0,0,0,0,0,0,0,
0,0,0,0,0,0,0,0,0,0,0,0,0,0,0,0,
0,0,0,0,0,0,0,0,0,0,0,0,0,0,0,0,
0,0,0,0,0,0,0,0,0,0,0,0,0,0,0,0,
37,37,37,37,37,37,37,37,37,37,37,37,37,37,37,37,
45,45,45,45,45,45,45,45,45,45,45,45,45,45,45,45,
45,45,45,45,45,45,45,45,45,45,45,45,45,45,45,45,
45,45,45,45,45,45,45,45,45,45,45,45,45,45,45,45,
45,45,45,45,45,45,45,45,45,45,45,45,45,45,45,45,
45,45,45,45,45,45,45,45,45,45,45,45,45,45,45,45,
45,45,45,45,45,45,45,45,45,45,45,45,45,45,45,45,
45,45,45,45,45,45,45,45,45,45,45,45,45,45,45,45,
45,45,45,45,45,45,45,45,45,45,45,45,45,45,45,45,
45,45,45,45,45,45,45,45,45,45,45,45,45,45,45,45
</chunk>
   <chunk x="224" y="48" width="16" height="16">
0,0,0,0,0,0,0,0,0,0,0,0,0,0,0,0,
0,0,0,0,0,0,0,0,0,0,0,0,0,0,0,0,
0,0,0,0,0,0,0,0,0,0,0,0,0,0,0,0,
0,0,0,0,0,0,0,0,0,0,0,0,0,0,0,0,
0,0,0,0,0,0,0,0,0,0,0,0,0,0,0,0,
0,0,0,0,0,0,0,0,0,0,0,0,0,0,0,0,
37,37,37,37,37,37,37,37,37,37,37,37,37,37,37,37,
45,45,45,45,45,45,45,45,45,45,45,45,45,45,45,45,
45,45,45,45,45,45,45,45,45,45,45,45,45,45,45,45,
45,45,45,45,45,45,45,45,45,45,45,45,45,45,45,45,
45,45,45,45,45,45,45,45,45,45,45,45,45,45,45,45,
45,45,45,45,45,45,45,45,45,45,45,45,45,45,45,45,
45,45,45,45,45,45,45,45,45,45,45,45,45,45,45,45,
45,45,45,45,45,45,45,45,45,45,45,45,45,45,45,45,
45,45,45,45,45,45,45,45,45,45,45,45,45,45,45,45,
45,45,45,45,45,45,45,45,45,45,45,45,45,45,45,45
</chunk>
   <chunk x="240" y="48" width="16" height="16">
0,0,0,0,0,0,0,0,0,0,0,0,0,0,0,0,
0,0,0,0,0,0,0,0,0,0,0,0,0,0,0,0,
0,0,0,0,0,0,0,0,0,0,0,0,0,0,0,0,
0,0,0,0,0,0,0,0,0,0,0,0,0,0,0,0,
0,0,0,0,0,0,0,0,0,0,0,0,0,0,0,0,
0,0,0,0,0,0,0,0,0,0,0,0,0,0,0,0,
37,37,37,37,37,37,37,39,0,0,0,0,0,0,0,0,
45,45,45,45,45,45,45,47,0,0,0,0,0,0,0,0,
45,45,45,45,45,45,45,55,0,0,0,0,0,0,0,0,
45,45,45,45,45,45,45,78,37,37,37,37,37,37,37,37,
45,45,45,45,45,45,45,45,45,45,45,45,45,45,45,45,
45,45,45,45,45,45,45,45,45,45,45,45,45,45,45,45,
45,45,45,45,45,45,45,45,45,45,45,45,45,45,45,45,
45,45,45,45,45,45,45,45,45,45,45,45,45,45,45,45,
45,45,45,45,45,45,45,45,45,45,45,45,45,45,45,45,
45,45,45,45,45,45,45,45,45,45,45,45,45,45,45,45
</chunk>
   <chunk x="256" y="48" width="16" height="16">
0,0,0,0,0,0,0,0,0,0,0,0,0,0,0,0,
0,0,0,0,0,0,0,0,0,0,0,0,0,0,0,0,
0,0,0,0,0,0,0,0,0,0,0,0,0,0,0,0,
0,0,0,0,0,0,0,0,0,0,0,0,0,0,0,0,
0,0,0,0,0,0,0,0,0,0,0,0,0,0,0,0,
0,0,0,0,0,0,0,0,0,0,0,0,0,0,0,0,
0,0,0,0,0,0,0,0,0,0,0,0,0,0,0,0,
0,0,0,0,0,0,0,0,0,0,0,0,0,0,0,0,
0,0,0,0,0,0,0,0,0,0,0,0,0,0,0,0,
37,37,37,37,37,37,37,37,37,37,37,37,37,37,37,37,
45,45,45,45,45,45,45,45,45,45,45,45,45,45,45,45,
45,45,45,45,45,45,45,45,45,45,45,45,45,45,45,45,
45,45,45,45,45,45,45,45,45,45,45,45,45,45,45,45,
45,45,45,45,45,45,45,45,45,45,45,45,45,45,45,45,
45,45,45,45,45,45,45,45,45,45,45,45,45,45,45,45,
45,45,45,45,45,45,45,45,45,45,45,45,45,45,45,45
</chunk>
   <chunk x="272" y="48" width="16" height="16">
0,0,0,0,0,0,0,0,0,0,0,44,45,45,45,45,
0,0,0,0,0,0,0,0,0,0,0,52,45,45,45,45,
0,0,0,0,0,0,0,0,0,0,0,44,45,45,45,45,
0,0,0,0,0,0,0,0,0,0,0,52,45,45,45,45,
0,0,0,0,0,0,0,0,0,0,0,44,45,45,45,45,
0,0,0,0,0,0,0,0,0,0,0,52,45,45,45,45,
0,0,0,0,0,0,0,0,0,0,0,44,45,45,45,45,
0,0,0,0,0,0,0,0,0,0,0,52,45,45,45,45,
0,0,0,0,0,0,0,0,0,0,0,44,45,45,45,45,
37,37,37,37,37,37,37,37,37,37,37,77,45,45,45,45,
45,45,45,45,45,45,45,45,45,45,45,45,45,45,45,45,
45,45,45,45,45,45,45,45,45,45,45,45,45,45,45,45,
45,45,45,45,45,45,45,45,45,45,45,45,45,45,45,45,
45,45,45,45,45,45,45,45,45,45,45,45,45,45,45,45,
45,45,45,45,45,45,45,45,45,45,45,45,45,45,45,45,
45,45,45,45,45,45,45,45,45,45,45,45,45,45,45,45
</chunk>
   <chunk x="288" y="48" width="16" height="16">
45,45,45,45,45,45,47,0,0,0,0,0,0,0,0,0,
45,45,45,45,45,45,55,0,0,0,0,0,0,0,0,0,
45,45,45,45,45,45,47,0,0,0,0,0,0,0,0,0,
45,45,45,45,45,45,55,0,0,0,0,0,0,0,0,0,
45,45,45,45,45,45,47,0,0,0,0,0,0,0,0,0,
45,45,45,45,45,45,55,0,0,0,0,0,0,0,0,0,
45,45,45,45,45,45,47,0,0,0,0,0,0,0,0,0,
45,45,45,45,45,45,55,0,0,0,0,0,0,0,0,0,
45,45,45,45,45,45,47,0,0,0,0,0,0,0,0,0,
45,45,45,45,45,45,78,37,37,37,37,37,37,37,37,37,
45,45,45,45,45,45,45,45,45,45,45,45,45,45,45,45,
45,45,45,45,45,45,45,45,45,45,45,45,45,45,45,45,
45,45,45,45,45,45,45,45,45,45,45,45,45,45,45,45,
45,45,45,45,45,45,45,45,45,45,45,45,45,45,45,45,
45,45,45,45,45,45,45,45,45,45,45,45,45,45,45,45,
45,45,45,45,45,45,45,45,45,45,45,45,45,45,45,45
</chunk>
   <chunk x="304" y="48" width="16" height="16">
0,0,0,0,0,0,0,0,0,0,0,0,0,0,44,53,
0,0,0,0,0,0,0,0,0,0,0,0,0,0,52,53,
0,0,0,0,0,0,0,0,0,0,0,0,0,0,44,53,
0,0,0,0,0,0,0,0,0,0,0,0,0,0,52,53,
0,0,0,0,0,0,0,0,0,0,0,0,0,0,44,53,
0,0,0,0,0,0,0,0,0,0,0,0,0,0,52,53,
0,0,0,0,0,0,0,0,0,0,0,0,0,0,44,45,
0,0,0,0,0,0,0,0,0,0,0,0,0,0,52,45,
0,0,0,0,0,0,0,0,0,0,0,0,0,0,44,45,
37,37,37,37,37,37,37,37,37,37,37,37,37,37,77,45,
45,45,45,45,45,45,45,45,45,45,45,45,45,45,45,45,
45,45,45,45,45,45,45,45,45,45,45,45,45,45,45,45,
45,45,45,45,45,45,45,45,45,45,45,45,45,45,45,45,
45,45,45,45,45,45,45,45,45,45,45,45,45,45,45,45,
45,45,45,45,45,45,45,45,45,45,45,45,45,45,45,45,
45,45,45,45,45,45,45,45,45,45,45,45,45,45,45,45
</chunk>
   <chunk x="320" y="48" width="16" height="16">
53,53,53,53,53,53,53,53,53,53,53,55,0,0,0,0,
53,53,53,53,53,53,53,53,53,53,53,47,0,0,0,0,
53,53,53,53,53,53,53,53,53,53,53,55,0,0,0,0,
53,53,53,53,53,53,53,53,53,53,53,47,0,0,0,0,
53,53,53,53,53,53,53,53,53,53,53,55,0,0,0,0,
53,53,53,53,53,53,53,53,53,53,53,78,37,37,37,37,
45,45,45,45,45,45,45,45,45,45,45,45,45,45,45,45,
45,45,45,45,45,45,45,45,45,45,45,45,45,45,45,45,
45,45,45,45,45,45,45,45,45,45,45,45,45,45,45,45,
45,45,45,45,45,45,45,45,45,45,45,45,45,45,45,45,
45,45,45,45,45,45,45,45,45,45,45,45,45,45,45,45,
45,45,45,45,45,45,45,45,45,45,45,45,45,45,45,45,
45,45,45,45,45,45,45,45,45,45,45,45,45,45,45,45,
45,45,45,45,45,45,45,45,45,45,45,45,45,45,45,45,
45,45,45,45,45,45,45,45,45,45,45,45,45,45,45,45,
45,45,45,45,45,45,45,45,45,45,45,45,45,45,45,45
</chunk>
   <chunk x="336" y="48" width="16" height="16">
0,0,0,0,0,0,0,0,0,0,0,0,0,0,0,0,
0,0,0,0,0,0,0,0,0,0,0,0,0,0,0,0,
0,0,0,0,0,0,0,0,0,0,0,0,0,0,0,0,
0,0,0,0,0,0,0,0,0,0,0,0,0,0,0,0,
0,0,0,0,0,0,0,0,0,0,0,0,0,0,0,0,
37,37,37,37,37,37,37,37,37,37,37,37,37,37,37,37,
45,45,45,45,45,45,45,45,45,45,45,45,45,45,45,45,
45,45,45,45,45,45,45,45,45,45,45,45,45,45,45,45,
45,45,45,45,45,45,45,45,45,45,45,45,45,45,45,45,
45,45,45,45,45,45,45,45,45,45,45,45,45,45,45,45,
45,45,45,45,45,45,45,45,45,45,45,45,45,45,45,45,
45,45,45,45,45,45,45,45,45,45,45,45,45,45,45,45,
45,45,45,45,45,45,45,45,45,45,45,45,45,45,45,45,
45,45,45,45,45,45,45,45,45,45,45,45,45,45,45,45,
45,45,45,45,45,45,45,45,45,45,45,45,45,45,45,45,
45,45,45,45,45,45,45,45,45,45,45,45,45,45,45,45
</chunk>
   <chunk x="352" y="48" width="16" height="16">
0,0,0,0,0,0,0,0,0,0,0,0,0,0,0,0,
0,0,0,0,0,0,0,0,0,0,0,0,0,0,0,0,
0,0,0,0,0,0,0,0,0,0,0,0,0,0,0,0,
0,0,0,0,0,0,0,0,0,0,0,0,0,0,0,0,
0,0,0,0,0,0,0,0,0,0,0,0,0,0,0,0,
37,37,37,39,0,0,0,0,0,0,0,0,0,0,0,0,
45,45,45,47,0,0,0,0,0,0,0,0,0,0,0,0,
45,45,45,55,0,0,0,0,0,0,0,0,0,0,0,0,
45,45,45,47,0,0,0,0,0,0,0,0,0,0,0,0,
45,45,45,55,37,37,37,37,37,37,37,37,37,37,37,37,
45,45,45,45,45,45,45,45,45,45,45,45,45,45,45,45,
45,45,45,45,45,45,45,45,45,45,45,45,45,45,45,45,
45,45,45,45,45,45,45,45,45,45,45,45,45,45,45,45,
45,45,45,45,45,45,45,45,45,45,45,45,45,45,45,45,
45,45,45,45,45,45,45,45,45,45,45,45,45,45,45,45,
45,45,45,45,45,45,45,45,45,45,45,45,45,45,45,45
</chunk>
   <chunk x="368" y="48" width="16" height="16">
0,0,0,0,0,0,0,0,0,0,0,0,0,0,0,0,
0,0,0,0,0,0,0,0,0,0,0,0,0,0,0,0,
0,0,0,0,0,0,0,0,0,0,0,0,0,0,0,0,
0,0,0,0,0,0,0,0,0,0,0,0,0,0,0,0,
0,0,0,0,0,0,0,0,0,0,0,0,0,0,0,0,
0,0,0,0,0,0,0,0,0,0,0,0,0,0,0,0,
0,0,0,0,0,0,0,0,0,0,0,0,0,0,0,0,
0,0,0,0,0,0,0,0,0,0,0,0,0,0,0,0,
0,0,0,0,0,0,0,0,0,0,0,0,0,0,0,0,
36,37,37,37,37,37,37,37,37,37,37,37,37,37,37,37,
45,45,45,45,45,45,45,45,45,45,45,45,45,45,45,45,
45,45,45,45,45,45,45,45,45,45,45,45,45,45,45,45,
45,45,45,45,45,45,45,45,45,45,45,45,45,45,45,45,
45,45,45,45,45,45,45,45,45,45,45,45,45,45,45,45,
45,45,45,45,45,45,45,45,45,45,45,45,45,45,45,45,
45,45,45,45,45,45,45,45,45,45,45,45,45,45,45,45
</chunk>
   <chunk x="384" y="48" width="16" height="16">
0,0,0,0,0,0,0,0,0,0,0,0,0,0,0,0,
0,0,0,0,0,0,0,0,0,0,0,0,0,0,0,0,
0,0,0,0,0,0,0,0,0,0,0,0,0,0,0,0,
0,0,0,0,0,0,0,0,0,0,0,0,0,0,0,0,
0,0,0,0,0,0,0,0,0,0,0,0,0,0,0,0,
0,0,0,0,0,0,0,0,0,0,0,0,0,0,0,0,
0,0,0,0,0,0,0,0,0,0,0,0,0,0,0,0,
0,0,0,0,0,0,0,0,0,0,0,0,0,0,0,0,
0,0,0,0,0,0,0,0,0,0,0,0,0,0,0,0,
37,37,37,37,37,37,37,37,37,37,37,37,37,37,37,37,
45,45,45,45,45,45,45,45,45,45,45,45,45,45,45,45,
45,45,45,45,45,45,45,45,45,45,45,45,45,45,45,45,
45,45,45,45,45,45,45,45,45,45,45,45,45,45,45,45,
45,45,45,45,45,45,45,45,45,45,45,45,45,45,45,45,
45,45,45,45,45,45,45,45,45,45,45,45,45,45,45,45,
45,45,45,45,45,45,45,45,45,45,45,45,45,45,45,45
</chunk>
   <chunk x="400" y="48" width="16" height="16">
0,0,0,0,0,0,0,0,0,0,0,0,0,0,0,0,
0,0,0,0,0,0,0,0,0,0,0,0,0,0,0,0,
0,0,0,0,0,0,0,0,0,0,0,0,0,0,0,0,
0,0,0,0,0,0,0,0,0,0,0,0,0,0,0,0,
0,0,0,0,0,0,0,0,0,0,0,0,0,0,0,0,
0,0,0,0,0,0,0,0,0,0,0,0,0,0,0,0,
0,0,0,0,0,0,0,0,0,0,0,0,0,0,0,0,
0,0,0,0,0,0,0,0,0,0,0,0,0,0,0,0,
0,0,0,0,0,0,0,0,0,0,0,0,0,0,0,0,
37,37,37,37,37,37,37,37,37,37,37,37,103,143,0,0,
45,45,45,45,45,45,45,45,45,45,45,45,110,101,101,101,
45,45,45,45,45,45,45,45,45,45,45,45,110,110,110,110,
45,45,45,45,45,45,45,45,45,45,45,45,45,45,45,45,
45,45,45,45,45,45,45,45,45,45,45,45,45,45,45,45,
45,45,45,45,45,45,45,45,45,45,45,45,45,45,45,45,
45,45,45,45,45,45,45,45,45,45,45,45,45,45,45,45
</chunk>
   <chunk x="416" y="48" width="16" height="16">
0,0,0,0,0,0,0,0,0,0,0,0,0,0,0,0,
0,0,0,0,0,0,0,0,0,0,0,0,0,0,0,0,
0,0,0,0,0,0,0,0,0,0,0,0,0,0,0,0,
0,0,0,0,0,0,0,0,0,0,0,0,0,0,0,0,
0,0,0,0,0,0,0,0,0,0,0,0,0,0,0,0,
0,0,0,0,0,0,0,0,0,0,0,0,0,0,0,0,
0,0,0,0,0,0,0,0,0,0,0,0,0,0,0,0,
0,0,0,0,0,0,0,0,0,0,0,0,0,0,0,0,
0,0,0,0,0,0,0,0,0,0,0,0,0,0,0,0,
0,0,0,0,0,0,0,0,0,0,0,0,0,0,0,0,
101,101,101,101,101,101,101,101,101,101,101,101,101,101,101,103,
110,110,110,110,110,110,110,110,110,110,110,110,110,110,110,111,
45,45,45,117,117,117,117,117,117,117,117,117,117,117,117,111,
45,45,45,117,117,117,117,117,117,117,117,117,117,117,117,119,
45,45,45,117,117,117,117,117,117,117,117,117,117,117,117,111,
45,45,45,117,117,117,117,117,117,117,117,117,117,117,117,119
</chunk>
   <chunk x="464" y="48" width="16" height="16">
0,0,0,0,0,0,0,0,0,0,0,0,157,108,117,117,
0,0,0,0,0,0,0,0,0,0,0,0,0,108,117,117,
0,0,0,0,0,0,0,0,0,0,0,0,0,108,117,117,
0,0,0,0,0,0,0,0,0,0,0,0,0,108,117,117,
0,0,0,0,0,0,0,0,0,0,0,0,0,108,117,117,
0,0,0,0,0,0,0,0,0,0,0,0,0,108,117,117,
0,0,0,0,0,0,0,0,0,0,0,0,0,108,117,117,
0,0,0,0,0,0,0,0,0,0,0,0,0,108,117,117,
0,0,0,0,0,0,0,0,0,0,0,0,0,108,117,117,
0,0,0,0,0,0,0,0,0,0,0,0,0,108,117,117,
0,0,0,0,0,0,0,0,0,0,0,0,0,108,117,117,
0,0,0,0,0,0,0,0,0,0,0,0,0,124,126,126,
0,0,0,0,0,0,0,0,0,0,0,0,0,0,0,0,
0,0,0,0,0,0,0,0,0,0,0,0,0,0,0,0,
0,0,0,0,0,0,0,0,0,0,0,0,0,0,0,0,
0,0,0,0,0,0,0,0,0,0,0,0,0,0,0,0
</chunk>
   <chunk x="480" y="48" width="16" height="16">
117,117,117,117,117,117,117,117,117,117,117,117,117,117,117,117,
117,117,117,117,117,117,117,117,117,117,117,117,117,117,117,117,
117,117,117,117,117,117,117,117,117,117,117,117,117,117,117,117,
117,117,117,117,117,117,117,117,117,117,117,117,117,117,117,117,
117,117,117,117,117,117,117,117,117,117,117,117,117,117,117,117,
117,117,117,117,117,117,117,117,117,117,117,117,117,117,117,117,
117,117,117,117,117,117,117,117,117,117,117,117,117,117,117,117,
117,117,117,117,117,117,117,117,117,117,117,117,117,117,117,117,
117,117,117,117,117,117,117,117,117,117,117,117,117,117,117,117,
117,117,117,117,117,117,117,117,117,117,117,117,117,117,117,117,
117,117,117,117,117,117,117,117,117,117,117,117,117,117,117,117,
126,126,126,126,126,126,126,126,126,126,126,126,126,126,126,126,
0,0,0,0,0,0,0,0,0,0,0,0,0,0,0,0,
0,0,0,0,0,0,0,0,0,0,0,0,0,0,0,0,
0,0,0,0,0,0,0,0,0,0,0,0,0,0,0,0,
0,0,0,0,0,0,0,0,0,0,0,0,0,0,0,0
</chunk>
   <chunk x="496" y="48" width="16" height="16">
117,117,117,117,117,117,117,117,117,117,117,117,117,117,117,117,
117,117,117,117,117,117,117,117,117,117,117,117,117,117,117,117,
117,117,117,117,117,117,117,117,117,117,117,117,117,117,117,117,
117,117,117,117,117,117,117,117,117,117,117,117,117,117,117,117,
117,117,117,117,117,117,117,117,117,117,117,117,117,117,117,117,
117,117,117,117,117,117,117,117,117,117,117,117,117,117,117,117,
117,117,117,117,117,117,117,117,117,117,117,117,117,117,117,117,
117,117,117,117,117,117,117,117,117,117,117,117,117,117,117,117,
117,117,117,117,117,117,117,117,117,117,117,117,117,117,117,117,
117,117,117,117,117,117,117,117,117,117,117,117,117,117,117,117,
117,117,117,117,117,117,117,117,117,117,117,117,117,117,117,117,
126,126,126,126,126,126,126,126,126,126,126,126,126,126,149,117,
0,0,0,0,0,0,0,0,0,0,0,0,0,0,108,109,
0,0,0,0,0,0,0,0,0,0,0,0,0,0,116,109,
0,0,0,0,0,0,0,0,0,0,0,0,0,0,108,109,
0,0,0,0,0,0,0,0,0,0,0,0,0,0,116,109
</chunk>
   <chunk x="512" y="48" width="16" height="16">
117,117,117,117,117,117,117,117,117,117,117,117,117,117,117,117,
117,117,117,117,117,117,117,117,117,117,117,117,117,117,117,117,
117,117,117,117,117,117,117,117,117,117,117,117,117,117,117,117,
117,117,117,117,117,117,117,117,117,117,117,117,117,117,117,117,
117,117,117,117,117,117,117,117,117,117,117,117,117,117,117,117,
117,117,117,117,117,117,117,117,117,117,117,117,117,117,117,117,
117,117,117,117,117,117,117,117,117,117,117,117,117,117,117,117,
117,117,117,117,117,117,117,117,117,117,117,117,117,117,117,117,
117,117,117,117,117,117,117,117,117,117,117,117,117,117,117,117,
117,117,117,117,117,117,117,117,117,117,117,117,117,117,117,117,
117,117,117,117,117,117,117,117,117,117,117,117,117,117,117,117,
117,117,117,117,117,117,117,117,117,117,117,117,117,117,117,117,
109,109,109,109,109,109,109,109,109,109,109,109,109,109,109,109,
109,109,109,109,109,109,109,109,109,109,109,109,109,109,109,109,
109,109,109,109,109,109,109,109,109,109,109,109,109,109,109,109,
109,109,109,109,109,109,109,109,109,109,109,109,109,109,109,109
</chunk>
   <chunk x="528" y="48" width="16" height="16">
117,117,117,117,117,117,117,117,117,117,117,117,117,119,0,0,
117,117,117,117,117,117,117,117,117,117,117,117,117,111,0,0,
117,117,117,117,117,117,117,117,117,117,117,117,117,119,0,0,
117,117,117,117,117,117,117,117,117,117,117,117,117,111,0,0,
117,117,117,117,117,117,117,117,117,117,117,117,117,119,0,0,
117,117,117,117,117,117,117,117,117,117,117,117,117,111,0,0,
117,117,117,117,117,117,117,117,117,117,117,117,117,119,0,0,
117,117,117,117,117,117,117,117,117,117,117,117,117,111,0,0,
117,117,117,117,117,117,117,117,117,117,117,117,117,119,0,0,
117,117,117,117,117,117,117,117,117,117,117,117,117,111,0,0,
117,117,117,117,117,117,117,117,117,117,117,117,117,119,0,0,
117,117,117,117,117,117,117,117,117,117,117,117,117,111,0,0,
109,109,109,109,109,109,109,109,109,109,109,109,109,119,0,0,
109,109,109,109,109,109,109,109,109,109,109,109,109,111,0,0,
109,109,109,109,109,109,109,109,109,109,109,109,109,119,0,0,
109,109,109,109,109,109,109,109,109,109,109,109,109,111,0,0
</chunk>
   <chunk x="544" y="48" width="16" height="16">
0,0,0,0,0,0,0,0,0,0,0,0,0,0,116,117,
0,0,0,0,0,0,0,0,0,0,0,0,0,0,108,117,
0,0,0,0,0,0,0,0,0,0,0,0,0,0,148,149,
0,0,0,0,0,0,0,0,0,0,0,0,0,0,156,157,
0,0,0,0,0,0,0,0,0,0,0,0,0,0,0,156,
0,0,0,0,0,0,0,0,0,0,0,0,0,0,0,0,
0,0,0,0,0,0,0,0,0,0,0,0,0,0,0,0,
0,0,0,0,0,0,0,0,0,0,0,0,0,0,0,0,
0,0,0,0,0,0,0,0,0,0,0,0,0,0,0,0,
0,0,0,0,0,0,0,0,0,0,0,0,0,0,0,0,
0,0,0,0,0,0,0,0,0,0,0,0,0,0,0,0,
0,0,0,0,0,0,0,0,0,0,0,0,0,0,0,0,
0,0,0,0,0,0,0,0,0,0,0,0,0,0,0,0,
0,0,0,0,0,0,0,0,0,0,0,0,0,0,0,0,
0,0,0,0,0,0,0,0,0,0,0,0,0,0,0,0,
0,0,0,0,0,0,0,0,0,0,0,0,0,0,0,0
</chunk>
   <chunk x="560" y="48" width="16" height="16">
118,118,118,118,118,118,118,118,118,118,118,118,118,118,118,118,
118,118,118,118,118,118,118,118,118,118,118,118,118,118,118,118,
118,118,118,118,118,118,118,118,118,118,118,118,118,118,118,118,
149,118,118,118,118,118,118,118,118,118,118,118,118,118,118,118,
157,125,125,125,125,125,125,125,125,125,125,125,125,125,125,125,
0,0,0,0,0,0,0,0,0,0,0,0,0,0,0,0,
0,0,0,0,0,0,0,0,0,0,0,0,0,0,0,0,
0,0,0,0,0,0,0,0,0,0,0,0,0,0,0,0,
0,0,0,0,0,0,0,0,0,0,0,0,0,0,0,0,
0,0,0,0,0,0,0,0,0,0,0,0,0,0,0,0,
0,0,0,0,0,0,0,0,0,0,0,0,0,0,0,0,
0,0,0,0,0,0,0,0,0,0,0,0,0,0,0,0,
0,0,0,0,0,0,0,0,0,0,0,0,0,0,0,0,
0,0,0,0,0,0,0,0,0,0,0,0,0,0,0,0,
0,0,0,0,0,0,0,0,0,0,0,0,0,0,0,0,
0,0,0,0,0,0,0,0,0,0,0,0,0,0,0,0
</chunk>
   <chunk x="576" y="48" width="16" height="16">
118,118,118,118,118,118,118,118,118,118,118,118,118,118,118,118,
118,118,118,118,118,118,118,118,118,118,118,118,118,118,118,118,
118,118,118,118,118,118,118,118,118,118,118,118,118,118,118,118,
118,118,118,118,118,118,118,118,118,118,118,118,118,118,118,118,
125,125,125,125,125,125,125,125,125,125,125,125,125,125,125,125,
0,0,0,0,0,0,0,0,0,0,0,0,0,0,0,0,
0,0,0,0,0,0,0,0,0,0,0,0,0,0,0,0,
0,0,0,0,0,0,0,0,0,0,0,0,0,0,0,0,
0,0,0,0,0,0,0,0,0,0,0,0,0,0,0,0,
0,0,0,0,0,0,0,0,0,0,0,0,0,0,0,0,
0,0,0,0,0,0,0,0,0,0,0,0,0,0,0,0,
0,0,0,0,0,0,0,0,0,0,0,0,0,0,0,0,
0,0,0,0,0,0,0,0,0,0,0,0,0,0,0,0,
0,0,0,0,0,0,0,0,0,0,0,0,0,0,0,0,
0,0,0,0,0,0,0,0,0,0,0,0,0,0,0,0,
0,0,0,0,0,0,0,0,0,0,0,0,0,0,0,0
</chunk>
   <chunk x="592" y="48" width="16" height="16">
118,118,118,118,118,118,118,118,118,118,118,118,118,118,118,118,
118,118,118,118,118,118,118,118,118,118,118,118,118,118,118,118,
118,118,118,118,118,118,118,118,118,118,118,118,118,118,118,118,
118,118,118,118,118,118,118,118,118,118,118,118,118,118,118,118,
125,125,125,125,125,125,126,125,126,125,126,125,126,125,126,125,
0,0,0,0,0,0,0,0,0,0,0,0,0,0,0,0,
0,0,0,0,0,0,0,0,0,0,0,0,0,0,0,0,
0,0,0,0,0,0,0,0,0,0,0,0,0,0,0,0,
0,0,0,0,0,0,0,0,0,0,0,0,0,0,0,0,
0,0,0,0,0,0,0,0,0,0,0,0,0,0,0,0,
0,0,0,0,0,0,0,0,0,0,0,0,0,0,0,0,
0,0,0,0,0,0,0,0,0,0,0,0,0,0,0,0,
0,0,0,0,0,0,0,0,0,0,0,0,0,0,0,0,
0,0,0,0,0,0,0,0,0,0,0,0,0,0,0,0,
0,0,0,0,0,0,0,0,0,0,0,0,0,0,0,0,
0,0,0,0,0,0,0,0,0,0,0,0,0,0,0,0
</chunk>
   <chunk x="608" y="48" width="16" height="16">
118,118,118,118,118,118,118,118,118,118,118,118,118,118,118,118,
118,118,118,118,118,118,118,118,118,118,118,118,118,118,118,118,
118,118,118,118,118,118,118,118,118,118,118,118,118,118,118,118,
118,118,118,118,118,118,118,118,118,118,118,118,118,118,118,118,
126,125,126,125,126,125,126,125,126,125,126,126,125,126,125,126,
0,0,0,0,0,0,0,0,0,0,0,0,0,0,0,0,
0,0,0,0,0,0,0,0,0,0,0,0,0,0,0,0,
0,0,0,0,0,0,0,0,0,0,0,0,0,0,0,0,
0,0,0,0,0,0,0,0,0,0,0,0,0,0,0,0,
0,0,0,0,0,0,0,0,0,0,0,0,0,0,0,0,
0,0,0,0,0,0,0,0,0,0,0,0,0,0,0,0,
0,0,0,0,0,0,0,0,0,0,0,0,0,0,0,0,
0,0,0,0,0,0,0,0,0,0,0,0,0,0,0,0,
0,0,0,0,0,0,0,0,0,0,0,0,0,0,0,0,
0,0,0,0,0,0,0,0,0,0,0,0,0,0,0,0,
0,0,0,0,0,0,0,0,0,0,0,0,0,0,0,0
</chunk>
   <chunk x="624" y="48" width="16" height="16">
118,118,118,118,118,118,118,118,118,118,118,118,118,118,118,118,
118,118,118,118,118,118,118,118,118,118,118,118,118,118,118,118,
118,118,118,118,118,118,118,118,118,118,118,118,118,118,118,118,
118,118,118,118,118,118,118,118,118,118,118,118,118,118,118,118,
125,126,125,126,125,126,125,126,125,126,125,126,125,126,125,126,
0,0,0,0,0,0,0,0,0,0,0,0,0,0,0,0,
0,0,0,0,0,0,0,0,0,0,0,0,0,0,0,0,
0,0,0,0,0,0,0,0,0,0,0,0,0,0,0,0,
0,0,0,0,0,0,0,0,0,0,0,0,0,0,0,0,
0,0,0,0,0,0,0,0,0,0,0,0,0,0,0,0,
0,0,0,0,0,0,0,0,0,0,0,0,0,0,0,0,
0,0,0,0,0,0,0,0,0,0,0,0,0,0,0,0,
0,0,0,0,0,0,0,0,0,0,0,0,0,0,0,0,
0,0,0,0,0,0,0,0,0,0,0,0,0,0,0,0,
0,0,0,0,0,0,0,0,0,0,0,0,0,0,0,0,
0,0,0,0,0,0,0,0,0,0,0,0,0,0,0,0
</chunk>
   <chunk x="640" y="48" width="16" height="16">
118,118,109,109,111,0,0,0,0,0,0,0,0,0,0,0,
118,118,109,109,119,0,0,0,0,0,0,0,0,0,0,0,
118,118,109,150,151,0,0,0,0,0,0,0,0,0,0,0,
118,118,150,151,0,0,0,0,0,0,0,0,0,0,0,0,
125,126,158,159,0,0,0,0,0,0,0,0,0,0,0,0,
0,0,0,0,0,0,0,0,0,0,0,0,0,0,0,0,
0,0,0,0,0,0,0,0,0,0,0,0,0,0,0,0,
0,0,0,0,0,0,0,0,0,0,0,0,0,0,0,0,
0,0,0,0,0,0,0,0,0,0,0,0,0,0,0,0,
0,0,0,0,0,0,0,0,0,0,0,0,0,0,0,0,
0,0,0,0,0,0,0,0,0,0,0,0,0,0,0,0,
0,0,0,0,0,0,0,0,0,0,0,0,0,0,0,0,
0,0,0,0,0,0,0,0,0,0,0,0,0,0,0,0,
0,0,0,0,0,0,0,0,0,0,0,0,0,0,0,0,
0,0,0,0,0,0,0,0,0,0,0,0,0,0,0,0,
0,0,0,0,0,0,0,0,0,0,0,0,0,0,0,0
</chunk>
   <chunk x="672" y="48" width="16" height="16">
0,0,0,0,0,0,0,0,0,0,108,109,109,109,109,109,
0,0,0,0,0,0,0,0,0,0,116,109,109,109,109,109,
0,0,0,0,0,0,0,0,0,0,108,109,109,109,109,109,
0,0,0,0,0,0,0,0,0,0,116,109,109,109,109,109,
0,0,0,0,0,0,0,0,0,0,108,109,109,109,109,109,
0,0,0,0,0,0,0,0,0,0,116,109,109,109,109,109,
0,0,0,0,0,0,0,0,0,0,108,109,109,109,109,109,
0,0,0,0,0,0,0,0,0,0,116,109,109,109,109,109,
0,0,0,0,0,0,0,0,0,0,108,109,109,109,109,109,
0,0,0,0,0,0,0,0,0,0,116,109,109,109,109,109,
0,0,0,0,0,0,0,0,0,0,108,109,109,109,109,109,
0,0,0,0,0,0,0,0,0,0,116,109,109,109,109,109,
0,0,0,0,0,0,0,0,0,0,108,109,109,109,109,109,
0,0,0,0,0,0,0,0,0,0,116,109,109,109,109,109,
0,0,0,0,0,0,0,0,0,0,108,109,109,109,109,109,
0,0,0,0,0,0,0,0,0,0,116,109,109,109,109,109
</chunk>
   <chunk x="688" y="48" width="16" height="16">
109,109,109,109,109,109,109,109,109,109,109,0,0,0,0,0,
109,109,109,109,109,109,109,109,109,109,109,0,0,0,0,0,
109,109,109,109,109,109,109,109,109,109,109,0,0,0,0,0,
109,109,109,109,109,109,109,109,109,109,109,0,0,0,0,0,
109,109,109,109,109,109,109,109,109,109,109,0,0,0,0,0,
109,109,109,109,109,109,109,109,109,109,109,0,0,0,0,0,
109,109,109,109,109,109,109,109,109,109,109,0,0,0,0,0,
109,109,109,109,109,109,109,109,109,109,109,0,0,0,0,0,
109,109,109,109,109,109,109,109,109,109,109,0,0,0,0,0,
109,109,109,109,109,109,109,109,109,109,109,0,0,0,0,0,
109,109,109,109,109,109,109,109,109,109,109,0,0,0,0,0,
109,109,109,109,109,109,109,109,109,109,109,0,0,0,0,0,
109,109,109,109,109,109,109,109,109,109,109,0,0,0,0,0,
109,109,109,109,109,109,109,109,109,109,109,0,0,0,0,0,
109,109,109,109,109,109,109,109,109,109,109,0,0,0,0,0,
109,109,109,109,109,109,109,109,109,109,109,0,0,0,0,0
</chunk>
   <chunk x="160" y="64" width="16" height="16">
0,0,0,0,0,0,0,0,0,0,45,45,45,45,45,45,
0,0,0,0,0,0,0,0,0,0,45,45,45,45,45,45,
0,0,0,0,0,0,0,0,0,0,45,45,45,45,45,45,
0,0,0,0,0,0,0,0,0,0,45,45,45,45,45,45,
0,0,0,0,0,0,0,0,0,0,45,45,45,45,45,45,
0,0,0,0,0,0,0,0,0,0,45,45,45,45,45,45,
0,0,0,0,0,0,0,0,0,0,45,45,45,45,45,45,
0,0,0,0,0,0,0,0,0,0,45,45,45,45,45,45,
0,0,0,0,0,0,0,0,0,0,45,45,45,45,45,45,
0,0,0,0,0,0,0,0,0,0,45,45,45,45,45,45,
0,0,0,0,0,0,0,0,0,0,45,45,45,45,45,45,
0,0,0,0,0,0,0,0,0,0,45,45,45,45,45,45,
0,0,0,0,0,0,0,0,0,0,0,0,0,0,0,0,
0,0,0,0,0,0,0,0,0,0,0,0,0,0,0,0,
0,0,0,0,0,0,0,0,0,0,0,0,0,0,0,0,
0,0,0,0,0,0,0,0,0,0,0,0,0,0,0,0
</chunk>
   <chunk x="176" y="64" width="16" height="16">
45,45,45,45,45,45,45,45,45,45,45,45,45,45,45,45,
45,45,45,45,45,45,45,45,45,45,45,45,45,45,45,45,
45,45,45,45,45,45,45,45,45,45,45,45,45,45,45,45,
45,45,45,45,45,45,45,45,45,45,45,45,45,45,45,45,
45,45,45,45,45,45,45,45,45,45,45,45,45,45,45,45,
45,45,45,45,45,45,45,45,45,45,45,45,45,45,45,45,
45,45,45,45,45,45,45,45,45,45,45,45,45,45,45,45,
45,45,45,45,45,45,45,45,45,45,45,45,45,45,45,45,
45,45,45,45,45,45,45,45,45,45,45,45,45,45,45,45,
45,45,45,45,45,45,45,45,45,45,45,45,45,45,45,45,
45,45,45,45,45,45,45,45,45,45,45,45,45,45,45,45,
45,45,45,45,45,45,45,45,45,45,45,45,45,45,45,45,
0,0,0,0,0,0,0,0,0,0,0,0,0,0,0,0,
0,0,0,0,0,0,0,0,0,0,0,0,0,0,0,0,
0,0,0,0,0,0,0,0,0,0,0,0,0,0,0,0,
0,0,0,0,0,0,0,0,0,0,0,0,0,0,0,0
</chunk>
   <chunk x="192" y="64" width="16" height="16">
45,45,45,45,45,45,45,45,45,45,45,45,45,45,45,45,
45,45,45,45,45,45,45,45,45,45,45,45,45,45,45,45,
45,45,45,45,45,45,45,45,45,45,45,45,45,45,45,45,
45,45,45,45,45,45,45,45,45,45,45,45,45,45,45,45,
45,45,45,45,45,45,45,45,45,45,45,45,45,45,45,45,
45,45,45,45,45,45,45,45,45,45,45,45,45,45,45,45,
45,45,45,45,45,45,45,45,45,45,45,45,45,45,45,45,
45,45,45,45,45,45,45,45,45,45,45,45,45,45,45,45,
45,45,45,45,45,45,45,45,45,45,45,45,45,45,45,45,
45,45,45,45,45,45,45,45,45,45,45,45,45,45,45,45,
45,45,45,45,45,45,45,45,45,45,45,45,45,45,45,45,
45,45,45,45,45,45,45,45,45,45,45,45,45,45,45,45,
0,0,0,0,0,0,0,0,0,0,0,0,0,0,0,0,
0,0,0,0,0,0,0,0,0,0,0,0,0,0,0,0,
0,0,0,0,0,0,0,0,0,0,0,0,0,0,0,0,
0,0,0,0,0,0,0,0,0,0,0,0,0,0,0,0
</chunk>
   <chunk x="208" y="64" width="16" height="16">
45,45,45,45,45,45,45,45,45,45,45,45,45,45,45,45,
45,45,45,45,45,45,45,45,45,45,45,45,45,45,45,45,
45,45,45,45,45,45,45,45,45,45,45,45,45,45,45,45,
45,45,45,45,45,45,45,45,45,45,45,45,45,45,45,45,
45,45,45,45,45,45,45,45,45,45,45,45,45,45,45,45,
45,45,45,45,45,45,45,45,45,45,45,45,45,45,45,45,
45,45,45,45,45,45,45,45,45,45,45,45,45,45,45,45,
45,45,45,45,45,45,45,45,45,45,45,45,45,45,45,45,
45,45,45,45,45,45,45,45,45,45,45,45,45,45,45,45,
45,45,45,45,45,45,45,45,45,45,45,45,45,45,45,45,
45,45,45,45,45,45,45,45,45,45,45,45,45,45,45,45,
45,45,45,45,45,45,45,45,45,45,45,45,45,45,45,45,
0,0,0,0,0,0,0,0,0,0,0,0,0,0,0,0,
0,0,0,0,0,0,0,0,0,0,0,0,0,0,0,0,
0,0,0,0,0,0,0,0,0,0,0,0,0,0,0,0,
0,0,0,0,0,0,0,0,0,0,0,0,0,0,0,0
</chunk>
   <chunk x="224" y="64" width="16" height="16">
45,45,45,45,45,45,45,45,45,45,45,45,45,45,45,45,
45,45,45,45,45,45,45,45,45,45,45,45,45,45,45,45,
45,45,45,45,45,45,45,45,45,45,45,45,45,45,45,45,
45,45,45,45,45,45,45,45,45,45,45,45,45,45,45,45,
45,45,45,45,45,45,45,45,45,45,45,45,45,45,45,45,
45,45,45,45,45,45,45,45,45,45,45,45,45,45,45,45,
45,45,45,45,45,45,45,45,45,45,45,45,45,45,45,45,
45,45,45,45,45,45,45,45,45,45,45,45,45,45,45,45,
45,45,45,45,45,45,45,45,45,45,45,45,45,45,45,45,
45,45,45,45,45,45,45,45,45,45,45,45,45,45,45,45,
45,45,45,45,45,45,45,45,45,45,45,45,45,45,45,45,
45,45,45,45,45,45,45,45,45,45,45,45,45,45,45,45,
0,0,0,0,0,0,0,0,0,0,0,0,0,0,0,0,
0,0,0,0,0,0,0,0,0,0,0,0,0,0,0,0,
0,0,0,0,0,0,0,0,0,0,0,0,0,0,0,0,
0,0,0,0,0,0,0,0,0,0,0,0,0,0,0,0
</chunk>
   <chunk x="240" y="64" width="16" height="16">
45,45,45,45,45,45,45,45,45,45,45,45,45,45,45,45,
45,45,45,45,45,45,45,45,45,45,45,45,45,45,45,45,
45,45,45,45,45,45,45,45,45,45,45,45,45,45,45,45,
45,45,45,45,45,45,45,45,45,45,45,45,45,45,45,45,
45,45,45,45,45,45,45,45,45,45,45,45,45,45,45,45,
45,45,45,45,45,45,45,45,45,45,45,45,45,45,45,45,
45,45,45,45,45,45,45,45,45,45,45,45,45,45,45,45,
45,45,45,45,45,45,45,45,45,45,45,45,45,45,45,45,
45,45,45,45,45,45,45,45,45,45,45,45,45,45,45,45,
45,45,45,45,45,45,45,45,45,45,45,45,45,45,45,45,
45,45,45,45,45,45,45,45,45,45,45,45,45,45,45,45,
45,45,45,45,45,45,45,45,45,45,45,45,45,45,45,45,
0,0,0,0,0,0,0,0,0,0,0,0,0,0,0,0,
0,0,0,0,0,0,0,0,0,0,0,0,0,0,0,0,
0,0,0,0,0,0,0,0,0,0,0,0,0,0,0,0,
0,0,0,0,0,0,0,0,0,0,0,0,0,0,0,0
</chunk>
   <chunk x="256" y="64" width="16" height="16">
45,45,45,45,45,45,45,45,45,45,45,45,45,45,45,45,
45,45,45,45,45,45,45,45,45,45,45,45,45,45,45,45,
45,45,45,45,45,45,45,45,45,45,45,45,45,45,45,45,
45,45,45,45,45,45,45,45,45,45,45,45,45,45,45,45,
45,45,45,45,45,45,45,45,45,45,45,45,45,45,45,45,
45,45,45,45,45,45,45,45,45,45,45,45,45,45,45,45,
45,45,45,45,45,45,45,45,45,45,45,45,45,45,45,45,
45,45,45,45,45,45,45,45,45,45,45,45,45,45,45,45,
45,45,45,45,45,45,45,45,45,45,45,45,45,45,45,45,
45,45,45,45,45,45,45,45,45,45,45,45,45,45,45,45,
45,45,45,45,45,45,45,45,45,45,45,45,45,45,45,45,
45,45,45,45,45,45,45,45,45,45,45,45,45,45,45,45,
0,0,0,0,0,0,0,0,0,0,0,0,0,0,0,0,
0,0,0,0,0,0,0,0,0,0,0,0,0,0,0,0,
0,0,0,0,0,0,0,0,0,0,0,0,0,0,0,0,
0,0,0,0,0,0,0,0,0,0,0,0,0,0,0,0
</chunk>
   <chunk x="272" y="64" width="16" height="16">
45,45,45,45,45,45,45,45,45,45,45,45,45,45,45,45,
45,45,45,45,45,45,45,45,45,45,45,45,45,45,45,45,
45,45,45,45,45,45,45,45,45,45,45,45,45,45,45,45,
45,45,45,45,45,45,45,45,45,45,45,45,45,45,45,45,
45,45,45,45,45,45,45,45,45,45,45,45,45,45,45,45,
45,45,45,45,45,45,45,45,45,45,45,45,45,45,45,45,
45,45,45,45,45,45,45,45,45,45,45,45,45,45,45,45,
45,45,45,45,45,45,45,45,45,45,45,45,45,45,45,45,
45,45,45,45,45,45,45,45,45,45,45,45,45,45,45,45,
45,45,45,45,45,45,45,45,45,45,45,45,45,45,45,45,
45,45,45,45,45,45,45,45,45,45,45,45,45,45,45,45,
45,45,45,45,45,45,45,45,45,45,45,45,45,45,45,45,
0,0,0,0,0,0,0,0,0,0,0,0,0,0,0,0,
0,0,0,0,0,0,0,0,0,0,0,0,0,0,0,0,
0,0,0,0,0,0,0,0,0,0,0,0,0,0,0,0,
0,0,0,0,0,0,0,0,0,0,0,0,0,0,0,0
</chunk>
   <chunk x="288" y="64" width="16" height="16">
45,45,45,45,45,45,45,45,45,45,45,45,45,45,45,45,
45,45,45,45,45,45,45,45,45,45,45,45,45,45,45,45,
45,45,45,45,45,45,45,45,45,45,45,45,45,45,45,45,
45,45,45,45,45,45,45,45,45,45,45,45,45,45,45,45,
45,45,45,45,45,45,45,45,45,45,45,45,45,45,45,45,
45,45,45,45,45,45,45,45,45,45,45,45,45,45,45,45,
45,45,45,45,45,45,45,45,45,45,45,45,45,45,45,45,
45,45,45,45,45,45,45,45,45,45,45,45,45,45,45,45,
45,45,45,45,45,45,45,45,45,45,45,45,45,45,45,45,
45,45,45,45,45,45,45,45,45,45,45,45,45,45,45,45,
45,45,45,45,45,45,45,45,45,45,45,45,45,45,45,45,
45,45,45,45,45,45,45,45,45,45,45,45,45,45,45,45,
0,0,0,0,0,0,0,0,0,0,0,0,0,0,0,0,
0,0,0,0,0,0,0,0,0,0,0,0,0,0,0,0,
0,0,0,0,0,0,0,0,0,0,0,0,0,0,0,0,
0,0,0,0,0,0,0,0,0,0,0,0,0,0,0,0
</chunk>
   <chunk x="304" y="64" width="16" height="16">
45,45,45,45,45,45,45,45,45,45,45,45,45,45,45,45,
45,45,45,45,45,45,45,45,45,45,45,45,45,45,45,45,
45,45,45,45,45,45,45,45,45,45,45,45,45,45,45,45,
45,45,45,45,45,45,45,45,45,45,45,45,45,45,45,45,
45,45,45,45,45,45,45,45,45,45,45,45,45,45,45,45,
45,45,45,45,45,45,45,45,45,45,45,45,45,45,45,45,
45,45,45,45,45,45,45,45,45,45,45,45,45,45,45,45,
45,45,45,45,45,45,45,45,45,45,45,45,45,45,45,45,
45,45,45,45,45,45,45,45,45,45,45,45,45,45,45,45,
45,45,45,45,45,45,45,45,45,45,45,45,45,45,45,45,
45,45,45,45,45,45,45,45,45,45,45,45,45,45,45,45,
45,45,45,45,45,45,45,45,45,45,45,45,45,45,45,45,
0,0,0,0,0,0,0,0,0,0,0,0,0,0,0,0,
0,0,0,0,0,0,0,0,0,0,0,0,0,0,0,0,
0,0,0,0,0,0,0,0,0,0,0,0,0,0,0,0,
0,0,0,0,0,0,0,0,0,0,0,0,0,0,0,0
</chunk>
   <chunk x="320" y="64" width="16" height="16">
45,45,45,45,45,45,45,45,45,45,45,45,45,45,45,45,
45,45,45,45,45,45,45,45,45,45,45,45,45,45,45,45,
45,45,45,45,45,45,45,45,45,45,45,45,45,45,45,45,
45,45,45,45,45,45,45,45,45,45,45,45,45,45,45,45,
45,45,45,45,45,45,45,45,45,45,45,45,45,45,45,45,
45,45,45,45,45,45,45,45,45,45,45,45,45,45,45,45,
45,45,45,45,45,45,45,45,45,45,45,45,45,45,45,45,
45,45,45,45,45,45,45,45,45,45,45,45,45,45,45,45,
45,45,45,45,45,45,45,45,45,45,45,45,45,45,45,45,
45,45,45,45,45,45,45,45,45,45,45,45,45,45,45,45,
45,45,45,45,45,45,45,45,45,45,45,45,45,45,45,45,
45,45,45,45,45,45,45,45,45,45,45,45,45,45,45,45,
0,0,0,0,0,0,0,0,0,0,0,0,0,0,0,0,
0,0,0,0,0,0,0,0,0,0,0,0,0,0,0,0,
0,0,0,0,0,0,0,0,0,0,0,0,0,0,0,0,
0,0,0,0,0,0,0,0,0,0,0,0,0,0,0,0
</chunk>
   <chunk x="336" y="64" width="16" height="16">
45,45,45,45,45,45,45,45,45,45,45,45,45,45,45,45,
45,45,45,45,45,45,45,45,45,45,45,45,45,45,45,45,
45,45,45,45,45,45,45,45,45,45,45,45,45,45,45,45,
45,45,45,45,45,45,45,45,45,45,45,45,45,45,45,45,
45,45,45,45,45,45,45,45,45,45,45,45,45,45,45,45,
45,45,45,45,45,45,45,45,45,45,45,45,45,45,45,45,
45,45,45,45,45,45,45,45,45,45,45,45,45,45,45,45,
45,45,45,45,45,45,45,45,45,45,45,45,45,45,45,45,
45,45,45,45,45,45,45,45,45,45,45,45,45,45,45,45,
45,45,45,45,45,45,45,45,45,45,45,45,45,45,45,45,
45,45,45,45,45,45,45,45,45,45,45,45,45,45,45,45,
45,45,45,45,45,45,45,45,45,45,45,45,45,45,45,45,
0,0,0,0,0,46,46,46,46,46,46,46,46,46,46,46,
0,0,0,0,0,46,46,46,46,46,46,46,46,46,46,46,
0,0,0,0,0,46,46,46,46,46,46,46,46,46,46,46,
0,0,0,0,0,0,0,0,0,0,0,0,0,0,0,0
</chunk>
   <chunk x="352" y="64" width="16" height="16">
45,45,45,45,45,45,45,45,45,45,45,45,45,45,45,45,
45,45,45,45,45,45,45,45,45,45,45,45,45,45,45,45,
45,45,45,45,45,45,45,45,45,45,45,45,45,45,45,45,
45,45,45,45,45,45,45,45,45,45,45,45,45,45,45,45,
45,45,45,45,45,45,45,45,45,45,45,45,45,45,45,45,
45,45,45,45,45,45,45,45,45,45,45,45,45,45,45,45,
45,45,45,45,45,45,45,45,45,45,45,45,45,45,45,45,
45,45,45,45,45,45,45,45,45,45,45,45,45,45,45,45,
45,45,45,45,45,45,45,45,45,45,45,45,45,45,45,45,
45,45,45,45,45,45,45,45,45,45,45,45,45,45,45,45,
45,45,45,45,45,45,45,45,45,45,45,45,45,45,45,45,
45,45,45,45,45,45,45,45,45,45,45,45,45,45,45,45,
46,45,45,45,45,45,45,45,45,45,45,45,45,45,45,45,
46,45,45,45,45,45,45,45,45,45,45,45,45,45,45,45,
46,46,46,46,46,46,46,46,46,46,46,46,46,46,46,46,
0,0,0,0,0,0,0,0,0,0,0,0,0,0,0,0
</chunk>
   <chunk x="368" y="64" width="16" height="16">
45,45,45,45,45,45,45,45,45,45,45,45,45,45,45,45,
45,45,45,45,45,45,45,45,45,45,45,45,45,45,45,45,
45,45,45,45,45,45,45,45,45,45,45,45,45,45,45,45,
45,45,45,45,45,45,45,45,45,45,45,45,45,45,45,45,
45,45,45,45,45,45,45,45,45,45,45,45,45,45,45,45,
45,45,45,45,45,45,45,45,45,45,45,45,45,45,45,45,
45,45,45,45,45,45,45,45,45,45,45,45,45,45,45,45,
45,45,45,45,45,45,45,45,45,45,45,45,45,45,45,45,
45,45,45,45,45,45,45,45,45,45,45,45,45,45,45,45,
45,45,45,45,45,45,45,45,45,45,45,45,45,45,45,45,
45,45,45,45,45,45,45,45,45,45,45,45,45,45,45,45,
45,45,45,45,45,45,45,45,45,45,45,45,45,45,45,45,
45,45,45,45,45,45,45,45,45,45,45,45,46,46,46,46,
45,45,45,45,45,45,45,45,45,45,45,45,46,46,46,46,
46,46,46,46,46,46,46,46,46,46,46,46,46,46,46,46,
0,0,0,0,0,0,0,0,0,0,0,0,0,0,0,0
</chunk>
   <chunk x="384" y="64" width="16" height="16">
45,45,45,45,45,45,45,45,45,45,45,45,45,45,45,45,
45,45,45,45,45,45,45,45,45,45,45,45,45,45,45,45,
45,45,45,45,45,45,45,45,45,45,45,45,45,45,45,45,
45,45,45,45,45,45,45,45,45,45,45,45,45,45,45,45,
45,45,45,45,45,45,45,45,45,45,45,45,45,45,45,45,
45,45,45,45,45,45,45,45,45,45,45,45,45,45,45,45,
45,45,45,45,45,45,45,45,45,45,45,45,45,45,45,45,
45,45,45,45,45,45,45,45,45,45,45,45,45,45,45,45,
45,45,45,45,45,45,45,45,45,45,45,45,45,45,45,45,
45,45,45,45,45,45,45,45,45,45,45,45,45,45,45,45,
45,45,45,45,45,45,45,45,45,45,45,45,45,45,45,45,
45,45,45,45,45,45,45,45,45,45,45,45,45,45,45,45,
46,46,46,46,46,46,46,46,46,46,46,46,0,0,0,0,
46,46,46,46,46,46,46,46,46,46,46,46,0,0,0,0,
46,46,46,46,46,46,46,46,46,46,46,46,0,0,0,0,
0,0,0,0,0,0,0,0,0,0,0,0,0,0,0,0
</chunk>
   <chunk x="400" y="64" width="16" height="16">
45,45,45,45,45,45,45,45,45,45,45,45,45,45,45,45,
45,45,45,45,45,45,45,45,45,45,45,45,45,45,45,45,
45,45,45,45,45,45,45,45,45,45,45,45,45,45,45,45,
45,45,45,45,45,45,45,45,45,45,45,45,45,45,45,45,
45,45,45,45,45,45,45,45,45,45,45,45,45,45,45,45,
45,45,45,45,45,45,45,45,45,45,45,45,45,45,45,45,
45,45,45,45,45,45,45,45,45,45,45,45,45,45,45,45,
45,45,45,45,45,45,45,45,45,45,45,45,45,45,45,45,
45,45,45,45,45,45,45,45,45,45,45,45,45,45,45,45,
45,45,45,45,45,45,45,45,45,45,45,45,45,45,45,45,
45,45,45,45,45,45,45,45,45,45,45,45,45,45,45,45,
45,45,45,45,45,45,45,45,45,45,45,45,45,45,45,45,
0,0,0,0,0,0,0,0,0,0,0,0,0,0,0,0,
0,0,0,0,0,0,0,0,0,0,0,0,0,0,0,0,
0,0,0,0,0,0,0,0,0,0,0,0,0,0,0,0,
0,0,0,0,0,0,0,0,0,0,0,0,0,0,0,0
</chunk>
   <chunk x="416" y="64" width="16" height="16">
45,45,45,117,117,117,117,117,117,117,117,117,117,117,117,111,
45,45,45,117,117,117,117,117,117,117,117,117,117,117,117,119,
45,45,45,117,117,117,117,117,117,117,117,117,117,117,117,111,
45,45,45,117,117,117,117,117,117,117,117,117,117,117,117,119,
45,45,45,117,117,117,117,117,117,117,117,117,117,117,117,111,
45,45,45,117,117,117,117,117,117,117,117,117,117,117,117,119,
45,45,45,117,117,117,117,117,117,117,117,117,117,117,117,111,
45,45,45,117,117,117,117,117,117,117,117,117,117,117,117,119,
45,45,45,117,117,117,117,117,117,117,117,117,117,117,117,111,
45,45,45,117,117,117,117,117,117,117,117,117,117,117,117,119,
45,45,45,117,117,117,117,117,117,117,117,117,117,117,117,111,
45,45,45,117,117,117,117,117,117,117,117,117,117,117,117,119,
0,0,0,117,117,117,117,117,117,117,117,117,117,117,117,111,
0,0,0,117,117,117,117,117,117,117,117,117,117,117,117,119,
0,0,0,117,117,117,117,117,117,117,117,117,117,117,117,111,
0,0,0,117,117,117,117,117,117,117,117,117,117,117,117,119
</chunk>
   <chunk x="496" y="64" width="16" height="16">
0,0,0,0,0,0,0,0,0,0,0,0,0,0,108,109,
0,0,0,0,0,0,0,0,0,0,0,0,0,0,116,109,
0,0,0,0,0,0,0,0,0,0,0,0,0,0,108,109,
0,0,0,0,0,0,0,0,0,0,0,0,0,0,116,109,
0,0,0,0,0,0,0,0,0,0,0,0,0,0,108,109,
0,0,0,0,0,0,0,0,0,0,0,0,0,0,116,109,
0,0,0,0,0,0,0,0,0,0,0,0,0,0,108,109,
0,0,0,0,0,0,0,0,0,0,0,0,0,0,116,109,
0,0,0,0,0,0,0,0,0,0,0,0,0,0,108,109,
0,0,0,0,0,0,0,0,0,0,0,0,0,0,116,109,
0,0,0,0,0,0,0,0,0,0,0,0,0,0,108,109,
0,0,0,0,0,0,0,0,0,0,0,0,0,0,116,109,
0,0,0,0,0,0,0,0,0,0,0,0,0,0,108,109,
0,0,0,0,0,0,0,0,0,0,0,0,0,0,116,109,
0,0,0,0,0,0,0,0,0,0,0,0,0,0,108,109,
0,0,0,0,0,0,0,0,0,0,0,0,0,0,148,149
</chunk>
   <chunk x="512" y="64" width="16" height="16">
109,109,109,109,109,109,109,109,109,109,109,109,109,109,109,109,
109,109,109,109,109,109,109,109,109,109,109,109,109,109,109,109,
109,109,109,109,109,109,109,109,109,109,109,109,109,109,109,109,
109,109,109,109,109,109,109,109,109,109,109,109,109,109,109,109,
109,109,109,109,109,109,109,109,109,109,109,109,109,109,109,109,
109,109,109,109,109,109,109,109,109,109,109,109,109,109,109,109,
109,109,109,109,109,109,109,109,109,109,109,109,109,109,109,109,
109,109,109,109,109,109,109,109,109,109,109,109,109,109,109,109,
109,109,109,109,109,109,109,109,109,109,109,109,109,109,109,109,
109,109,109,109,109,109,109,109,109,109,109,109,109,109,109,109,
109,109,109,109,109,109,109,109,109,109,109,109,109,109,109,109,
109,109,109,109,109,109,109,109,109,109,109,109,109,109,109,109,
109,109,109,109,109,109,109,109,109,109,109,109,109,109,109,109,
109,109,109,109,109,109,109,109,109,109,109,109,109,109,109,109,
109,109,109,109,109,109,109,109,109,109,109,109,109,109,109,109,
109,109,109,109,109,109,109,109,109,109,109,109,109,109,109,109
</chunk>
   <chunk x="528" y="64" width="16" height="16">
109,109,109,109,109,109,109,109,109,109,109,109,109,119,0,0,
109,109,109,109,109,109,109,109,109,109,109,109,109,111,0,0,
109,109,109,109,109,109,109,109,109,109,109,109,109,119,0,0,
109,109,109,109,109,109,109,109,109,109,109,109,109,111,0,0,
109,109,109,109,109,109,109,109,109,109,109,109,109,119,0,0,
109,109,109,109,109,109,109,109,109,109,109,109,109,111,0,0,
109,109,109,109,109,109,109,109,109,109,109,109,109,119,0,0,
109,109,109,109,109,109,109,109,109,109,109,109,109,111,0,0,
109,109,109,109,109,109,109,109,109,109,109,109,109,119,0,0,
109,109,109,109,109,109,109,109,109,109,109,109,109,111,0,0,
109,109,109,109,109,109,109,109,109,109,109,109,109,119,0,0,
109,109,109,109,109,109,109,109,109,109,109,109,109,111,0,0,
109,109,109,109,109,109,109,109,109,109,109,109,109,119,0,0,
109,109,109,109,109,109,109,109,109,109,109,109,109,111,0,0,
109,109,109,109,109,109,109,109,109,109,109,109,109,119,0,0,
109,109,109,109,109,109,109,109,109,109,109,109,150,151,0,0
</chunk>
   <chunk x="544" y="64" width="16" height="16">
0,0,0,0,0,0,0,0,0,0,0,0,0,0,0,0,
0,0,0,0,0,0,0,0,0,0,0,0,0,0,0,0,
0,0,0,0,0,0,0,0,0,0,0,0,0,0,0,0,
0,0,0,0,0,0,0,0,0,0,0,0,0,0,0,0,
0,0,0,0,0,0,0,0,0,0,0,0,0,0,0,0,
0,0,0,0,0,0,0,0,0,0,0,0,0,0,0,0,
0,0,0,0,0,0,0,0,0,0,0,0,0,0,0,0,
0,0,0,0,0,0,0,0,0,0,0,0,0,0,0,0,
0,0,0,0,0,0,0,0,0,0,0,0,0,0,0,0,
0,0,0,0,0,0,0,0,0,0,0,0,0,0,0,0,
0,0,0,0,0,0,0,0,0,0,0,0,0,0,0,0,
0,0,0,0,0,0,0,0,0,0,0,0,0,0,0,0,
0,0,0,0,0,0,0,0,0,0,0,0,100,101,101,101,
0,0,0,0,0,0,0,0,0,0,0,0,108,109,109,109,
0,0,0,0,0,0,0,0,0,0,0,0,116,109,109,109,
0,0,0,0,0,0,0,0,0,0,0,0,108,109,109,109
</chunk>
   <chunk x="560" y="64" width="16" height="16">
0,0,0,0,0,0,0,0,0,0,0,0,0,0,0,0,
0,0,0,0,0,0,0,0,0,0,0,0,0,0,0,0,
0,0,0,0,0,0,0,0,0,0,0,0,0,0,0,0,
0,0,0,0,0,0,0,0,0,0,0,0,0,0,0,0,
0,0,0,0,0,0,0,0,0,0,0,0,0,0,0,0,
0,0,0,0,0,0,0,0,0,0,0,0,0,0,0,0,
0,0,0,0,0,0,0,0,100,101,101,101,101,101,101,101,
0,0,0,0,0,0,0,0,108,109,109,109,109,109,109,109,
0,0,0,0,0,0,0,0,116,109,109,109,109,109,109,109,
0,0,0,0,0,0,0,0,108,109,109,109,109,109,109,109,
0,0,0,0,0,0,0,0,116,109,109,109,109,109,109,109,
0,0,0,0,0,0,0,0,108,109,109,109,109,109,109,109,
101,101,101,101,101,101,101,101,141,109,109,109,109,109,109,109,
109,109,109,109,109,109,109,109,109,109,109,109,109,109,109,109,
109,109,109,109,109,109,109,109,109,109,109,109,109,109,109,109,
109,109,109,109,109,109,109,109,109,109,109,109,109,109,109,109
</chunk>
   <chunk x="576" y="64" width="16" height="16">
0,0,0,0,0,0,0,0,0,0,0,0,0,0,0,0,
0,0,0,0,0,0,0,0,0,0,0,0,0,0,0,0,
0,0,0,0,0,0,0,0,0,0,0,0,0,0,0,0,
0,0,0,0,0,0,0,0,0,0,0,0,0,0,0,0,
0,0,0,0,0,0,0,0,0,0,0,0,0,0,0,0,
0,0,0,0,0,0,0,0,0,0,0,0,0,0,0,0,
101,101,101,101,101,101,101,101,101,101,101,101,101,101,101,101,
109,109,109,109,109,109,109,109,109,109,109,109,109,109,109,109,
109,109,109,109,109,109,109,109,109,109,109,109,109,109,109,109,
109,109,109,109,109,109,109,109,109,109,109,109,109,109,109,109,
109,109,109,109,109,109,109,109,109,109,109,109,109,109,109,109,
109,109,109,109,109,109,109,109,109,109,109,109,109,109,109,109,
109,109,109,109,109,109,109,109,109,109,109,109,109,109,109,109,
109,109,109,109,109,109,109,109,109,109,109,109,109,109,109,109,
109,109,109,109,109,109,109,109,109,109,109,109,109,109,109,109,
109,109,109,109,109,109,109,109,109,109,109,109,109,109,109,109
</chunk>
   <chunk x="592" y="64" width="16" height="16">
0,0,0,0,0,0,0,0,0,0,0,0,0,0,0,0,
0,0,0,0,0,0,0,0,0,0,0,0,0,0,0,0,
0,0,0,0,0,0,0,0,0,0,0,0,0,0,0,0,
0,0,0,0,0,0,0,0,0,0,0,0,0,0,0,0,
0,0,0,0,0,0,0,0,0,0,0,0,0,0,0,0,
0,0,0,0,0,0,0,0,0,0,0,0,0,0,0,0,
101,101,101,101,101,101,101,101,101,101,101,101,101,101,101,101,
109,109,109,109,109,109,109,109,109,109,109,109,109,109,109,109,
109,109,109,109,109,109,109,109,109,109,109,109,109,109,109,109,
109,109,109,109,109,109,109,109,109,109,109,109,109,109,109,109,
109,109,109,109,109,109,109,109,109,109,109,109,109,109,109,109,
109,109,109,109,109,109,109,109,109,109,109,109,109,109,109,109,
109,109,109,109,109,109,109,109,109,109,109,109,109,109,109,109,
109,109,109,109,109,109,109,109,109,109,109,109,109,109,109,109,
109,109,109,109,109,109,109,109,109,109,109,109,109,109,109,109,
109,109,109,109,109,109,109,109,109,109,109,109,109,109,109,109
</chunk>
   <chunk x="608" y="64" width="16" height="16">
0,0,0,0,0,0,0,0,0,0,0,0,0,0,0,0,
0,0,0,0,0,0,0,0,0,0,0,0,0,0,0,0,
0,0,0,0,0,0,0,0,0,0,0,0,0,0,0,0,
0,0,0,0,0,0,0,0,0,0,0,0,0,0,0,0,
0,0,0,0,0,0,0,0,0,0,0,0,0,0,0,0,
0,0,0,0,0,0,0,0,0,0,0,0,0,0,0,0,
101,101,101,101,101,101,101,101,103,0,0,0,0,0,0,0,
109,109,109,109,109,109,109,109,111,0,0,0,0,0,0,0,
109,109,109,109,109,109,109,109,119,0,0,0,0,0,0,0,
109,109,109,109,109,109,109,109,111,0,0,0,0,0,0,0,
109,109,109,109,109,109,109,109,119,0,0,0,0,0,0,0,
109,109,109,109,109,109,109,109,111,0,0,0,0,0,0,0,
109,109,109,109,109,109,109,109,119,0,0,0,0,0,0,0,
109,109,109,109,109,109,109,109,111,0,0,0,0,0,0,0,
109,109,109,109,109,109,109,109,119,0,0,0,0,0,0,0,
109,109,109,109,109,109,109,109,111,0,0,0,0,0,0,0
</chunk>
   <chunk x="640" y="64" width="16" height="16">
0,0,0,0,0,0,0,0,0,0,0,0,0,0,0,0,
0,0,0,0,0,0,0,0,0,0,0,0,0,0,0,0,
0,0,0,0,0,0,0,0,0,0,0,0,0,0,0,0,
0,0,0,0,0,0,0,0,0,0,0,0,0,0,0,0,
0,0,0,0,0,0,0,0,0,0,0,0,0,0,0,0,
0,0,0,0,0,0,0,0,0,0,0,0,0,0,0,0,
0,0,0,0,0,0,0,0,0,0,0,0,0,0,0,0,
0,0,0,0,0,0,0,0,0,0,0,0,0,0,0,0,
0,0,0,0,0,0,0,0,0,0,0,0,0,0,0,0,
0,0,0,0,0,0,0,0,0,0,0,0,0,0,0,0,
0,0,0,0,0,0,0,0,0,0,0,0,0,0,0,100,
0,0,0,0,100,101,101,101,101,101,101,101,101,101,101,141,
0,0,0,0,108,109,109,109,109,109,109,109,109,109,109,109,
0,0,0,0,116,109,109,109,109,109,109,109,109,109,109,109,
0,0,0,0,108,109,109,109,109,109,109,109,109,109,109,109,
0,0,0,0,116,109,109,109,109,109,109,109,109,109,109,109
</chunk>
   <chunk x="656" y="64" width="16" height="16">
0,0,0,0,0,0,0,0,0,0,0,0,0,0,0,0,
0,0,0,0,0,0,0,0,0,0,0,0,0,0,0,0,
0,0,0,0,0,0,0,0,0,0,0,0,0,0,0,0,
0,0,0,0,0,0,0,0,0,0,0,0,0,0,0,0,
0,0,0,0,0,0,0,0,0,0,0,0,0,0,0,0,
0,0,0,0,0,0,0,0,0,0,0,0,0,0,0,0,
0,0,0,0,0,0,0,0,0,0,0,0,0,0,0,0,
0,0,0,0,0,0,0,0,0,0,0,0,0,0,0,0,
0,100,101,101,101,101,101,101,101,101,101,101,103,0,0,0,
100,141,109,109,109,109,109,109,109,109,109,109,142,103,0,0,
141,109,109,109,109,109,109,109,109,109,109,109,109,142,103,0,
109,109,109,109,109,109,109,109,109,109,109,109,109,109,142,101,
109,109,109,109,109,109,109,109,109,109,109,109,109,109,109,109,
109,109,109,109,109,109,109,109,109,109,109,109,109,109,109,109,
109,109,109,109,109,109,109,109,109,109,109,109,109,109,109,109,
109,109,109,109,109,109,109,109,109,109,109,109,109,109,109,109
</chunk>
   <chunk x="672" y="64" width="16" height="16">
0,0,0,0,0,0,0,0,0,0,108,109,109,109,109,109,
0,0,0,0,0,0,0,0,0,0,116,109,109,109,109,109,
0,0,0,0,0,0,0,0,0,0,108,109,109,109,109,109,
0,0,0,0,0,0,0,0,0,0,116,109,109,109,109,109,
0,0,0,0,0,0,0,0,0,0,108,109,109,109,109,109,
0,0,0,0,0,0,0,0,0,0,116,109,109,109,109,109,
0,0,0,0,0,0,0,0,0,0,108,109,109,109,109,109,
0,0,0,0,0,0,0,0,0,0,116,109,109,109,109,109,
0,0,0,0,0,0,0,0,132,140,141,117,117,117,117,117,
0,0,0,0,0,0,0,132,133,141,109,117,117,117,117,117,
0,0,0,0,0,0,0,140,141,109,109,117,117,117,117,117,
101,101,101,101,101,101,101,141,109,109,109,117,117,117,117,117,
109,109,109,109,109,109,109,109,109,109,109,117,117,117,117,117,
109,109,109,109,109,109,109,109,109,109,109,117,117,117,117,117,
109,109,109,109,109,109,109,109,109,109,109,117,117,117,117,117,
109,109,109,109,109,109,109,109,109,109,109,117,117,117,117,117
</chunk>
   <chunk x="688" y="64" width="16" height="16">
109,109,109,109,109,109,109,109,109,109,109,0,0,0,0,0,
109,109,109,109,109,109,109,109,109,109,109,0,0,0,0,0,
109,109,109,109,109,109,109,109,109,109,109,0,0,0,0,0,
109,109,109,109,109,109,109,109,109,109,109,0,0,0,0,0,
109,109,109,109,109,109,109,109,109,109,109,0,0,0,0,0,
109,109,109,109,109,109,109,109,109,109,109,0,0,0,0,0,
109,109,109,109,109,109,109,109,109,109,109,0,0,0,0,0,
109,109,109,109,109,109,109,109,109,109,109,0,0,0,0,0,
117,117,117,117,117,117,117,117,117,117,117,0,0,0,0,0,
117,117,117,117,117,117,117,117,117,117,117,0,0,0,0,0,
117,117,117,117,117,117,117,117,117,117,117,0,0,0,0,0,
117,117,117,117,117,117,117,117,117,117,117,0,0,0,0,0,
117,117,117,117,117,117,117,117,117,117,117,0,0,0,0,0,
117,117,117,117,117,117,117,117,117,117,117,0,0,0,0,0,
117,117,117,117,117,117,117,117,117,117,117,0,0,0,0,0,
117,117,117,117,117,117,117,117,117,117,117,0,0,0,0,0
</chunk>
   <chunk x="416" y="80" width="16" height="16">
0,0,0,117,117,117,117,117,117,117,117,117,117,117,117,111,
0,0,0,117,117,117,117,117,117,117,117,117,117,117,117,119,
0,0,0,117,117,117,117,117,117,117,117,117,117,117,117,111,
0,0,0,117,117,117,117,117,117,117,117,117,117,117,117,119,
0,0,0,117,117,117,117,117,117,117,117,117,117,117,117,111,
0,0,0,117,117,117,117,117,117,117,117,117,117,117,117,119,
0,0,0,117,117,117,117,117,117,117,117,117,117,117,117,111,
0,0,0,117,117,117,117,117,117,117,117,117,117,117,117,119,
0,0,0,117,117,117,117,117,117,117,117,117,117,117,117,111,
0,0,0,117,117,117,117,117,117,117,117,117,117,117,117,119,
0,0,0,117,117,117,117,117,117,117,117,117,117,117,117,111,
0,0,0,117,117,117,117,117,117,117,117,117,117,117,117,119,
0,0,0,117,117,117,117,117,117,117,117,117,117,117,117,111,
0,0,0,117,117,117,117,117,117,117,117,117,117,117,117,119,
0,0,0,117,117,117,117,117,117,117,117,117,117,117,117,111,
0,0,0,117,117,117,117,117,117,117,117,117,117,117,117,119
</chunk>
   <chunk x="496" y="80" width="16" height="16">
0,0,0,0,0,0,0,0,0,0,0,0,0,0,156,148,
0,0,0,0,0,0,0,0,0,0,0,0,0,0,0,156,
0,0,0,0,0,0,0,0,0,0,0,0,0,0,0,0,
0,0,0,0,0,0,0,0,0,0,0,0,0,0,0,0,
0,0,0,0,0,0,0,0,0,0,0,0,0,0,0,0,
0,0,0,0,0,0,0,0,0,0,0,0,0,0,0,0,
0,0,0,0,0,0,0,0,0,0,0,0,0,0,0,0,
0,0,0,0,0,0,0,0,0,0,0,0,0,0,0,0,
0,0,0,0,0,0,0,0,0,0,0,0,0,0,0,0,
0,0,0,0,0,0,0,0,0,0,0,0,0,0,0,0,
0,0,0,0,0,0,0,0,0,0,0,0,0,0,0,0,
0,0,0,0,0,0,0,0,0,0,0,0,0,0,0,0,
0,0,0,0,0,0,0,0,0,0,0,0,0,0,0,0,
0,0,0,0,0,0,0,0,0,0,0,0,0,0,0,0,
0,0,0,0,0,0,0,0,0,0,0,0,0,0,0,0,
0,0,0,0,0,0,0,0,0,0,0,0,0,0,0,0
</chunk>
   <chunk x="512" y="80" width="16" height="16">
149,109,109,109,109,109,109,109,109,109,109,109,109,109,109,109,
148,149,109,109,109,109,109,109,109,109,109,109,109,109,109,109,
156,157,126,126,126,126,126,126,126,126,126,126,126,126,126,126,
0,0,0,0,0,0,0,0,0,0,0,0,0,0,0,0,
0,0,0,0,0,0,0,0,0,0,0,0,0,0,0,0,
0,0,0,0,0,0,0,0,0,0,0,0,0,0,0,0,
0,0,0,0,0,0,0,0,0,0,0,0,0,0,0,0,
0,0,0,0,0,0,0,0,0,0,0,0,0,0,0,0,
0,0,0,0,0,0,0,0,0,0,0,0,0,0,0,0,
0,0,0,0,0,0,0,0,0,0,0,0,0,0,0,0,
0,0,0,0,0,0,0,0,0,0,0,0,0,0,0,0,
0,0,0,0,0,0,0,0,0,0,0,0,0,0,0,0,
0,0,0,0,0,0,0,0,0,0,0,0,0,0,0,0,
0,0,0,0,0,0,0,0,0,0,0,0,0,0,0,0,
0,0,0,0,0,0,0,0,0,0,0,0,0,0,0,0,
0,0,0,0,0,0,0,0,0,0,0,0,0,0,0,0
</chunk>
   <chunk x="528" y="80" width="16" height="16">
109,109,109,109,109,109,109,109,109,109,109,150,151,159,0,0,
109,109,109,109,109,109,109,109,109,109,150,151,159,0,0,0,
126,126,126,126,126,126,126,126,126,126,158,159,0,0,0,0,
0,0,0,0,0,0,0,0,0,0,0,0,0,0,0,0,
0,0,0,0,0,0,0,0,0,0,0,0,0,0,0,0,
0,0,0,0,0,0,0,0,0,0,0,0,0,0,0,0,
0,0,0,0,0,0,0,0,0,0,0,0,0,0,0,0,
0,0,0,0,0,0,0,0,0,0,0,0,0,0,0,0,
0,0,0,0,0,0,0,0,0,0,0,0,0,0,0,0,
0,0,0,0,0,0,0,0,0,0,0,0,0,0,0,0,
0,0,0,0,0,0,0,0,0,0,0,0,0,0,0,0,
0,0,0,0,0,0,0,0,0,0,0,0,0,0,0,0,
0,0,0,0,0,0,0,0,0,0,0,0,0,0,0,0,
0,0,0,0,0,0,0,0,0,0,0,0,0,0,0,0,
0,0,0,0,0,0,0,0,0,0,0,0,0,0,0,0,
0,0,0,0,0,0,0,0,0,0,0,0,0,0,0,0
</chunk>
   <chunk x="544" y="80" width="16" height="16">
0,0,0,0,0,0,0,0,0,0,0,0,116,109,109,109,
0,0,0,0,0,0,0,0,0,0,0,0,108,109,109,109,
0,0,0,0,0,0,0,0,0,0,0,0,116,109,109,109,
0,0,0,0,0,0,0,0,0,0,0,0,108,109,109,109,
0,0,0,0,0,0,0,0,0,0,0,0,116,109,109,109,
0,0,0,0,0,0,0,0,0,0,0,0,108,109,109,109,
0,0,0,0,0,0,0,0,0,0,0,0,148,149,109,109,
0,0,0,0,0,0,0,0,0,0,0,0,156,148,149,109,
0,0,0,0,0,0,0,0,0,0,0,0,0,156,157,125,
0,0,0,0,0,0,0,0,0,0,0,0,0,0,0,0,
0,0,0,0,0,0,0,0,0,0,0,0,0,0,0,0,
0,0,0,0,0,0,0,0,0,0,0,0,0,0,0,0,
0,0,0,0,0,0,0,0,0,0,0,0,0,0,0,0,
0,0,0,0,0,0,0,0,0,0,0,0,0,0,0,0,
0,0,0,0,0,0,0,0,0,0,0,0,0,0,0,0,
0,0,0,0,0,0,0,0,0,0,0,0,0,0,0,0
</chunk>
   <chunk x="560" y="80" width="16" height="16">
109,109,109,109,109,109,109,109,109,109,109,109,109,109,109,109,
109,109,109,109,109,109,109,109,109,109,109,109,109,109,109,109,
109,109,109,109,109,109,109,109,109,109,109,109,109,109,109,109,
109,109,109,109,109,109,109,109,150,126,126,126,126,126,126,126,
109,109,109,109,109,109,109,109,111,0,0,0,0,0,0,0,
109,109,109,109,109,109,109,109,119,0,0,0,0,0,0,0,
109,109,109,109,109,109,109,109,111,0,0,0,0,0,0,0,
109,109,109,109,109,109,109,109,119,0,0,0,0,0,0,0,
126,125,126,125,126,125,126,125,127,0,0,0,0,0,0,0,
0,0,0,0,0,0,0,0,0,0,0,0,0,0,0,0,
0,0,0,0,0,0,0,0,0,0,0,0,0,0,0,0,
0,0,0,0,0,0,0,0,0,0,0,0,0,0,0,0,
0,0,0,0,0,0,0,0,0,0,0,0,0,0,0,0,
0,0,0,0,0,0,0,0,0,0,0,0,0,0,0,0,
0,0,0,0,0,0,0,0,0,0,0,0,0,0,0,0,
0,0,0,0,0,0,0,0,0,0,0,0,0,0,0,0
</chunk>
   <chunk x="576" y="80" width="16" height="16">
109,109,109,109,109,109,109,109,109,109,109,109,109,109,109,109,
109,109,109,109,109,109,109,109,109,109,109,109,109,109,109,109,
109,109,109,109,109,109,109,109,109,109,109,109,109,109,109,109,
126,126,126,149,109,109,109,109,109,109,109,109,109,109,109,109,
0,0,0,108,109,109,109,109,109,109,109,109,109,109,109,109,
0,0,0,116,109,109,109,109,109,109,109,109,109,109,109,109,
0,0,0,108,109,109,109,109,109,109,109,109,109,109,109,109,
0,0,0,116,109,109,109,109,109,109,109,109,109,109,109,109,
0,0,0,108,109,109,109,109,109,109,109,109,109,109,109,109,
0,0,0,124,125,126,125,126,125,126,125,126,125,126,125,126,
0,0,0,0,0,0,0,0,0,0,0,0,0,0,0,0,
0,0,0,0,0,0,0,0,0,0,0,0,0,0,0,0,
0,0,0,0,0,0,0,0,0,0,0,0,0,0,0,0,
0,0,0,0,0,0,0,0,0,0,0,0,0,0,0,0,
0,0,0,0,0,0,0,0,0,0,0,0,0,0,0,0,
0,0,0,0,0,0,0,0,0,0,0,0,0,0,0,0
</chunk>
   <chunk x="592" y="80" width="16" height="16">
109,109,109,109,109,109,109,109,109,109,109,109,109,109,109,109,
109,109,109,109,109,109,109,109,109,109,109,109,109,109,109,109,
109,109,109,109,109,109,109,109,109,109,109,109,109,109,109,109,
109,109,109,109,109,109,109,109,109,109,109,109,109,109,109,109,
109,109,109,109,109,109,109,109,109,109,109,109,109,109,109,109,
109,109,109,109,109,109,109,109,109,109,109,109,109,109,109,109,
109,109,109,109,109,109,109,109,109,109,109,109,109,109,109,109,
109,109,109,109,109,109,109,109,109,109,109,109,109,109,109,109,
109,109,109,109,109,109,109,109,109,109,109,109,109,109,109,109,
125,126,125,126,125,126,125,126,125,126,125,126,125,126,125,126,
0,0,0,0,0,0,0,0,0,0,0,0,0,0,0,0,
0,0,0,0,0,0,0,0,0,0,0,0,0,0,0,0,
0,0,0,0,0,0,0,0,0,0,0,0,0,0,0,0,
0,0,0,0,0,0,0,0,0,0,0,0,0,0,0,0,
0,0,0,0,0,0,0,0,0,0,0,0,0,0,0,0,
0,0,0,0,0,0,0,0,0,0,0,0,0,0,0,0
</chunk>
   <chunk x="608" y="80" width="16" height="16">
109,109,109,109,109,109,109,109,119,0,0,0,0,0,0,0,
109,109,109,109,109,109,109,109,111,0,0,0,0,0,0,0,
109,109,109,109,109,109,109,109,119,0,0,0,0,0,0,0,
109,109,109,109,109,109,109,109,111,0,0,0,0,0,0,0,
109,109,109,109,109,109,109,109,119,0,0,0,0,0,0,0,
109,109,109,109,109,109,109,109,111,0,0,0,0,0,0,0,
109,109,109,109,109,109,109,150,151,0,0,0,0,0,0,0,
109,109,109,109,109,109,150,151,159,0,0,0,0,0,0,0,
109,109,109,109,109,150,151,159,0,0,0,0,0,0,0,0,
125,126,125,126,125,158,159,0,0,0,0,0,0,0,0,0,
0,0,0,0,0,0,0,0,0,0,0,0,0,0,0,0,
0,0,0,0,0,0,0,0,0,0,0,0,0,0,0,0,
0,0,0,0,0,0,0,0,0,0,0,0,0,0,0,0,
0,0,0,0,0,0,0,0,0,0,0,0,0,0,0,0,
0,0,0,0,0,0,0,0,0,0,0,0,0,0,0,0,
0,0,0,0,0,0,0,0,0,0,0,0,0,0,0,0
</chunk>
   <chunk x="640" y="80" width="16" height="16">
0,0,0,0,108,109,109,109,109,109,109,109,109,109,109,109,
0,0,0,0,116,109,109,109,109,109,109,109,109,109,109,109,
0,0,0,0,108,109,109,109,109,109,109,109,109,109,109,109,
0,0,0,0,116,109,109,109,109,109,109,109,109,109,109,109,
0,0,0,0,148,149,109,109,109,109,109,109,109,109,109,109,
0,0,0,0,156,157,149,109,109,109,109,109,109,109,109,109,
0,0,0,0,0,156,157,126,126,126,126,126,126,126,126,126,
0,0,0,0,0,0,0,0,0,0,0,0,0,0,0,156,
0,0,0,0,0,0,0,0,0,0,0,0,0,0,0,0,
0,0,0,0,0,0,0,0,0,0,0,0,0,0,0,0,
0,0,0,0,0,0,0,0,0,0,0,0,0,0,0,0,
0,0,0,0,0,0,0,0,0,0,0,0,0,0,0,0,
0,0,0,0,0,0,0,0,0,0,0,0,0,0,0,0,
0,0,0,0,0,0,0,0,0,0,0,0,0,0,0,0,
0,0,0,0,0,0,0,0,0,0,0,0,0,0,0,0,
0,0,0,0,0,0,0,0,0,0,0,0,0,0,0,0
</chunk>
   <chunk x="656" y="80" width="16" height="16">
109,109,109,109,109,109,109,109,109,109,109,109,109,109,109,109,
109,109,109,109,109,109,109,109,109,109,109,109,109,109,109,109,
109,109,109,109,109,109,109,109,109,109,109,109,109,109,109,109,
109,109,109,109,109,109,109,109,109,109,109,109,109,109,109,109,
109,109,109,109,109,109,109,109,109,109,109,109,109,109,109,109,
109,109,109,109,109,109,109,109,109,109,109,109,109,109,109,109,
149,109,109,109,109,109,109,109,109,109,109,109,109,109,109,109,
157,109,109,109,109,109,109,109,109,109,109,109,109,109,109,109,
0,148,149,109,109,109,109,109,109,109,109,109,109,109,109,109,
0,156,157,149,109,109,109,109,109,109,109,109,109,109,109,109,
0,0,0,116,109,109,109,109,109,109,109,109,109,109,109,109,
0,0,0,108,109,109,109,109,109,109,109,109,109,109,109,109,
0,0,0,116,109,109,109,109,109,109,109,109,109,109,109,109,
0,0,0,108,109,109,109,109,109,109,109,109,109,109,109,109,
0,0,0,116,109,109,109,109,109,109,109,109,109,109,109,109,
0,0,0,124,126,125,126,125,126,125,126,125,126,125,126,125
</chunk>
   <chunk x="672" y="80" width="16" height="16">
109,109,109,109,109,109,109,109,109,109,109,117,117,117,117,117,
109,109,109,109,109,109,109,109,109,109,109,117,117,117,117,117,
109,109,109,109,109,109,109,109,109,109,109,117,117,117,117,117,
109,109,109,109,109,109,109,109,109,109,109,117,117,117,117,117,
109,109,109,109,109,109,109,109,109,109,109,117,117,117,117,117,
109,109,109,109,109,109,109,109,109,109,109,117,117,117,117,117,
109,109,109,109,109,109,109,109,109,109,109,117,117,117,117,117,
109,109,109,109,109,109,109,109,109,109,109,117,117,117,117,117,
109,109,109,109,109,109,109,109,109,109,109,117,117,117,117,117,
109,109,109,109,109,109,109,109,109,109,109,117,117,117,117,117,
109,109,109,109,109,109,109,109,109,109,109,117,117,117,117,117,
109,109,109,109,109,109,109,109,109,109,109,117,117,117,117,117,
109,109,109,109,109,109,109,109,109,109,109,117,117,117,117,117,
109,109,109,109,109,109,109,109,109,109,109,117,117,117,117,117,
109,109,109,109,109,109,109,109,109,109,109,117,117,117,117,117,
126,125,126,125,126,125,126,125,126,125,126,125,126,149,117,117
</chunk>
   <chunk x="688" y="80" width="16" height="16">
117,117,117,117,117,117,117,117,117,117,117,0,0,0,0,0,
117,117,117,117,117,117,117,117,117,117,117,0,0,0,0,0,
117,117,117,117,117,117,117,117,117,117,117,0,0,0,0,0,
117,117,117,117,117,117,117,117,117,117,117,0,0,0,0,0,
117,117,117,117,117,117,117,117,117,117,117,0,0,0,0,0,
117,117,117,117,117,117,117,117,117,117,117,0,0,0,0,0,
117,117,117,117,117,117,117,117,117,117,117,0,0,0,0,0,
117,117,117,117,117,117,117,117,117,117,117,0,0,0,0,0,
117,117,117,117,117,117,117,117,117,117,117,0,0,0,0,0,
117,117,117,117,117,117,117,117,117,117,117,0,0,0,0,0,
117,117,117,117,117,117,117,117,117,117,117,0,0,0,0,0,
117,117,117,117,117,117,117,117,117,117,117,0,0,0,0,0,
117,117,117,117,117,117,117,117,117,117,117,0,0,0,0,0,
117,117,117,117,117,117,117,117,117,117,117,0,0,0,0,0,
117,117,117,117,117,117,117,117,117,117,117,0,0,0,0,0,
117,117,117,117,117,117,117,117,117,117,117,0,0,0,0,0
</chunk>
   <chunk x="416" y="96" width="16" height="16">
0,0,0,117,117,117,117,117,117,117,117,117,117,117,117,111,
0,0,0,117,117,117,117,117,117,117,117,117,117,117,117,119,
0,0,0,117,117,117,117,117,117,117,117,117,117,117,117,111,
0,0,0,117,117,117,117,117,117,117,117,117,117,117,117,119,
0,0,0,117,117,117,117,117,117,117,117,117,117,117,117,111,
0,0,0,117,117,117,117,117,117,117,117,117,117,117,117,119,
0,0,0,117,117,117,117,117,117,117,117,117,117,117,117,111,
0,0,0,117,117,117,117,117,117,117,117,117,117,117,117,119,
0,0,0,117,117,117,117,117,117,117,117,117,117,117,117,111,
0,0,0,117,117,117,117,117,117,117,117,117,117,117,117,119,
0,0,0,117,117,117,117,117,117,117,117,117,117,117,117,111,
0,0,0,117,117,117,117,117,117,117,117,117,117,117,117,119,
0,0,0,117,117,117,117,117,117,117,117,117,117,117,117,111,
0,0,0,117,117,117,117,117,117,117,117,117,117,117,117,119,
0,0,0,117,117,117,117,117,117,117,117,117,117,117,117,142,
0,0,0,109,109,109,109,109,109,109,109,109,109,109,109,109
</chunk>
   <chunk x="432" y="96" width="16" height="16">
0,0,0,0,0,0,0,0,0,0,0,0,0,0,0,0,
0,0,0,0,0,0,0,0,0,0,0,0,0,0,0,0,
0,0,0,0,0,0,0,0,0,0,0,0,0,0,0,0,
0,0,0,0,0,0,0,0,0,0,0,0,0,0,0,0,
0,0,0,0,0,0,0,0,0,0,0,0,0,0,0,0,
0,0,0,0,0,0,0,0,0,0,0,0,0,0,0,0,
0,0,0,0,0,0,0,0,0,0,0,0,0,0,0,0,
0,0,0,0,0,0,0,0,0,0,0,0,0,0,0,0,
0,0,0,0,0,0,0,0,0,0,0,0,0,0,0,0,
0,0,0,0,0,0,0,0,0,0,0,0,0,0,0,0,
0,0,0,0,0,0,0,0,0,0,0,0,0,0,0,0,
0,0,0,0,0,0,0,0,0,0,0,0,0,0,0,0,
0,0,0,0,0,0,0,0,0,0,0,0,0,0,0,0,
0,0,0,0,0,0,0,0,0,0,0,0,0,0,0,0,
101,101,101,101,101,101,101,101,101,101,101,101,101,101,101,101,
109,109,109,109,109,109,109,109,109,109,109,109,109,109,109,109
</chunk>
   <chunk x="448" y="96" width="16" height="16">
0,0,0,0,0,0,0,0,0,0,0,0,0,0,0,0,
0,0,0,0,0,0,0,0,0,0,0,0,0,0,0,0,
0,0,0,0,0,0,0,0,0,0,0,0,0,0,0,0,
0,0,0,0,0,0,0,0,0,0,0,0,0,0,0,0,
0,0,0,0,0,0,0,0,0,0,0,0,0,0,0,0,
0,0,0,0,0,0,0,0,0,0,0,0,0,0,0,0,
0,0,0,0,0,0,0,0,0,0,0,0,0,0,0,0,
0,0,0,0,0,0,0,0,0,0,0,0,0,0,0,0,
0,0,0,0,0,0,0,0,0,0,0,0,0,0,0,0,
0,0,0,0,0,0,0,0,0,0,0,0,0,0,0,0,
0,0,0,0,0,0,0,0,0,0,0,0,0,0,0,0,
0,0,0,0,0,0,0,0,0,0,0,0,0,0,0,0,
0,0,0,0,0,0,0,0,0,0,0,0,0,0,0,0,
0,0,0,0,0,0,0,0,0,0,0,0,0,0,0,0,
101,101,101,101,101,101,101,101,101,101,101,101,101,101,101,101,
109,109,109,109,109,109,109,109,109,109,109,109,109,109,109,109
</chunk>
   <chunk x="464" y="96" width="16" height="16">
0,0,0,0,0,0,0,0,0,0,0,0,0,0,0,0,
0,0,0,0,0,0,0,0,0,0,0,0,0,0,0,0,
0,0,0,0,0,0,0,0,0,0,0,0,0,0,0,0,
0,0,0,0,0,0,0,0,0,0,0,0,0,0,0,0,
0,0,0,0,0,0,0,0,0,0,0,0,0,0,0,0,
0,0,0,0,0,0,0,0,0,0,0,0,0,0,0,0,
0,0,0,0,0,0,0,0,0,0,0,0,0,0,0,0,
0,0,0,0,0,0,0,0,0,0,0,0,0,0,0,0,
0,0,0,0,0,0,0,0,0,0,0,0,0,0,0,0,
0,0,0,0,0,0,0,0,0,0,0,0,0,0,0,0,
0,0,0,0,0,0,0,0,0,0,0,0,0,0,0,0,
0,0,0,0,0,0,0,0,0,0,0,0,0,0,0,0,
0,0,0,0,0,0,0,0,0,0,0,0,0,0,0,0,
0,0,0,0,0,0,0,0,0,0,0,0,0,0,0,0,
101,101,101,101,101,101,101,101,101,101,101,101,101,101,101,101,
109,109,109,109,109,109,109,109,109,109,109,109,109,109,109,109
</chunk>
   <chunk x="480" y="96" width="16" height="16">
0,0,0,0,0,0,0,0,0,0,0,0,0,0,0,0,
0,0,0,0,0,0,0,0,0,0,0,0,0,0,0,0,
0,0,0,0,0,0,0,0,0,0,0,0,0,0,0,0,
0,0,0,0,0,0,0,0,0,0,0,0,0,0,0,0,
0,0,0,0,0,0,0,0,0,0,0,0,0,0,0,0,
0,0,0,0,0,0,0,0,0,0,0,0,0,0,0,0,
0,0,0,0,0,0,0,0,0,0,0,0,0,0,0,0,
0,0,0,0,0,0,0,0,0,0,0,0,0,0,0,0,
0,0,0,0,0,0,0,0,0,0,0,0,0,0,0,0,
0,0,0,0,0,0,0,0,0,0,0,0,0,0,0,0,
0,0,0,0,0,0,0,0,0,0,0,0,0,0,0,0,
0,0,0,0,0,0,0,0,0,0,0,0,0,0,0,0,
0,0,0,0,0,0,0,0,0,0,0,0,0,0,0,0,
0,0,0,0,0,0,0,0,0,0,0,0,0,0,0,0,
101,101,101,101,101,101,101,101,101,101,101,101,101,101,101,101,
109,109,109,109,109,109,109,109,109,109,109,109,109,109,109,109
</chunk>
   <chunk x="496" y="96" width="16" height="16">
0,0,0,0,0,0,0,0,0,0,0,0,0,0,0,0,
0,0,0,0,0,0,0,0,0,0,0,0,0,0,0,0,
0,0,0,0,0,0,0,0,0,0,0,0,0,0,0,0,
0,0,0,0,0,0,0,0,0,0,0,0,0,100,101,101,
0,0,0,0,0,0,0,0,0,0,0,0,0,108,109,109,
0,0,0,0,0,0,0,0,0,0,0,0,0,116,109,109,
0,0,0,0,0,0,0,0,0,0,0,0,0,108,109,109,
0,0,0,0,0,0,0,0,0,0,0,0,0,116,109,109,
0,0,0,0,0,0,0,0,0,0,0,0,0,108,109,109,
0,0,0,0,0,0,0,0,0,0,0,0,0,116,109,109,
0,0,0,0,0,0,0,0,0,0,0,0,0,108,109,109,
0,0,0,0,0,0,0,0,0,0,0,0,0,116,109,109,
0,0,0,0,0,0,0,0,0,0,0,0,0,108,109,109,
0,0,0,0,0,0,0,0,0,0,0,0,0,116,109,109,
101,101,101,101,101,101,101,101,101,101,101,101,101,141,109,109,
109,109,109,109,109,109,109,109,109,109,109,109,109,109,109,109
</chunk>
   <chunk x="512" y="96" width="16" height="16">
0,0,0,0,0,0,0,0,0,0,0,0,0,0,0,0,
0,0,0,0,0,0,0,0,0,0,0,0,0,0,0,0,
0,0,0,0,0,0,0,0,0,0,0,0,0,0,0,0,
101,101,103,0,0,0,0,0,0,0,0,0,0,0,0,0,
109,109,142,101,101,101,101,103,0,0,0,0,0,0,0,0,
109,109,109,109,109,109,109,119,0,0,0,0,0,0,0,0,
109,109,109,109,109,109,109,142,101,101,101,101,101,101,101,101,
109,109,109,109,109,109,109,109,109,109,109,109,109,109,109,109,
109,109,109,109,109,109,109,109,109,109,109,109,109,109,109,109,
109,109,109,109,109,109,109,109,109,109,109,109,109,109,109,109,
109,109,109,109,109,109,109,109,109,109,109,109,109,109,109,109,
109,109,109,109,109,109,109,109,109,109,109,109,109,109,109,109,
109,109,109,109,109,109,109,109,109,109,109,109,109,109,109,109,
109,109,109,109,109,109,109,109,109,109,109,109,109,109,109,109,
109,109,109,109,109,109,109,109,109,109,109,109,109,109,109,109,
109,109,109,109,109,109,109,109,109,109,109,109,109,109,109,109
</chunk>
   <chunk x="528" y="96" width="16" height="16">
0,0,0,0,0,0,0,0,0,0,0,0,0,0,0,0,
0,0,0,0,0,0,0,0,0,0,0,0,0,0,0,0,
0,0,0,0,0,0,0,0,0,0,0,0,0,0,0,0,
0,0,0,0,0,0,0,0,0,0,0,0,0,0,0,0,
0,0,0,0,0,0,0,0,0,0,0,0,0,0,0,0,
0,0,0,0,0,0,0,0,0,0,0,0,0,0,0,0,
101,101,101,101,101,101,101,101,101,101,101,101,101,101,101,101,
109,109,109,109,109,109,109,109,109,109,109,109,109,109,109,109,
109,109,109,109,109,109,109,109,109,109,109,109,109,109,109,109,
109,109,109,109,109,109,109,109,109,109,109,109,109,109,109,109,
109,109,109,109,109,109,109,109,109,109,109,109,109,109,109,109,
109,109,109,109,109,109,109,109,109,109,109,109,109,109,109,109,
109,109,109,109,109,109,109,109,109,109,109,109,109,109,109,109,
109,109,109,109,109,109,109,109,109,109,109,109,109,109,109,109,
109,109,109,109,109,109,109,109,109,109,109,109,109,109,109,109,
109,109,109,109,109,109,109,109,109,109,109,109,109,109,109,109
</chunk>
   <chunk x="544" y="96" width="16" height="16">
0,0,0,0,0,0,0,0,0,0,0,0,0,0,0,0,
0,0,0,0,0,0,0,0,0,0,0,0,0,0,0,0,
0,0,0,0,0,0,0,0,0,0,0,0,0,0,0,0,
0,0,0,0,0,0,0,0,0,0,0,0,0,0,0,0,
0,0,0,0,0,0,0,0,0,0,0,0,0,0,0,0,
0,0,0,0,0,0,0,0,0,0,0,0,0,0,0,0,
101,101,101,101,101,101,101,101,101,101,101,101,101,101,101,101,
109,109,109,109,109,109,109,109,109,109,109,109,109,109,109,109,
109,109,109,109,109,109,109,109,109,109,109,109,109,109,109,109,
109,109,109,109,109,109,109,109,109,109,109,109,109,109,109,109,
109,109,109,109,109,109,109,109,109,109,109,109,109,109,109,109,
109,109,109,109,109,109,109,109,109,109,109,109,109,109,109,109,
109,109,109,109,109,109,109,109,109,109,109,109,109,109,109,109,
109,109,109,109,109,109,109,109,109,109,109,109,109,109,109,109,
109,109,109,109,109,109,109,109,109,109,109,109,109,109,109,109,
109,109,109,109,109,109,109,109,109,109,109,109,109,109,109,109
</chunk>
   <chunk x="560" y="96" width="16" height="16">
0,0,0,0,0,0,0,0,0,0,0,0,0,0,0,0,
0,0,0,0,0,0,0,0,0,0,0,0,0,0,0,0,
0,0,0,0,0,0,0,0,0,0,0,0,0,0,0,0,
0,0,0,0,0,0,0,0,0,0,0,0,0,0,0,0,
0,0,0,0,0,0,0,0,0,0,0,0,0,0,0,0,
0,0,0,0,0,0,0,0,0,0,0,0,0,0,0,0,
101,101,101,101,101,101,101,101,101,101,101,101,101,101,101,101,
109,109,109,109,109,109,109,109,109,109,109,109,109,109,109,109,
109,109,109,109,109,109,109,109,109,109,109,109,109,109,109,109,
109,109,109,109,109,109,109,109,109,109,109,109,109,109,109,109,
109,109,109,109,109,109,109,109,109,109,109,109,109,109,109,109,
109,109,109,109,109,109,109,109,109,109,109,109,109,109,109,109,
109,109,109,109,109,109,109,109,109,109,109,109,109,109,109,109,
109,109,109,109,109,109,109,109,109,109,109,109,109,109,109,109,
109,109,109,109,109,109,109,109,109,109,109,109,109,109,109,109,
109,109,109,109,109,109,109,109,109,109,109,109,109,109,109,109
</chunk>
   <chunk x="576" y="96" width="16" height="16">
0,0,0,0,0,0,0,0,0,0,0,0,0,0,0,0,
0,0,0,0,0,0,0,0,0,0,0,0,0,0,0,0,
0,0,0,0,0,0,0,0,0,0,0,0,0,0,0,0,
0,0,0,0,0,0,0,0,0,0,0,0,0,0,0,0,
0,0,0,0,0,0,0,0,0,0,0,0,0,0,0,0,
0,0,0,0,0,0,0,0,0,0,0,0,0,0,0,0,
101,101,101,101,101,101,101,101,101,101,101,101,101,101,101,101,
109,109,109,109,109,109,109,109,109,109,109,109,109,109,109,109,
109,109,109,109,109,109,109,109,109,109,109,109,109,109,109,109,
109,109,109,109,109,109,109,109,109,109,109,109,109,109,109,109,
109,109,109,109,109,109,109,109,109,109,109,109,109,109,109,109,
109,109,109,109,109,109,109,109,109,109,109,109,109,109,109,109,
109,109,109,109,109,109,109,109,109,109,109,109,109,109,109,109,
109,109,109,109,109,109,109,109,109,109,109,109,109,109,109,109,
109,109,109,109,109,109,109,109,109,109,109,109,109,109,109,109,
109,109,109,109,109,109,109,109,109,109,109,109,109,109,109,109
</chunk>
   <chunk x="592" y="96" width="16" height="16">
0,0,0,0,0,0,0,0,0,0,0,0,0,0,0,0,
0,0,0,0,0,0,0,0,0,0,0,0,0,0,0,0,
0,0,0,0,0,0,0,0,0,0,0,0,0,0,0,0,
0,0,0,0,0,0,0,0,0,0,0,0,0,0,0,0,
0,0,0,0,0,0,0,0,0,0,0,0,0,0,0,0,
0,0,0,0,0,0,0,0,0,0,0,0,0,0,0,0,
101,101,101,101,101,101,101,101,101,101,101,101,101,101,101,101,
109,109,109,109,109,109,109,109,109,109,109,109,109,109,109,109,
109,109,109,109,109,109,109,109,109,109,109,109,109,109,109,109,
109,109,109,109,109,109,109,109,109,109,109,109,109,109,109,109,
109,109,109,109,109,109,109,109,109,109,109,109,109,109,109,109,
109,109,109,109,109,109,109,109,109,109,109,109,109,109,109,109,
109,109,109,109,109,109,109,109,109,109,109,109,109,109,109,109,
109,109,109,109,109,109,109,109,109,109,109,109,109,109,109,109,
109,109,109,109,109,109,109,109,109,109,109,109,109,109,109,109,
109,109,109,109,109,109,109,109,109,109,109,109,109,109,109,109
</chunk>
   <chunk x="608" y="96" width="16" height="16">
0,0,0,0,0,0,0,0,0,0,0,0,0,0,0,0,
0,0,0,0,0,0,0,0,0,0,0,0,0,0,0,0,
0,0,0,0,0,0,0,0,0,0,0,0,0,0,0,0,
0,0,0,0,0,0,0,0,0,0,0,0,0,0,0,0,
0,0,0,0,0,0,0,0,0,0,0,0,0,0,0,0,
0,0,0,0,0,0,0,0,0,0,0,0,0,0,0,0,
101,101,101,101,101,101,101,101,101,101,101,101,101,101,101,101,
109,109,109,109,109,109,109,109,109,109,109,109,109,109,109,109,
109,109,109,109,109,109,109,109,109,109,109,109,109,109,109,109,
109,109,109,109,109,109,109,109,109,109,109,109,109,109,109,109,
109,109,109,109,109,109,109,109,109,109,109,109,109,109,109,109,
109,109,109,109,109,109,109,109,109,109,109,109,109,109,109,109,
109,109,109,109,109,109,109,109,109,109,109,109,109,109,109,109,
109,109,109,109,109,109,109,109,109,109,109,109,109,109,109,109,
109,109,109,109,109,109,109,109,109,109,109,109,109,109,109,109,
109,109,109,109,109,109,109,109,109,109,109,109,109,109,109,109
</chunk>
   <chunk x="624" y="96" width="16" height="16">
0,0,0,0,100,101,101,101,101,101,101,101,101,101,101,102,
0,0,0,0,108,109,109,109,109,109,109,109,109,109,109,110,
0,0,0,0,108,109,109,109,109,109,109,109,109,109,109,109,
0,0,0,0,116,109,109,109,109,109,109,109,109,109,109,109,
0,0,0,0,108,109,109,109,109,109,109,109,109,109,109,109,
0,0,0,0,116,109,109,109,109,109,109,109,109,109,109,109,
101,101,101,101,141,109,109,109,109,109,109,109,109,109,109,109,
109,109,109,109,109,109,109,109,109,109,109,109,109,109,109,109,
109,109,109,109,109,109,109,109,109,109,109,109,109,109,109,109,
109,109,109,109,109,109,109,109,109,109,109,109,109,109,109,109,
109,109,109,109,109,109,109,109,109,109,109,109,109,109,109,109,
109,109,109,109,109,109,109,109,109,109,109,109,109,109,109,109,
109,109,109,109,109,109,109,109,109,109,109,109,109,109,109,109,
109,109,109,109,109,109,109,109,109,109,109,109,109,109,109,109,
109,109,109,109,109,109,109,109,109,109,109,109,109,109,109,109,
109,109,109,109,109,109,109,109,109,109,109,109,109,109,109,109
</chunk>
   <chunk x="640" y="96" width="16" height="16">
103,0,0,0,0,0,0,0,0,0,0,0,0,0,0,0,
111,0,0,0,0,0,0,0,0,0,0,0,0,0,0,0,
111,0,0,0,0,0,0,0,0,0,0,0,0,0,0,0,
119,0,0,0,0,0,0,0,0,0,0,0,0,0,0,0,
111,0,0,0,0,0,0,0,0,0,0,0,0,0,0,0,
119,0,0,0,0,0,0,0,0,0,0,0,0,0,0,0,
142,103,0,0,0,0,0,0,0,0,0,0,0,0,0,0,
109,142,103,0,0,0,0,0,0,0,0,0,0,0,0,0,
109,109,142,101,0,0,0,0,0,0,0,0,0,0,0,0,
109,109,101,101,101,101,101,101,101,101,101,101,101,101,101,101,
109,109,109,109,109,109,109,109,109,109,109,109,109,109,109,109,
109,109,109,109,109,109,109,109,109,109,109,109,109,109,109,109,
109,109,109,109,109,109,109,109,109,109,109,109,109,109,109,109,
109,109,109,109,109,109,109,109,109,109,109,109,109,109,109,109,
109,109,109,109,109,109,109,109,109,109,109,109,109,109,109,109,
109,109,109,109,109,109,109,109,109,109,109,109,109,109,109,109
</chunk>
   <chunk x="656" y="96" width="16" height="16">
0,0,0,0,0,0,0,0,0,0,0,0,0,0,0,0,
0,0,0,0,0,0,0,0,0,0,0,0,0,0,0,0,
0,0,0,0,0,0,0,0,0,0,0,0,0,0,0,0,
0,0,0,0,0,0,0,0,0,0,0,0,0,0,0,0,
0,0,0,0,0,0,0,0,0,0,0,0,0,0,0,0,
0,0,0,0,0,0,0,0,0,0,0,0,0,0,0,0,
0,0,0,0,0,0,0,0,0,0,0,0,0,0,0,0,
0,0,0,0,0,0,0,0,0,0,0,0,0,0,0,0,
0,0,0,0,0,0,0,0,0,0,0,0,0,0,0,0,
101,101,101,101,101,101,101,101,101,101,101,101,101,101,101,101,
109,109,109,117,117,117,117,117,117,117,117,117,117,117,117,117,
109,109,109,117,117,117,117,117,117,117,117,117,117,117,117,117,
109,109,109,109,109,109,109,109,109,109,109,109,109,109,109,109,
109,109,109,109,109,109,109,109,109,109,109,109,109,109,109,109,
109,109,109,109,109,109,109,109,109,109,109,109,109,109,109,109,
109,109,109,109,109,109,109,109,109,109,109,109,109,109,109,109
</chunk>
   <chunk x="672" y="96" width="16" height="16">
0,0,0,0,0,0,0,0,0,0,0,0,0,108,117,117,
0,0,0,0,0,0,0,0,0,0,0,0,0,116,117,117,
0,0,0,0,0,0,0,0,0,0,0,0,0,108,117,117,
0,0,0,0,0,0,0,0,0,0,0,0,0,116,117,117,
0,0,0,0,0,0,0,0,0,0,0,0,0,108,117,117,
0,0,0,0,0,0,0,0,0,0,0,0,0,116,117,117,
0,0,0,0,0,0,0,0,0,0,0,0,0,108,117,117,
0,0,0,0,0,0,0,0,0,0,0,132,133,141,117,117,
0,0,0,0,0,0,0,0,0,0,0,140,141,117,117,117,
101,101,101,101,101,101,101,101,101,101,101,141,117,117,117,117,
117,117,117,117,117,117,117,117,117,117,117,117,117,117,117,117,
117,117,117,117,117,117,117,117,117,117,117,117,117,117,117,117,
109,109,109,109,109,109,109,109,109,109,109,109,109,117,117,117,
109,109,109,109,109,109,109,109,109,109,109,109,109,109,109,109,
109,109,109,109,109,109,109,109,109,109,109,109,109,109,109,109,
109,109,109,109,109,109,109,109,109,109,109,109,109,109,109,109
</chunk>
   <chunk x="688" y="96" width="16" height="16">
117,117,117,117,117,117,117,117,117,117,117,0,0,0,0,0,
117,117,117,117,117,117,117,117,117,117,117,0,0,0,0,0,
117,117,117,117,117,117,117,117,117,117,117,0,0,0,0,0,
117,117,117,117,117,117,117,117,117,117,117,0,0,0,0,0,
117,117,117,117,117,117,117,117,117,117,117,0,0,0,0,0,
117,117,117,117,117,117,117,117,117,117,117,0,0,0,0,0,
117,117,117,117,117,117,117,117,117,117,117,0,0,0,0,0,
117,117,117,117,117,117,117,117,117,117,117,0,0,0,0,0,
117,117,117,117,117,117,117,117,117,117,117,0,0,0,0,0,
117,117,117,117,117,117,117,117,117,117,117,0,0,0,0,0,
117,117,117,117,117,117,117,117,117,117,117,0,0,0,0,0,
117,117,117,117,117,117,117,117,117,117,117,0,0,0,0,0,
117,117,117,117,117,117,117,117,117,117,117,0,0,0,0,0,
109,109,109,109,109,109,109,109,109,109,109,0,0,0,0,0,
109,109,109,109,109,109,109,109,109,109,109,0,0,0,0,0,
109,109,109,109,109,109,109,109,109,109,109,0,0,0,0,0
</chunk>
   <chunk x="416" y="112" width="16" height="16">
0,0,0,109,109,109,109,109,109,109,109,109,109,109,109,109,
0,0,0,109,109,109,109,109,109,109,109,109,109,109,109,109,
0,0,0,109,109,109,109,109,109,109,109,109,109,109,109,109,
0,0,0,109,109,109,109,109,109,109,109,109,109,109,109,109,
0,0,0,109,109,109,109,109,109,109,109,109,109,109,109,109,
0,0,0,109,109,109,109,109,109,109,109,109,109,109,109,109,
0,0,0,109,109,109,109,109,109,109,109,109,109,109,109,109,
0,0,0,109,109,109,109,109,109,109,109,109,109,109,109,109,
0,0,0,109,109,109,109,109,109,109,109,109,109,109,109,109,
0,0,0,109,109,109,109,109,109,109,109,109,109,109,109,109,
0,0,0,109,109,109,109,109,109,109,109,109,109,109,109,109,
0,0,0,109,109,109,109,109,109,109,109,109,109,109,109,109,
0,0,0,109,109,109,109,109,109,109,109,109,109,109,109,109,
0,0,0,109,109,109,109,109,109,109,109,109,109,109,109,109,
0,0,0,109,109,109,109,109,109,109,109,109,109,109,109,109,
0,0,0,109,109,109,109,109,109,109,109,109,109,109,109,109
</chunk>
   <chunk x="432" y="112" width="16" height="16">
109,109,109,109,109,109,109,109,109,109,109,109,109,109,109,109,
109,109,109,109,109,109,109,109,109,109,109,109,109,109,109,109,
109,109,109,109,109,109,109,109,109,109,109,109,109,109,109,109,
109,109,109,109,109,109,109,109,109,109,109,109,109,109,109,109,
109,109,109,109,109,109,109,109,109,109,109,109,109,109,109,109,
109,109,109,109,109,109,109,109,109,109,109,109,109,109,109,109,
109,109,109,109,109,109,109,109,109,109,109,109,109,109,109,109,
109,109,109,109,109,109,109,109,109,109,109,109,109,109,109,109,
109,109,109,109,109,109,109,109,109,109,109,109,109,109,109,109,
109,109,109,109,109,109,109,109,109,109,109,109,109,109,109,109,
109,109,109,109,109,109,109,109,109,109,109,109,109,109,109,109,
109,109,109,109,109,109,109,109,109,109,109,109,109,109,109,109,
109,109,109,109,109,109,109,109,109,109,109,109,109,109,109,109,
109,109,109,109,109,109,109,109,109,109,109,109,109,109,109,109,
109,109,109,109,109,109,109,109,109,109,109,109,109,109,109,109,
109,109,109,109,109,109,109,109,109,109,109,109,109,109,109,109
</chunk>
   <chunk x="448" y="112" width="16" height="16">
109,109,109,109,109,109,109,109,109,109,109,109,109,109,109,109,
109,109,109,109,109,109,109,109,109,109,109,109,109,109,109,109,
109,109,109,109,109,109,109,109,109,109,109,109,109,109,109,109,
109,109,109,109,109,109,109,109,109,109,109,109,109,109,109,109,
109,109,109,109,109,109,109,109,109,109,109,109,109,109,109,109,
109,109,109,109,109,109,109,109,109,109,109,109,109,109,109,109,
109,109,109,109,109,109,109,109,109,109,109,109,109,109,109,109,
109,109,109,109,109,109,109,109,109,109,109,109,109,109,109,109,
109,109,109,109,109,109,109,109,109,109,109,109,109,109,109,109,
109,109,109,109,109,109,109,109,109,109,109,109,109,109,109,109,
109,109,109,109,109,109,109,109,109,109,109,109,109,109,109,109,
109,109,109,109,109,109,109,109,109,109,109,109,109,109,109,109,
109,109,109,109,109,109,109,109,109,109,109,109,109,109,109,109,
109,109,109,109,109,109,109,109,109,109,109,109,109,109,109,109,
109,109,109,109,109,109,109,109,109,109,109,109,109,109,109,109,
109,109,109,109,109,109,109,109,109,109,109,109,109,109,109,109
</chunk>
   <chunk x="464" y="112" width="16" height="16">
109,109,109,109,109,109,109,109,109,109,109,109,109,109,109,109,
109,109,109,109,109,109,109,109,109,109,109,109,109,109,109,109,
109,109,109,109,109,109,109,109,109,109,109,109,109,109,109,109,
109,109,109,109,109,109,109,109,109,109,109,109,109,109,109,109,
109,109,109,109,109,109,109,109,109,109,109,109,109,109,109,109,
109,109,109,109,109,109,109,109,109,109,109,109,109,109,109,109,
109,109,109,109,109,109,109,109,109,109,109,109,109,109,109,109,
109,109,109,109,109,109,109,109,109,109,109,109,109,109,109,109,
109,109,109,109,109,109,109,109,109,109,109,109,109,109,109,109,
109,109,109,109,109,109,109,109,109,109,109,109,109,109,109,109,
109,109,109,109,109,109,109,109,109,109,109,109,109,109,109,109,
109,109,109,109,109,109,109,109,109,109,109,109,109,109,109,109,
109,109,109,109,109,109,109,109,109,109,109,109,109,109,109,109,
109,109,109,109,109,109,109,109,109,109,109,109,109,109,109,109,
109,109,109,109,109,109,109,109,109,109,109,109,109,109,109,109,
109,109,109,109,109,109,109,109,109,109,109,109,109,109,109,109
</chunk>
   <chunk x="480" y="112" width="16" height="16">
109,109,109,109,109,109,109,109,109,109,109,109,109,109,109,109,
109,109,109,109,109,109,109,109,109,109,109,109,109,109,109,109,
109,109,109,109,109,109,109,109,109,109,109,109,109,109,109,109,
109,109,109,109,109,109,109,109,109,109,109,109,109,109,109,109,
109,109,109,109,109,109,109,109,109,109,109,109,109,109,109,109,
109,109,109,109,109,109,109,109,109,109,109,109,109,109,109,109,
109,109,109,109,109,109,109,109,109,109,109,109,109,109,109,109,
109,109,109,109,109,109,109,109,109,109,109,109,109,109,109,109,
109,109,109,109,109,109,109,109,109,109,109,109,109,109,109,109,
109,109,109,109,109,109,109,109,109,109,109,109,109,109,109,109,
109,109,109,109,109,109,109,109,109,109,109,109,109,109,109,109,
109,109,109,109,109,109,109,109,109,109,109,109,109,109,109,109,
109,109,109,109,109,109,109,109,109,109,109,109,109,109,109,109,
109,109,109,109,109,109,109,109,109,109,109,109,109,109,109,109,
109,109,109,109,109,109,109,109,109,109,109,109,109,109,109,109,
109,109,109,109,109,109,109,109,109,109,109,109,109,109,109,109
</chunk>
   <chunk x="496" y="112" width="16" height="16">
109,109,109,109,109,109,109,109,109,109,109,109,109,109,109,109,
109,109,109,109,109,109,109,109,109,109,109,109,109,109,109,109,
109,109,109,109,109,109,109,109,109,109,109,109,109,109,109,109,
109,109,109,109,109,109,109,109,109,109,109,109,109,109,109,109,
109,109,109,109,109,109,109,109,109,109,109,109,109,109,109,109,
109,109,109,109,109,109,109,109,109,109,109,109,109,109,109,109,
109,109,109,109,109,109,109,109,109,109,109,109,109,109,109,109,
109,109,109,109,109,109,109,109,109,109,109,109,109,109,109,109,
109,109,109,109,109,109,109,109,109,109,109,109,109,109,109,109,
109,109,109,109,109,109,109,109,109,109,109,109,109,109,109,109,
109,109,109,109,109,109,109,109,109,109,109,109,109,109,109,109,
109,109,109,109,109,109,109,109,109,109,109,109,109,109,109,109,
109,109,109,109,109,109,109,109,109,109,109,109,109,109,109,109,
109,109,109,109,109,109,109,109,109,109,109,109,109,109,109,109,
109,109,109,109,109,109,109,109,109,109,109,109,109,109,109,109,
109,109,109,109,109,109,109,109,109,109,109,109,109,109,109,109
</chunk>
   <chunk x="512" y="112" width="16" height="16">
109,109,109,109,109,109,109,109,109,109,109,109,109,109,109,109,
109,109,109,109,109,109,109,109,109,109,109,109,109,109,109,109,
109,109,109,109,109,109,109,109,109,109,109,109,109,109,109,109,
109,109,109,109,109,109,109,109,109,109,109,109,109,109,109,109,
109,109,109,109,109,109,109,109,109,109,109,109,109,109,109,109,
109,109,109,109,109,109,109,109,109,109,109,109,109,109,109,109,
109,109,109,109,109,109,109,109,109,109,109,109,109,109,109,109,
109,109,109,109,109,109,109,109,109,109,109,109,109,109,109,109,
109,109,109,109,109,109,109,109,109,109,109,109,109,109,109,109,
109,109,109,109,109,109,109,109,109,109,109,109,109,109,109,109,
109,109,109,109,109,109,109,109,109,109,109,109,109,109,109,109,
109,109,109,109,109,109,109,109,109,109,109,109,109,109,109,109,
109,109,109,109,109,109,109,109,109,109,109,109,109,109,109,109,
109,109,109,109,109,109,109,109,109,109,109,109,109,109,109,109,
109,109,109,109,109,109,109,109,109,109,109,109,109,109,109,109,
109,109,109,109,109,109,109,109,109,109,109,109,109,109,109,109
</chunk>
   <chunk x="528" y="112" width="16" height="16">
109,109,109,109,109,109,109,109,109,109,109,109,109,109,109,109,
109,109,109,109,109,109,109,109,109,109,109,109,109,109,109,109,
109,109,109,109,109,109,109,109,109,109,109,109,109,109,109,109,
109,109,109,109,109,109,109,109,109,109,109,109,109,109,109,109,
109,109,109,109,109,109,109,109,109,109,109,109,109,109,109,109,
109,109,109,109,109,109,109,109,109,109,109,109,109,109,109,109,
109,109,109,109,109,109,109,109,109,109,109,109,109,109,109,109,
109,109,109,109,109,109,109,109,109,109,109,109,109,109,109,109,
109,109,109,109,109,109,109,109,109,109,109,109,109,109,109,109,
109,109,109,109,109,109,109,109,109,109,109,109,109,109,109,109,
109,109,109,109,109,109,109,109,109,109,109,109,109,109,109,109,
109,109,109,109,109,109,109,109,109,109,109,109,109,109,109,109,
109,109,109,109,109,109,109,109,109,109,109,109,109,109,109,109,
109,109,109,109,109,109,109,109,109,109,109,109,109,109,109,109,
109,109,109,109,109,109,109,109,109,109,109,109,109,109,109,109,
109,109,109,109,109,109,109,109,109,109,109,109,109,109,109,109
</chunk>
   <chunk x="544" y="112" width="16" height="16">
109,109,109,109,109,109,109,109,109,109,109,109,109,109,109,109,
109,109,109,109,109,109,109,109,109,109,109,109,109,109,109,109,
109,109,109,109,109,109,109,109,109,109,109,109,109,109,109,109,
109,109,109,109,109,109,109,109,109,109,109,109,109,109,109,109,
109,109,109,109,109,109,109,109,109,109,109,109,109,109,109,109,
109,109,109,109,109,109,109,109,109,109,109,109,109,109,109,109,
109,109,109,109,109,109,109,109,109,109,109,109,109,109,109,109,
109,109,109,109,109,109,109,109,109,109,109,109,109,109,109,109,
109,109,109,109,109,109,109,109,109,109,109,109,109,109,109,109,
109,109,109,109,109,109,109,109,109,109,109,109,109,109,109,109,
109,109,109,109,109,109,109,109,109,109,109,109,109,109,109,109,
109,109,109,109,109,109,109,109,109,109,109,109,109,109,109,109,
109,109,109,109,109,109,109,109,109,109,109,109,109,109,109,109,
109,109,109,109,109,109,109,109,109,109,109,109,109,109,109,109,
109,109,109,109,109,109,109,109,109,109,109,109,109,109,109,109,
109,109,109,109,109,109,109,109,109,109,109,109,109,109,109,109
</chunk>
   <chunk x="560" y="112" width="16" height="16">
109,109,109,109,109,109,109,109,109,109,109,109,109,109,109,109,
109,109,109,109,109,109,109,109,109,109,109,109,109,109,109,109,
109,109,109,109,109,109,109,109,109,109,109,109,109,109,109,109,
109,109,109,109,109,109,109,109,109,109,109,109,109,109,109,109,
109,109,109,109,109,109,109,109,109,109,109,109,109,109,109,109,
109,109,109,109,109,109,109,109,109,109,109,109,109,109,109,109,
109,109,109,109,109,109,109,109,109,109,109,109,109,109,109,109,
109,109,109,109,109,109,109,109,109,109,109,109,109,109,109,109,
109,109,109,109,109,109,109,109,109,109,109,109,109,109,109,109,
109,109,109,109,109,109,109,109,109,109,109,109,109,109,109,109,
109,109,109,109,109,109,109,109,109,109,109,109,109,109,109,109,
109,109,109,109,109,109,109,109,109,109,109,109,109,109,109,109,
109,109,109,109,109,109,109,109,109,109,109,109,109,109,109,109,
109,109,109,109,109,109,109,109,109,109,109,109,109,109,109,109,
109,109,109,109,109,109,109,109,109,109,109,109,109,109,109,109,
109,109,109,109,109,109,109,109,109,109,109,109,109,109,109,109
</chunk>
   <chunk x="576" y="112" width="16" height="16">
109,109,109,109,109,109,109,109,109,109,109,109,109,109,109,109,
109,109,109,109,109,109,109,109,109,109,109,109,109,109,109,109,
109,109,109,109,109,109,109,109,109,109,109,109,109,109,109,109,
109,109,109,109,109,109,109,109,109,109,109,109,109,109,109,109,
109,109,109,109,109,109,109,109,109,109,109,109,109,109,109,109,
109,109,109,109,109,109,109,109,109,109,109,109,109,109,109,109,
109,109,109,109,109,109,109,109,109,109,109,109,109,109,109,109,
109,109,109,109,109,109,109,109,109,109,109,109,109,109,109,109,
109,109,109,109,109,109,109,109,109,109,109,109,109,109,109,109,
109,109,109,109,109,109,109,109,109,109,109,109,109,109,109,109,
109,109,109,109,109,109,109,109,109,109,109,109,109,109,109,109,
109,109,109,109,109,109,109,109,109,109,109,109,109,109,109,109,
109,109,109,109,109,109,109,109,109,109,109,109,109,109,109,109,
109,109,109,109,109,109,109,109,109,109,109,109,109,109,109,109,
109,109,109,109,109,109,109,109,109,109,109,109,109,109,109,109,
109,109,109,109,109,109,109,109,109,109,109,109,109,109,109,109
</chunk>
   <chunk x="592" y="112" width="16" height="16">
109,109,109,109,109,109,109,109,109,109,109,109,109,109,109,109,
109,109,109,109,109,109,109,109,109,109,109,109,109,109,109,109,
109,109,109,109,109,109,109,109,109,109,109,109,109,109,109,109,
109,109,109,109,109,109,109,109,109,109,109,109,109,109,109,109,
109,109,109,109,109,109,109,109,109,109,109,109,109,109,109,109,
109,109,109,109,109,109,109,109,109,109,109,109,109,109,109,109,
109,109,109,109,109,109,109,109,109,109,109,109,109,109,109,109,
109,109,109,109,109,109,109,109,109,109,109,109,109,109,109,109,
109,109,109,109,109,109,109,109,109,109,109,109,109,109,109,109,
109,109,109,109,109,109,109,109,109,109,109,109,109,109,109,109,
109,109,109,109,109,109,109,109,109,109,109,109,109,109,109,109,
109,109,109,109,109,109,109,109,109,109,109,109,109,109,109,109,
109,109,109,109,109,109,109,109,109,109,109,109,109,109,109,109,
109,109,109,109,109,109,109,109,109,109,109,109,109,109,109,109,
109,109,109,109,109,109,109,109,109,109,109,109,109,109,109,109,
109,109,109,109,109,109,109,109,109,109,109,109,109,109,109,109
</chunk>
   <chunk x="608" y="112" width="16" height="16">
109,109,109,109,109,109,109,109,109,109,109,109,109,109,109,109,
109,109,109,109,109,109,109,109,109,109,109,109,109,109,109,109,
109,109,109,109,109,109,109,109,109,109,109,109,109,109,109,109,
109,109,109,109,109,109,109,109,109,109,109,109,109,109,109,109,
109,109,109,109,109,109,109,109,109,109,109,109,109,109,109,109,
109,109,109,109,109,109,109,109,109,109,109,109,109,109,109,109,
109,109,109,109,109,109,109,109,109,109,109,109,109,109,109,109,
109,109,109,109,109,109,109,109,109,109,109,109,109,109,109,109,
109,109,109,109,109,109,109,109,109,109,109,109,109,109,109,109,
109,109,109,109,109,109,109,109,109,109,109,109,109,109,109,109,
109,109,109,109,109,109,109,109,109,109,109,109,109,109,109,109,
109,109,109,109,109,109,109,109,109,109,109,109,109,109,109,109,
109,109,109,109,109,109,109,109,109,109,109,109,109,109,109,109,
109,109,109,109,109,109,109,109,109,109,109,109,109,109,109,109,
109,109,109,109,109,109,109,109,109,109,109,109,109,109,109,109,
109,109,109,109,109,109,109,109,109,109,109,109,109,109,109,109
</chunk>
   <chunk x="624" y="112" width="16" height="16">
109,109,109,109,109,109,109,109,109,109,109,109,109,109,109,109,
109,109,109,109,109,109,109,109,109,109,109,109,109,109,109,109,
109,109,109,109,109,109,109,109,109,109,109,109,109,109,109,109,
109,109,109,109,109,109,109,109,109,109,109,109,109,109,109,109,
109,109,109,109,109,109,109,109,109,109,109,109,109,109,109,109,
109,109,109,109,109,109,109,109,109,109,109,109,109,109,109,109,
109,109,109,109,109,109,109,109,109,109,109,109,109,109,109,109,
109,109,109,109,109,109,109,109,109,109,109,109,109,109,109,109,
109,109,109,109,109,109,109,109,109,109,109,109,109,109,109,109,
109,109,109,109,109,109,109,109,109,109,109,109,109,109,109,109,
109,109,109,109,109,109,109,109,109,109,109,109,109,109,109,109,
109,109,109,109,109,109,109,109,109,109,109,109,109,109,109,109,
109,109,109,109,109,109,109,109,109,109,109,109,109,109,109,109,
109,109,109,109,109,109,109,109,109,109,109,109,109,109,109,109,
109,109,109,109,109,109,109,109,109,109,109,109,109,109,109,109,
109,109,109,109,109,109,109,109,109,109,109,109,109,109,109,109
</chunk>
   <chunk x="640" y="112" width="16" height="16">
109,109,109,109,109,109,109,109,109,109,109,109,109,109,109,109,
109,109,109,109,109,109,109,109,109,109,109,109,109,109,109,109,
109,109,109,109,109,109,109,109,109,109,109,109,109,109,109,109,
109,109,109,109,109,109,109,109,109,109,109,109,109,109,109,109,
109,109,109,109,109,109,109,109,109,109,109,109,109,109,109,109,
109,109,109,109,109,109,109,109,109,109,109,109,109,109,109,109,
109,109,109,109,109,109,109,109,109,109,109,109,109,109,109,109,
109,109,109,109,109,109,109,109,109,109,109,109,109,109,109,109,
109,109,109,109,109,109,109,109,109,109,109,109,109,109,109,109,
109,109,109,109,109,109,109,109,109,109,109,109,109,109,109,109,
109,109,109,109,109,109,109,109,109,109,109,109,109,109,109,109,
109,109,109,109,109,109,109,109,109,109,109,109,109,109,109,109,
109,109,109,109,109,109,109,109,109,109,109,109,109,109,109,109,
109,109,109,109,109,109,109,109,109,109,109,109,109,109,109,109,
109,109,109,109,109,109,109,109,109,109,109,109,109,109,109,109,
109,109,109,109,109,109,109,109,109,109,109,109,109,109,109,109
</chunk>
   <chunk x="656" y="112" width="16" height="16">
109,109,109,109,109,109,109,109,109,109,109,109,109,109,109,109,
109,109,109,109,109,109,109,109,109,109,109,109,109,109,109,109,
109,109,109,109,109,109,109,109,109,109,109,109,109,109,109,109,
109,109,109,109,109,109,109,109,109,109,109,109,109,109,109,109,
109,109,109,109,109,109,109,109,109,109,109,109,109,109,109,109,
109,109,109,109,109,109,109,109,109,109,109,109,109,109,109,109,
109,109,109,109,109,109,109,109,109,109,109,109,109,109,109,109,
109,109,109,109,109,109,109,109,109,109,109,109,109,109,109,109,
109,109,109,109,109,109,109,109,109,109,109,109,109,109,109,109,
109,109,109,109,109,109,109,109,109,109,109,109,109,109,109,109,
109,109,109,109,109,109,109,109,109,109,109,109,109,109,109,109,
109,109,109,109,109,109,109,109,109,109,109,109,109,109,109,109,
109,109,109,109,109,109,109,109,109,109,109,109,109,109,109,109,
109,109,109,109,109,109,109,109,109,109,109,109,109,109,109,109,
109,109,109,109,109,109,109,109,109,109,109,109,109,109,109,109,
109,109,109,109,109,109,109,109,109,109,109,109,109,109,109,109
</chunk>
   <chunk x="672" y="112" width="16" height="16">
109,109,109,109,109,109,109,109,109,109,109,109,109,109,109,109,
109,109,109,109,109,109,109,109,109,109,109,109,109,109,109,109,
109,109,109,109,109,109,109,109,109,109,109,109,109,109,109,109,
109,109,109,109,109,109,109,109,109,109,109,109,109,109,109,109,
109,109,109,109,109,109,109,109,109,109,109,109,109,109,109,109,
109,109,109,109,109,109,109,109,109,109,109,109,109,109,109,109,
109,109,109,109,109,109,109,109,109,109,109,109,109,109,109,109,
109,109,109,109,109,109,109,109,109,109,109,109,109,109,109,109,
109,109,109,109,109,109,109,109,109,109,109,109,109,109,109,109,
109,109,109,109,109,109,109,109,109,109,109,109,109,109,109,109,
109,109,109,109,109,109,109,109,109,109,109,109,109,109,109,109,
109,109,109,109,109,109,109,109,109,109,109,109,109,109,109,109,
109,109,109,109,109,109,109,109,109,109,109,109,109,109,109,109,
109,109,109,109,109,109,109,109,109,109,109,109,109,109,109,109,
109,109,109,109,109,109,109,109,109,109,109,109,109,109,109,109,
109,109,109,109,109,109,109,109,109,109,109,109,109,109,109,109
</chunk>
   <chunk x="688" y="112" width="16" height="16">
109,109,109,109,109,109,109,109,109,109,109,0,0,0,0,0,
109,109,109,109,109,109,109,109,109,109,109,0,0,0,0,0,
109,109,109,109,109,109,109,109,109,109,109,0,0,0,0,0,
109,109,109,109,109,109,109,109,109,109,109,0,0,0,0,0,
109,109,109,109,109,109,109,109,109,109,109,0,0,0,0,0,
109,109,109,109,109,109,109,109,109,109,109,0,0,0,0,0,
109,109,109,109,109,109,109,109,109,109,109,0,0,0,0,0,
109,109,109,109,109,109,109,109,109,109,109,0,0,0,0,0,
109,109,109,109,109,109,109,109,109,109,109,0,0,0,0,0,
109,109,109,109,109,109,109,109,109,109,109,0,0,0,0,0,
109,109,109,109,109,109,109,109,109,109,109,0,0,0,0,0,
109,109,109,109,109,109,109,109,109,109,109,0,0,0,0,0,
109,109,109,109,109,109,109,109,109,109,109,0,0,0,0,0,
109,109,109,109,109,109,109,109,109,109,109,0,0,0,0,0,
109,109,109,109,109,109,109,109,109,109,109,0,0,0,0,0,
109,109,109,109,109,109,109,109,109,109,109,0,0,0,0,0
</chunk>
   <chunk x="416" y="128" width="16" height="16">
0,0,0,109,109,109,109,109,109,109,109,109,109,109,109,109,
0,0,0,109,109,109,109,109,109,109,109,109,109,109,109,109,
0,0,0,109,109,109,109,109,109,109,109,109,109,109,109,109,
0,0,0,109,109,109,109,109,109,109,109,109,109,109,109,109,
0,0,0,109,109,109,109,109,109,109,109,109,109,109,109,109,
0,0,0,0,0,0,0,0,0,0,0,0,0,0,0,0,
0,0,0,0,0,0,0,0,0,0,0,0,0,0,0,0,
0,0,0,0,0,0,0,0,0,0,0,0,0,0,0,0,
0,0,0,0,0,0,0,0,0,0,0,0,0,0,0,0,
0,0,0,0,0,0,0,0,0,0,0,0,0,0,0,0,
0,0,0,0,0,0,0,0,0,0,0,0,0,0,0,0,
0,0,0,0,0,0,0,0,0,0,0,0,0,0,0,0,
0,0,0,0,0,0,0,0,0,0,0,0,0,0,0,0,
0,0,0,0,0,0,0,0,0,0,0,0,0,0,0,0,
0,0,0,0,0,0,0,0,0,0,0,0,0,0,0,0,
0,0,0,0,0,0,0,0,0,0,0,0,0,0,0,0
</chunk>
   <chunk x="432" y="128" width="16" height="16">
109,109,109,109,109,109,109,109,109,109,109,109,109,109,109,109,
109,109,109,109,109,109,109,109,109,109,109,109,109,109,109,109,
109,109,109,109,109,109,109,109,109,109,109,109,109,109,109,109,
109,109,109,109,109,109,109,109,109,109,109,109,109,109,109,109,
109,109,109,109,109,109,109,109,109,109,109,109,109,109,109,109,
0,0,0,0,0,0,0,0,0,0,0,0,0,0,0,0,
0,0,0,0,0,0,0,0,0,0,0,0,0,0,0,0,
0,0,0,0,0,0,0,0,0,0,0,0,0,0,0,0,
0,0,0,0,0,0,0,0,0,0,0,0,0,0,0,0,
0,0,0,0,0,0,0,0,0,0,0,0,0,0,0,0,
0,0,0,0,0,0,0,0,0,0,0,0,0,0,0,0,
0,0,0,0,0,0,0,0,0,0,0,0,0,0,0,0,
0,0,0,0,0,0,0,0,0,0,0,0,0,0,0,0,
0,0,0,0,0,0,0,0,0,0,0,0,0,0,0,0,
0,0,0,0,0,0,0,0,0,0,0,0,0,0,0,0,
0,0,0,0,0,0,0,0,0,0,0,0,0,0,0,0
</chunk>
   <chunk x="448" y="128" width="16" height="16">
109,109,109,109,109,109,109,109,109,109,109,109,109,109,109,109,
109,109,109,109,109,109,109,109,109,109,109,109,109,109,109,109,
109,109,109,109,109,109,109,109,109,109,109,109,109,109,109,109,
109,109,109,109,109,109,109,109,109,109,109,109,109,109,109,109,
109,109,109,109,109,109,109,109,109,109,109,109,109,109,109,109,
0,0,0,0,0,0,0,0,0,0,0,0,0,0,0,0,
0,0,0,0,0,0,0,0,0,0,0,0,0,0,0,0,
0,0,0,0,0,0,0,0,0,0,0,0,0,0,0,0,
0,0,0,0,0,0,0,0,0,0,0,0,0,0,0,0,
0,0,0,0,0,0,0,0,0,0,0,0,0,0,0,0,
0,0,0,0,0,0,0,0,0,0,0,0,0,0,0,0,
0,0,0,0,0,0,0,0,0,0,0,0,0,0,0,0,
0,0,0,0,0,0,0,0,0,0,0,0,0,0,0,0,
0,0,0,0,0,0,0,0,0,0,0,0,0,0,0,0,
0,0,0,0,0,0,0,0,0,0,0,0,0,0,0,0,
0,0,0,0,0,0,0,0,0,0,0,0,0,0,0,0
</chunk>
   <chunk x="464" y="128" width="16" height="16">
109,109,109,109,109,109,109,109,109,109,109,109,109,109,109,109,
109,109,109,109,109,109,109,109,109,109,109,109,109,109,109,109,
109,109,109,109,109,109,109,109,109,109,109,109,109,109,109,109,
109,109,109,109,109,109,109,109,109,109,109,109,109,109,109,109,
109,109,109,109,109,109,109,109,109,109,109,109,109,109,109,109,
0,0,0,0,0,0,0,0,0,0,0,0,0,0,0,0,
0,0,0,0,0,0,0,0,0,0,0,0,0,0,0,0,
0,0,0,0,0,0,0,0,0,0,0,0,0,0,0,0,
0,0,0,0,0,0,0,0,0,0,0,0,0,0,0,0,
0,0,0,0,0,0,0,0,0,0,0,0,0,0,0,0,
0,0,0,0,0,0,0,0,0,0,0,0,0,0,0,0,
0,0,0,0,0,0,0,0,0,0,0,0,0,0,0,0,
0,0,0,0,0,0,0,0,0,0,0,0,0,0,0,0,
0,0,0,0,0,0,0,0,0,0,0,0,0,0,0,0,
0,0,0,0,0,0,0,0,0,0,0,0,0,0,0,0,
0,0,0,0,0,0,0,0,0,0,0,0,0,0,0,0
</chunk>
   <chunk x="480" y="128" width="16" height="16">
109,109,109,109,109,109,109,109,109,109,109,109,109,109,109,109,
109,109,109,109,109,109,109,109,109,109,109,109,109,109,109,109,
109,109,109,109,109,109,109,109,109,109,109,109,109,109,109,109,
109,109,109,109,109,109,109,109,109,109,109,109,109,109,109,109,
109,109,109,109,109,109,109,109,109,109,109,109,109,109,109,109,
0,0,0,0,0,0,0,0,0,0,0,0,0,0,0,0,
0,0,0,0,0,0,0,0,0,0,0,0,0,0,0,0,
0,0,0,0,0,0,0,0,0,0,0,0,0,0,0,0,
0,0,0,0,0,0,0,0,0,0,0,0,0,0,0,0,
0,0,0,0,0,0,0,0,0,0,0,0,0,0,0,0,
0,0,0,0,0,0,0,0,0,0,0,0,0,0,0,0,
0,0,0,0,0,0,0,0,0,0,0,0,0,0,0,0,
0,0,0,0,0,0,0,0,0,0,0,0,0,0,0,0,
0,0,0,0,0,0,0,0,0,0,0,0,0,0,0,0,
0,0,0,0,0,0,0,0,0,0,0,0,0,0,0,0,
0,0,0,0,0,0,0,0,0,0,0,0,0,0,0,0
</chunk>
   <chunk x="496" y="128" width="16" height="16">
109,109,109,109,109,109,109,109,109,109,109,109,109,109,109,109,
109,109,109,109,109,109,109,109,109,109,109,109,109,109,109,109,
109,109,109,109,109,109,109,109,109,109,109,109,109,109,109,109,
109,109,109,109,109,109,109,109,109,109,109,109,109,109,109,109,
109,109,109,109,109,109,109,109,109,109,109,109,109,109,109,109,
0,0,0,0,0,0,0,0,0,0,0,0,0,0,0,0,
0,0,0,0,0,0,0,0,0,0,0,0,0,0,0,0,
0,0,0,0,0,0,0,0,0,0,0,0,0,0,0,0,
0,0,0,0,0,0,0,0,0,0,0,0,0,0,0,0,
0,0,0,0,0,0,0,0,0,0,0,0,0,0,0,0,
0,0,0,0,0,0,0,0,0,0,0,0,0,0,0,0,
0,0,0,0,0,0,0,0,0,0,0,0,0,0,0,0,
0,0,0,0,0,0,0,0,0,0,0,0,0,0,0,0,
0,0,0,0,0,0,0,0,0,0,0,0,0,0,0,0,
0,0,0,0,0,0,0,0,0,0,0,0,0,0,0,0,
0,0,0,0,0,0,0,0,0,0,0,0,0,0,0,0
</chunk>
   <chunk x="512" y="128" width="16" height="16">
109,109,109,109,109,109,109,109,109,109,109,109,109,109,109,109,
109,109,109,109,109,109,109,109,109,109,109,109,109,109,109,109,
109,109,109,109,109,109,109,109,109,109,109,109,109,109,109,109,
109,109,109,109,109,109,109,109,109,109,109,109,109,109,109,109,
109,109,109,109,109,109,109,109,109,109,109,109,109,109,109,109,
0,0,0,0,0,0,0,0,0,0,0,0,0,0,0,0,
0,0,0,0,0,0,0,0,0,0,0,0,0,0,0,0,
0,0,0,0,0,0,0,0,0,0,0,0,0,0,0,0,
0,0,0,0,0,0,0,0,0,0,0,0,0,0,0,0,
0,0,0,0,0,0,0,0,0,0,0,0,0,0,0,0,
0,0,0,0,0,0,0,0,0,0,0,0,0,0,0,0,
0,0,0,0,0,0,0,0,0,0,0,0,0,0,0,0,
0,0,0,0,0,0,0,0,0,0,0,0,0,0,0,0,
0,0,0,0,0,0,0,0,0,0,0,0,0,0,0,0,
0,0,0,0,0,0,0,0,0,0,0,0,0,0,0,0,
0,0,0,0,0,0,0,0,0,0,0,0,0,0,0,0
</chunk>
   <chunk x="528" y="128" width="16" height="16">
109,109,109,109,109,109,109,109,109,109,109,109,109,109,109,109,
109,109,109,109,109,109,109,109,109,109,109,109,109,109,109,109,
109,109,109,109,109,109,109,109,109,109,109,109,109,109,109,109,
109,109,109,109,109,109,109,109,109,109,109,109,109,109,109,109,
109,109,109,109,109,109,109,109,109,109,109,109,109,109,109,109,
0,0,0,0,0,0,0,0,0,0,0,0,0,0,0,0,
0,0,0,0,0,0,0,0,0,0,0,0,0,0,0,0,
0,0,0,0,0,0,0,0,0,0,0,0,0,0,0,0,
0,0,0,0,0,0,0,0,0,0,0,0,0,0,0,0,
0,0,0,0,0,0,0,0,0,0,0,0,0,0,0,0,
0,0,0,0,0,0,0,0,0,0,0,0,0,0,0,0,
0,0,0,0,0,0,0,0,0,0,0,0,0,0,0,0,
0,0,0,0,0,0,0,0,0,0,0,0,0,0,0,0,
0,0,0,0,0,0,0,0,0,0,0,0,0,0,0,0,
0,0,0,0,0,0,0,0,0,0,0,0,0,0,0,0,
0,0,0,0,0,0,0,0,0,0,0,0,0,0,0,0
</chunk>
   <chunk x="544" y="128" width="16" height="16">
109,109,109,109,109,109,109,109,109,109,109,109,109,109,109,109,
109,109,109,109,109,109,109,109,109,109,109,109,109,109,109,109,
109,109,109,109,109,109,109,109,109,109,109,109,109,109,109,109,
109,109,109,109,109,109,109,109,109,109,109,109,109,109,109,109,
109,109,109,109,109,109,109,109,109,109,109,109,109,109,109,109,
0,0,0,0,0,0,0,0,0,0,0,0,0,0,0,0,
0,0,0,0,0,0,0,0,0,0,0,0,0,0,0,0,
0,0,0,0,0,0,0,0,0,0,0,0,0,0,0,0,
0,0,0,0,0,0,0,0,0,0,0,0,0,0,0,0,
0,0,0,0,0,0,0,0,0,0,0,0,0,0,0,0,
0,0,0,0,0,0,0,0,0,0,0,0,0,0,0,0,
0,0,0,0,0,0,0,0,0,0,0,0,0,0,0,0,
0,0,0,0,0,0,0,0,0,0,0,0,0,0,0,0,
0,0,0,0,0,0,0,0,0,0,0,0,0,0,0,0,
0,0,0,0,0,0,0,0,0,0,0,0,0,0,0,0,
0,0,0,0,0,0,0,0,0,0,0,0,0,0,0,0
</chunk>
   <chunk x="560" y="128" width="16" height="16">
109,109,109,109,109,109,109,109,109,109,109,109,109,109,109,109,
109,109,109,109,109,109,109,109,109,109,109,109,109,109,109,109,
109,109,109,109,109,109,109,109,109,109,109,109,109,109,109,109,
109,109,109,109,109,109,109,109,109,109,109,109,109,109,109,109,
109,109,109,109,109,109,109,109,109,109,109,109,109,109,109,109,
0,0,0,0,0,0,0,0,0,0,0,0,0,0,0,0,
0,0,0,0,0,0,0,0,0,0,0,0,0,0,0,0,
0,0,0,0,0,0,0,0,0,0,0,0,0,0,0,0,
0,0,0,0,0,0,0,0,0,0,0,0,0,0,0,0,
0,0,0,0,0,0,0,0,0,0,0,0,0,0,0,0,
0,0,0,0,0,0,0,0,0,0,0,0,0,0,0,0,
0,0,0,0,0,0,0,0,0,0,0,0,0,0,0,0,
0,0,0,0,0,0,0,0,0,0,0,0,0,0,0,0,
0,0,0,0,0,0,0,0,0,0,0,0,0,0,0,0,
0,0,0,0,0,0,0,0,0,0,0,0,0,0,0,0,
0,0,0,0,0,0,0,0,0,0,0,0,0,0,0,0
</chunk>
   <chunk x="576" y="128" width="16" height="16">
109,109,109,109,109,109,109,109,109,109,109,109,109,109,109,109,
109,109,109,109,109,109,109,109,109,109,109,109,109,109,109,109,
109,109,109,109,109,109,109,109,109,109,109,109,109,109,109,109,
109,109,109,109,109,109,109,109,109,109,109,109,109,109,109,109,
109,109,109,109,109,109,109,109,109,109,109,109,109,109,109,109,
0,0,0,0,0,0,0,0,0,0,0,0,0,0,0,0,
0,0,0,0,0,0,0,0,0,0,0,0,0,0,0,0,
0,0,0,0,0,0,0,0,0,0,0,0,0,0,0,0,
0,0,0,0,0,0,0,0,0,0,0,0,0,0,0,0,
0,0,0,0,0,0,0,0,0,0,0,0,0,0,0,0,
0,0,0,0,0,0,0,0,0,0,0,0,0,0,0,0,
0,0,0,0,0,0,0,0,0,0,0,0,0,0,0,0,
0,0,0,0,0,0,0,0,0,0,0,0,0,0,0,0,
0,0,0,0,0,0,0,0,0,0,0,0,0,0,0,0,
0,0,0,0,0,0,0,0,0,0,0,0,0,0,0,0,
0,0,0,0,0,0,0,0,0,0,0,0,0,0,0,0
</chunk>
   <chunk x="592" y="128" width="16" height="16">
109,109,109,109,109,109,109,109,109,109,109,109,109,109,109,109,
109,109,109,109,109,109,109,109,109,109,109,109,109,109,109,109,
109,109,109,109,109,109,109,109,109,109,109,109,109,109,109,109,
109,109,109,109,109,109,109,109,109,109,109,109,109,109,109,109,
109,109,109,109,109,109,109,109,109,109,109,109,109,109,109,109,
0,0,0,0,0,0,0,0,0,0,0,0,0,0,0,0,
0,0,0,0,0,0,0,0,0,0,0,0,0,0,0,0,
0,0,0,0,0,0,0,0,0,0,0,0,0,0,0,0,
0,0,0,0,0,0,0,0,0,0,0,0,0,0,0,0,
0,0,0,0,0,0,0,0,0,0,0,0,0,0,0,0,
0,0,0,0,0,0,0,0,0,0,0,0,0,0,0,0,
0,0,0,0,0,0,0,0,0,0,0,0,0,0,0,0,
0,0,0,0,0,0,0,0,0,0,0,0,0,0,0,0,
0,0,0,0,0,0,0,0,0,0,0,0,0,0,0,0,
0,0,0,0,0,0,0,0,0,0,0,0,0,0,0,0,
0,0,0,0,0,0,0,0,0,0,0,0,0,0,0,0
</chunk>
   <chunk x="608" y="128" width="16" height="16">
109,109,109,109,109,109,109,109,109,109,109,109,109,109,109,109,
109,109,109,109,109,109,109,109,109,109,109,109,109,109,109,109,
109,109,109,109,109,109,109,109,109,109,109,109,109,109,109,109,
109,109,109,109,109,109,109,109,109,109,109,109,109,109,109,109,
109,109,109,109,109,109,109,109,109,109,109,109,109,109,109,109,
0,0,0,0,0,0,0,0,0,0,0,0,0,0,0,0,
0,0,0,0,0,0,0,0,0,0,0,0,0,0,0,0,
0,0,0,0,0,0,0,0,0,0,0,0,0,0,0,0,
0,0,0,0,0,0,0,0,0,0,0,0,0,0,0,0,
0,0,0,0,0,0,0,0,0,0,0,0,0,0,0,0,
0,0,0,0,0,0,0,0,0,0,0,0,0,0,0,0,
0,0,0,0,0,0,0,0,0,0,0,0,0,0,0,0,
0,0,0,0,0,0,0,0,0,0,0,0,0,0,0,0,
0,0,0,0,0,0,0,0,0,0,0,0,0,0,0,0,
0,0,0,0,0,0,0,0,0,0,0,0,0,0,0,0,
0,0,0,0,0,0,0,0,0,0,0,0,0,0,0,0
</chunk>
   <chunk x="624" y="128" width="16" height="16">
109,109,109,109,109,109,109,109,109,109,109,109,109,109,109,109,
109,109,109,109,109,109,109,109,109,109,109,109,109,109,109,109,
109,109,109,109,109,109,109,109,109,109,109,109,109,109,109,109,
109,109,109,109,109,109,109,109,109,109,109,109,109,109,109,109,
109,109,109,109,109,109,109,109,109,109,109,109,109,109,109,109,
0,0,0,0,0,0,0,0,0,0,0,0,0,0,0,0,
0,0,0,0,0,0,0,0,0,0,0,0,0,0,0,0,
0,0,0,0,0,0,0,0,0,0,0,0,0,0,0,0,
0,0,0,0,0,0,0,0,0,0,0,0,0,0,0,0,
0,0,0,0,0,0,0,0,0,0,0,0,0,0,0,0,
0,0,0,0,0,0,0,0,0,0,0,0,0,0,0,0,
0,0,0,0,0,0,0,0,0,0,0,0,0,0,0,0,
0,0,0,0,0,0,0,0,0,0,0,0,0,0,0,0,
0,0,0,0,0,0,0,0,0,0,0,0,0,0,0,0,
0,0,0,0,0,0,0,0,0,0,0,0,0,0,0,0,
0,0,0,0,0,0,0,0,0,0,0,0,0,0,0,0
</chunk>
   <chunk x="640" y="128" width="16" height="16">
109,109,109,109,109,109,109,109,109,109,109,109,109,109,109,109,
109,109,109,109,109,109,109,109,109,109,109,109,109,109,109,109,
109,109,109,109,109,109,109,109,109,109,109,109,109,109,109,109,
109,109,109,109,109,109,109,109,109,109,109,109,109,109,109,109,
109,109,109,109,109,109,109,109,109,109,109,109,109,109,109,109,
0,0,0,0,0,0,0,0,0,0,0,0,0,0,0,0,
0,0,0,0,0,0,0,0,0,0,0,0,0,0,0,0,
0,0,0,0,0,0,0,0,0,0,0,0,0,0,0,0,
0,0,0,0,0,0,0,0,0,0,0,0,0,0,0,0,
0,0,0,0,0,0,0,0,0,0,0,0,0,0,0,0,
0,0,0,0,0,0,0,0,0,0,0,0,0,0,0,0,
0,0,0,0,0,0,0,0,0,0,0,0,0,0,0,0,
0,0,0,0,0,0,0,0,0,0,0,0,0,0,0,0,
0,0,0,0,0,0,0,0,0,0,0,0,0,0,0,0,
0,0,0,0,0,0,0,0,0,0,0,0,0,0,0,0,
0,0,0,0,0,0,0,0,0,0,0,0,0,0,0,0
</chunk>
   <chunk x="656" y="128" width="16" height="16">
109,109,109,109,109,109,109,109,109,109,109,109,109,109,109,109,
109,109,109,109,109,109,109,109,109,109,109,109,109,109,109,109,
109,109,109,109,109,109,109,109,109,109,109,109,109,109,109,109,
109,109,109,109,109,109,109,109,109,109,109,109,109,109,109,109,
109,109,109,109,109,109,109,109,109,109,109,109,109,109,109,109,
0,0,0,0,0,0,0,0,0,0,0,0,0,0,0,0,
0,0,0,0,0,0,0,0,0,0,0,0,0,0,0,0,
0,0,0,0,0,0,0,0,0,0,0,0,0,0,0,0,
0,0,0,0,0,0,0,0,0,0,0,0,0,0,0,0,
0,0,0,0,0,0,0,0,0,0,0,0,0,0,0,0,
0,0,0,0,0,0,0,0,0,0,0,0,0,0,0,0,
0,0,0,0,0,0,0,0,0,0,0,0,0,0,0,0,
0,0,0,0,0,0,0,0,0,0,0,0,0,0,0,0,
0,0,0,0,0,0,0,0,0,0,0,0,0,0,0,0,
0,0,0,0,0,0,0,0,0,0,0,0,0,0,0,0,
0,0,0,0,0,0,0,0,0,0,0,0,0,0,0,0
</chunk>
   <chunk x="672" y="128" width="16" height="16">
109,109,109,109,109,109,109,109,109,109,109,109,109,109,109,109,
109,109,109,109,109,109,109,109,109,109,109,109,109,109,109,109,
109,109,109,109,109,109,109,109,109,109,109,109,109,109,109,109,
109,109,109,109,109,109,109,109,109,109,109,109,109,109,109,109,
109,109,109,109,109,109,109,109,109,109,109,109,109,109,109,109,
0,0,0,0,0,0,0,0,0,0,0,0,0,0,0,0,
0,0,0,0,0,0,0,0,0,0,0,0,0,0,0,0,
0,0,0,0,0,0,0,0,0,0,0,0,0,0,0,0,
0,0,0,0,0,0,0,0,0,0,0,0,0,0,0,0,
0,0,0,0,0,0,0,0,0,0,0,0,0,0,0,0,
0,0,0,0,0,0,0,0,0,0,0,0,0,0,0,0,
0,0,0,0,0,0,0,0,0,0,0,0,0,0,0,0,
0,0,0,0,0,0,0,0,0,0,0,0,0,0,0,0,
0,0,0,0,0,0,0,0,0,0,0,0,0,0,0,0,
0,0,0,0,0,0,0,0,0,0,0,0,0,0,0,0,
0,0,0,0,0,0,0,0,0,0,0,0,0,0,0,0
</chunk>
   <chunk x="688" y="128" width="16" height="16">
109,109,109,109,109,109,109,109,109,109,109,0,0,0,0,0,
109,109,109,109,109,109,109,109,109,109,109,0,0,0,0,0,
109,109,109,109,109,109,109,109,109,109,109,0,0,0,0,0,
109,109,109,109,109,109,109,109,109,109,109,0,0,0,0,0,
109,109,109,109,109,109,109,109,109,109,109,0,0,0,0,0,
0,0,0,0,0,0,0,0,0,0,0,0,0,0,0,0,
0,0,0,0,0,0,0,0,0,0,0,0,0,0,0,0,
0,0,0,0,0,0,0,0,0,0,0,0,0,0,0,0,
0,0,0,0,0,0,0,0,0,0,0,0,0,0,0,0,
0,0,0,0,0,0,0,0,0,0,0,0,0,0,0,0,
0,0,0,0,0,0,0,0,0,0,0,0,0,0,0,0,
0,0,0,0,0,0,0,0,0,0,0,0,0,0,0,0,
0,0,0,0,0,0,0,0,0,0,0,0,0,0,0,0,
0,0,0,0,0,0,0,0,0,0,0,0,0,0,0,0,
0,0,0,0,0,0,0,0,0,0,0,0,0,0,0,0,
0,0,0,0,0,0,0,0,0,0,0,0,0,0,0,0
</chunk>
  </data>
 </layer>
 <layer id="2" name="Exits" width="30" height="20" visible="0">
  <data encoding="csv">
   <chunk x="160" y="32" width="16" height="16">
0,0,0,0,0,0,0,0,0,0,0,0,0,0,0,0,
0,0,0,0,0,0,0,0,0,0,0,0,0,0,0,0,
0,0,0,0,0,0,0,0,0,0,0,0,0,0,0,0,
0,0,0,0,0,0,0,0,0,0,0,0,0,0,0,0,
0,0,0,0,0,0,0,0,0,0,0,0,0,0,0,0,
0,0,0,0,0,0,0,0,0,0,0,0,0,0,0,0,
0,0,0,0,0,0,0,0,0,0,0,0,0,0,0,0,
0,0,0,0,0,0,0,0,0,0,0,0,0,0,0,0,
0,0,0,0,0,0,0,0,0,0,0,0,0,0,0,0,
0,0,0,0,0,0,0,0,0,0,0,0,0,0,0,0,
0,0,0,0,0,0,0,0,0,0,0,0,0,0,0,0,
0,0,0,0,0,0,0,0,0,0,0,0,0,0,0,0,
0,0,0,0,0,0,0,0,0,0,0,0,0,0,0,0,
0,0,0,0,0,0,0,0,0,0,0,0,0,0,0,0,
0,0,0,0,0,0,0,0,0,0,0,0,0,0,0,0,
0,0,0,0,0,0,0,0,0,0,13,13,13,13,13,0
</chunk>
   <chunk x="160" y="48" width="16" height="16">
0,0,0,0,0,0,0,0,0,0,13,13,13,13,13,0,
0,0,0,0,0,0,0,0,0,0,13,13,13,13,13,0,
0,0,0,0,0,0,0,0,0,0,13,13,13,13,13,0,
0,0,0,0,0,0,0,0,0,0,13,13,13,13,13,0,
0,0,0,0,0,0,0,0,0,0,13,13,13,13,13,0,
0,0,0,0,0,0,0,0,0,0,13,13,13,13,13,0,
0,0,0,0,0,0,0,0,0,0,0,0,0,0,0,0,
0,0,0,0,0,0,0,0,0,0,0,0,0,0,0,0,
0,0,0,0,0,0,0,0,0,0,0,0,0,0,0,0,
0,0,0,0,0,0,0,0,0,0,0,0,0,0,0,0,
0,0,0,0,0,0,0,0,0,0,0,0,0,0,0,0,
0,0,0,0,0,0,0,0,0,0,0,0,0,0,0,0,
0,0,0,0,0,0,0,0,0,0,0,0,0,0,0,0,
0,0,0,0,0,0,0,0,0,0,0,0,0,0,0,0,
0,0,0,0,0,0,0,0,0,0,0,0,0,0,0,0,
0,0,0,0,0,0,0,0,0,0,0,0,0,0,0,0
</chunk>
   <chunk x="352" y="64" width="16" height="16">
0,0,0,0,0,0,0,0,0,0,0,0,0,0,0,0,
0,0,0,0,13,13,13,13,13,13,13,13,13,13,13,13,
0,0,0,0,13,13,13,13,13,13,13,13,13,13,13,13,
0,0,0,0,13,13,13,13,13,13,13,13,13,13,13,13,
0,0,0,0,13,13,13,13,13,13,13,13,13,13,13,13,
0,0,0,0,13,13,13,13,13,13,13,13,13,13,13,13,
0,0,0,0,13,13,13,13,13,13,13,13,13,13,13,13,
0,0,0,0,13,13,13,13,13,13,13,13,13,13,13,13,
0,0,0,0,13,13,13,13,13,13,13,13,13,13,13,13,
0,0,0,0,13,13,13,13,13,13,13,13,13,13,13,13,
0,0,0,0,13,13,13,13,13,13,13,13,13,13,13,13,
0,0,0,0,13,13,13,13,13,13,13,13,13,13,13,13,
0,0,0,0,0,0,0,0,0,0,0,0,0,0,0,0,
0,0,0,0,0,0,0,0,0,0,0,0,0,0,0,0,
0,0,0,0,0,0,0,0,0,0,0,0,0,0,0,0,
0,0,0,0,0,0,0,0,0,0,0,0,0,0,0,0
</chunk>
   <chunk x="368" y="64" width="16" height="16">
0,0,0,0,0,0,0,0,0,0,0,0,0,0,0,0,
13,13,13,13,13,13,13,13,13,13,13,0,0,0,0,0,
13,13,13,13,13,13,13,13,13,13,13,0,0,0,0,0,
13,13,13,13,13,13,13,13,13,13,13,0,0,0,0,0,
13,13,13,13,13,13,13,13,13,13,13,0,0,0,0,0,
13,13,13,13,13,13,13,13,13,13,13,0,0,0,0,0,
13,13,13,13,13,13,13,13,13,13,13,0,0,0,0,0,
13,13,13,13,13,13,13,13,13,13,13,0,0,0,0,0,
13,13,13,13,13,13,13,13,13,13,13,0,0,0,0,0,
13,13,13,13,13,13,13,13,13,13,13,0,0,0,0,0,
13,13,13,13,13,13,13,13,13,13,13,0,0,0,0,0,
13,13,13,13,13,13,13,13,13,13,13,0,0,0,0,0,
0,0,0,0,0,0,0,0,0,0,0,0,0,0,0,0,
0,0,0,0,0,0,0,0,0,0,0,0,0,0,0,0,
0,0,0,0,0,0,0,0,0,0,0,0,0,0,0,0,
0,0,0,0,0,0,0,0,0,0,0,0,0,0,0,0
</chunk>
  </data>
 </layer>
 <layer id="3" name="Hidden Collections (Optional)" width="30" height="20" visible="0">
  <data encoding="csv">
   <chunk x="208" y="16" width="16" height="16">
0,0,0,0,0,0,0,0,0,0,0,0,0,0,0,0,
0,0,0,0,0,0,0,0,0,0,0,0,0,0,0,0,
0,0,0,0,0,0,0,0,0,0,0,0,0,0,0,0,
0,0,0,0,0,0,0,0,0,0,0,0,0,0,0,0,
0,0,0,0,0,0,0,0,0,0,0,0,0,0,0,0,
0,0,0,0,0,0,0,0,0,0,0,0,0,0,0,0,
0,0,0,0,0,0,0,0,0,0,0,0,0,0,0,0,
0,0,0,0,0,0,0,0,0,0,0,0,0,0,0,13,
0,0,0,0,0,0,0,0,0,0,0,0,0,0,0,13,
0,0,0,0,0,0,0,0,0,0,0,0,0,0,0,13,
0,0,0,0,0,0,0,0,0,0,0,0,0,0,0,13,
0,0,0,0,0,0,0,0,0,0,0,0,0,0,0,13,
0,0,0,0,0,0,0,0,0,0,0,0,0,0,0,13,
0,0,0,0,0,0,0,0,0,0,0,0,0,0,0,13,
0,0,0,0,0,0,0,0,0,0,0,0,0,0,0,0,
0,0,0,0,0,0,0,0,0,0,0,0,0,0,0,0
</chunk>
   <chunk x="224" y="16" width="16" height="16">
0,0,0,0,0,0,0,0,0,0,0,0,0,0,0,0,
0,0,0,0,0,0,0,0,0,0,0,0,0,0,0,0,
0,0,0,0,0,0,0,0,0,0,0,0,0,0,0,0,
0,0,0,0,0,0,0,0,0,0,0,0,0,0,0,0,
0,0,0,0,0,0,0,0,0,0,0,0,0,0,0,0,
0,0,0,0,0,0,0,0,0,0,0,0,0,0,0,0,
0,0,0,0,0,0,0,0,0,0,0,0,0,0,0,0,
13,13,13,13,13,13,13,13,13,13,13,13,13,13,13,13,
13,13,13,13,13,13,13,13,13,13,13,13,13,13,13,13,
13,13,13,13,13,13,13,13,13,13,13,13,13,13,13,13,
13,13,13,13,13,13,13,13,13,13,13,13,13,13,13,13,
13,13,13,13,13,13,13,13,13,13,13,13,13,13,13,13,
13,13,13,13,13,13,13,13,13,13,13,13,13,13,13,13,
13,13,13,13,13,13,13,13,13,13,13,13,13,13,13,13,
0,0,0,0,0,0,0,0,0,0,0,0,0,0,0,0,
0,0,0,0,0,0,0,0,0,0,0,0,0,0,0,0
</chunk>
   <chunk x="320" y="32" width="16" height="16">
0,0,0,0,0,0,0,0,0,0,0,0,0,0,0,0,
0,0,13,13,13,13,13,13,13,13,13,13,0,0,0,0,
0,0,13,13,13,13,13,13,13,13,13,13,0,0,0,0,
0,0,13,13,13,13,13,13,13,13,13,13,0,0,0,0,
0,0,13,13,13,13,13,13,13,13,13,13,0,0,0,0,
0,0,13,13,13,13,13,13,13,13,13,13,0,0,0,0,
0,0,13,13,13,13,13,13,13,13,13,13,0,0,0,0,
0,0,13,13,13,13,13,13,13,13,13,13,0,0,0,0,
0,0,0,0,0,0,0,0,0,0,0,0,0,0,0,0,
0,0,0,0,0,0,0,0,0,0,0,0,0,0,0,0,
0,0,0,0,0,0,0,0,0,0,0,0,0,0,0,0,
0,0,0,0,0,0,0,0,0,0,0,0,0,0,0,0,
0,0,0,0,0,0,0,0,0,0,0,0,0,0,0,0,
0,0,0,0,0,0,0,0,0,0,0,0,0,0,0,0,
0,0,0,0,0,0,0,0,0,0,0,0,0,0,0,0,
0,0,0,0,0,0,0,0,0,0,0,0,0,0,0,0
</chunk>
  </data>
 </layer>
</map>
